(5.31)
(T1  D=3. CR=1.5 - ZMIN=-1. - BALL END MILL)
G21
G40
G49
G80
G90

(3)
M5
T1 M6
S11999 M3
G54
G0 B0. C0.
G17
G0 X-72.815 Y80.569 Z40.
Z4.
G94 G1 Z-1. F216.
Y88.569 F649.
X-71.244
X-67.97 Y83.227
Y88.569
X-66.469
Y80.569
X-68.09
X-71.315 Y85.786
Y80.569
X-72.815
Z4.
G0 Z10.
X-64.859 Y82.912
Z4.
G1 Z-1. F216.
X-64.917 Y83.102 F649.
X-64.963 Y83.297
X-65.026 Y83.697
X-65.064 Y84.106
X-65.088 Y84.52
X-65.068 Y85.046
X-65.047 Y85.307
X-65.011 Y85.565
X-64.958 Y85.821
X-64.888 Y86.073
X-64.723 Y86.572
X-64.57 Y86.869
X-64.399 Y87.153
X-64.197 Y87.417
X-63.978 Y87.669
X-63.744 Y87.885
X-63.497 Y88.082
X-63.228 Y88.245
X-62.944 Y88.389
X-62.524 Y88.529
X-62.312 Y88.588
X-62.098 Y88.634
X-61.881 Y88.665
X-61.661 Y88.685
X-61.219 Y88.705
X-60.823 Y88.676
X-60.431 Y88.633
X-60.051 Y88.564
X-59.866 Y88.515
X-59.686 Y88.454
X-59.512 Y88.38
X-59.342 Y88.294
X-59.015 Y88.09
X-58.699 Y87.856
X-58.39 Y87.608
X-58.143 Y87.269
X-57.912 Y86.923
X-57.807 Y86.746
X-57.711 Y86.566
X-57.627 Y86.382
X-57.557 Y86.193
X-57.499 Y85.999
X-57.453 Y85.801
X-57.389 Y85.395
X-57.352 Y84.979
X-57.328 Y84.558
X-57.352 Y84.14
X-57.389 Y83.727
X-57.452 Y83.323
X-57.498 Y83.126
X-57.555 Y82.934
X-57.626 Y82.746
X-57.709 Y82.563
X-57.804 Y82.384
X-57.908 Y82.208
X-58.137 Y81.865
X-58.382 Y81.527
X-58.689 Y81.279
X-59.003 Y81.047
X-59.328 Y80.843
X-59.497 Y80.757
X-59.671 Y80.683
X-59.85 Y80.622
X-60.034 Y80.574
X-60.413 Y80.504
X-60.803 Y80.462
X-61.197 Y80.433
X-61.595 Y80.461
X-61.987 Y80.503
X-62.368 Y80.571
X-62.553 Y80.619
X-62.734 Y80.679
X-62.909 Y80.753
X-63.079 Y80.839
X-63.408 Y81.042
X-63.724 Y81.274
X-64.035 Y81.521
X-64.279 Y81.855
X-64.507 Y82.195
X-64.706 Y82.545
X-64.789 Y82.726
X-64.859 Y82.912
Z4.
G0 Z10.
X-63.424 Y84.574
Z4.
G1 Z-1. F216.
X-63.394 Y84.018 F649.
X-63.359 Y83.746
X-63.299 Y83.483
X-63.208 Y83.229
X-63.087 Y82.986
X-62.947 Y82.748
X-62.796 Y82.514
X-62.452 Y82.216
X-62.271 Y82.089
X-62.078 Y81.986
X-61.872 Y81.914
X-61.655 Y81.866
X-61.203 Y81.813
X-60.753 Y81.865
X-60.537 Y81.912
X-60.332 Y81.983
X-60.14 Y82.085
X-59.96 Y82.213
X-59.618 Y82.509
X-59.468 Y82.747
X-59.328 Y82.988
X-59.208 Y83.235
X-59.118 Y83.492
X-59.06 Y83.759
X-59.026 Y84.034
X-58.998 Y84.596
X-59.024 Y85.149
X-59.057 Y85.419
X-59.113 Y85.681
X-59.201 Y85.934
X-59.318 Y86.177
X-59.455 Y86.414
X-59.601 Y86.648
X-59.948 Y86.941
X-60.131 Y87.066
X-60.325 Y87.165
X-60.532 Y87.233
X-60.75 Y87.277
X-61.203 Y87.325
X-61.658 Y87.276
X-61.877 Y87.231
X-62.085 Y87.162
X-62.28 Y87.062
X-62.464 Y86.935
X-62.813 Y86.64
X-62.961 Y86.405
X-63.099 Y86.166
X-63.217 Y85.921
X-63.306 Y85.667
X-63.363 Y85.403
X-63.397 Y85.131
X-63.424 Y84.574
Z4.
G0 Z10.
X-56.079 Y82.102
Z4.
G1 Z-1. F216.
X-54.545 F649.
Y80.569
X-56.079
Y82.102
Z4.
G0 Z10.
X-50.1 Y82.064
Z4.
G1 Z-1. F216.
X-50.157 Y82.32 F649.
X-50.192 Y82.585
X-50.218 Y82.855
X-50.193 Y83.169
X-50.172 Y83.323
X-50.139 Y83.474
X-50.091 Y83.621
X-50.033 Y83.765
X-49.896 Y84.048
X-49.69 Y84.314
X-49.579 Y84.438
X-49.457 Y84.549
X-49.324 Y84.646
X-49.181 Y84.732
X-48.881 Y84.885
X-49.135 Y85.012
X-49.255 Y85.083
X-49.369 Y85.163
X-49.473 Y85.254
X-49.568 Y85.356
X-49.746 Y85.576
X-49.86 Y85.803
X-49.949 Y86.038
X-49.995 Y86.285
X-50.016 Y86.539
X-49.97 Y86.955
X-49.928 Y87.156
X-49.864 Y87.347
X-49.772 Y87.526
X-49.658 Y87.695
X-49.391 Y88.018
X-48.989 Y88.284
X-48.78 Y88.395
X-48.562 Y88.48
X-48.334 Y88.537
X-48.099 Y88.571
X-47.615 Y88.602
X-47.133 Y88.57
X-46.898 Y88.536
X-46.671 Y88.479
X-46.454 Y88.394
X-46.245 Y88.283
X-45.844 Y88.018
X-45.575 Y87.696
X-45.46 Y87.527
X-45.368 Y87.348
X-45.303 Y87.157
X-45.261 Y86.956
X-45.214 Y86.539
X-45.235 Y86.276
X-45.254 Y86.147
X-45.284 Y86.022
X-45.326 Y85.9
X-45.379 Y85.781
X-45.503 Y85.549
X-45.673 Y85.342
X-45.763 Y85.245
X-45.861 Y85.158
X-45.967 Y85.08
X-46.079 Y85.011
X-46.316 Y84.885
X-46.022 Y84.743
X-45.882 Y84.663
X-45.75 Y84.572
X-45.628 Y84.468
X-45.515 Y84.354
X-45.304 Y84.105
X-45.155 Y83.828
X-45.091 Y83.686
X-45.04 Y83.54
X-45.005 Y83.389
X-44.982 Y83.235
X-44.957 Y82.921
X-45.006 Y82.42
X-45.051 Y82.177
X-45.123 Y81.945
X-45.226 Y81.726
X-45.357 Y81.518
X-45.664 Y81.12
X-45.872 Y80.963
X-46.084 Y80.814
X-46.302 Y80.685
X-46.532 Y80.584
X-46.773 Y80.515
X-47.025 Y80.471
X-47.544 Y80.427
X-48.033 Y80.464
X-48.271 Y80.5
X-48.503 Y80.557
X-48.726 Y80.641
X-48.942 Y80.748
X-49.361 Y81.
X-49.551 Y81.193
X-49.73 Y81.391
X-49.888 Y81.6
X-49.955 Y81.709
X-50.013 Y81.823
X-50.1 Y82.064
Z4.
G0 Z10.
X-48.305 Y85.715
Z4.
G1 Z-1. F216.
X-48.151 Y85.602 F649.
X-48.071 Y85.554
X-47.987 Y85.517
X-47.898 Y85.491
X-47.806 Y85.475
X-47.615 Y85.459
X-47.422 Y85.475
X-47.328 Y85.491
X-47.238 Y85.517
X-47.153 Y85.555
X-47.072 Y85.603
X-46.916 Y85.718
X-46.799 Y85.878
X-46.75 Y85.961
X-46.712 Y86.049
X-46.686 Y86.141
X-46.67 Y86.237
X-46.654 Y86.435
X-46.671 Y86.626
X-46.687 Y86.719
X-46.713 Y86.808
X-46.751 Y86.892
X-46.799 Y86.972
X-46.914 Y87.126
X-47.066 Y87.239
X-47.145 Y87.287
X-47.229 Y87.326
X-47.317 Y87.351
X-47.409 Y87.368
X-47.598 Y87.385
X-47.793 Y87.368
X-47.888 Y87.352
X-47.978 Y87.326
X-48.064 Y87.288
X-48.146 Y87.239
X-48.302 Y87.123
X-48.417 Y86.969
X-48.466 Y86.888
X-48.505 Y86.804
X-48.531 Y86.715
X-48.547 Y86.622
X-48.564 Y86.43
X-48.549 Y86.232
X-48.533 Y86.137
X-48.508 Y86.045
X-48.47 Y85.957
X-48.421 Y85.874
X-48.305 Y85.715
Z4.
G0 Z10.
X-47.953 Y84.182
Z4.
G1 Z-1. F216.
X-48.063 Y84.144 F649.
X-48.164 Y84.087
X-48.257 Y84.014
X-48.431 Y83.843
X-48.546 Y83.648
X-48.636 Y83.445
X-48.664 Y83.338
X-48.684 Y83.228
X-48.706 Y83.003
X-48.688 Y82.734
X-48.669 Y82.603
X-48.638 Y82.477
X-48.59 Y82.355
X-48.529 Y82.239
X-48.382 Y82.015
X-48.206 Y81.865
X-48.113 Y81.8
X-48.015 Y81.748
X-47.911 Y81.712
X-47.801 Y81.688
X-47.571 Y81.66
X-47.349 Y81.686
X-47.242 Y81.709
X-47.14 Y81.744
X-47.046 Y81.794
X-46.956 Y81.856
X-46.785 Y82.001
X-46.642 Y82.226
X-46.583 Y82.342
X-46.537 Y82.463
X-46.508 Y82.589
X-46.49 Y82.719
X-46.474 Y82.986
X-46.494 Y83.234
X-46.514 Y83.354
X-46.545 Y83.47
X-46.591 Y83.58
X-46.651 Y83.686
X-46.791 Y83.89
X-46.966 Y84.035
X-47.057 Y84.098
X-47.154 Y84.147
X-47.258 Y84.182
X-47.367 Y84.205
X-47.593 Y84.231
X-47.837 Y84.206
X-47.953 Y84.182
Z4.
G0 Z10.
X-44.002 Y82.855
Z4.
G1 Z-1. F216.
X-43.978 Y83.169 F649.
X-43.956 Y83.323
X-43.923 Y83.474
X-43.876 Y83.621
X-43.817 Y83.765
X-43.68 Y84.048
X-43.474 Y84.314
X-43.363 Y84.438
X-43.242 Y84.549
X-43.108 Y84.646
X-42.966 Y84.732
X-42.665 Y84.885
X-42.919 Y85.012
X-43.04 Y85.083
X-43.153 Y85.163
X-43.257 Y85.254
X-43.353 Y85.356
X-43.53 Y85.576
X-43.645 Y85.803
X-43.733 Y86.038
X-43.78 Y86.285
X-43.8 Y86.539
X-43.754 Y86.955
X-43.712 Y87.156
X-43.648 Y87.347
X-43.557 Y87.526
X-43.442 Y87.695
X-43.176 Y88.018
X-42.773 Y88.284
X-42.564 Y88.395
X-42.347 Y88.48
X-42.119 Y88.537
X-41.883 Y88.571
X-41.399 Y88.602
X-40.917 Y88.57
X-40.682 Y88.536
X-40.455 Y88.479
X-40.238 Y88.394
X-40.03 Y88.283
X-39.629 Y88.018
X-39.36 Y87.696
X-39.244 Y87.527
X-39.152 Y87.348
X-39.088 Y87.157
X-39.045 Y86.956
X-38.998 Y86.539
X-39.019 Y86.276
X-39.039 Y86.147
X-39.068 Y86.022
X-39.11 Y85.9
X-39.163 Y85.781
X-39.287 Y85.549
X-39.457 Y85.342
X-39.548 Y85.245
X-39.645 Y85.158
X-39.751 Y85.08
X-39.864 Y85.011
X-40.1 Y84.885
X-39.807 Y84.743
X-39.667 Y84.663
X-39.534 Y84.572
X-39.413 Y84.468
X-39.3 Y84.354
X-39.088 Y84.105
X-38.939 Y83.828
X-38.875 Y83.686
X-38.825 Y83.54
X-38.789 Y83.389
X-38.767 Y83.235
X-38.742 Y82.921
X-38.79 Y82.42
X-38.836 Y82.177
X-38.907 Y81.945
X-39.011 Y81.726
X-39.141 Y81.518
X-39.448 Y81.12
X-39.657 Y80.963
X-39.868 Y80.814
X-40.087 Y80.685
X-40.316 Y80.584
X-40.558 Y80.515
X-40.809 Y80.471
X-41.328 Y80.427
X-41.817 Y80.464
X-42.056 Y80.5
X-42.288 Y80.557
X-42.511 Y80.641
X-42.727 Y80.748
X-43.146 Y81.
X-43.335 Y81.193
X-43.515 Y81.391
X-43.672 Y81.6
X-43.74 Y81.709
X-43.798 Y81.823
X-43.885 Y82.064
X-43.941 Y82.32
X-43.977 Y82.585
X-44.002 Y82.855
Z4.
G0 Z10.
X-42.09 Y85.715
Z4.
G1 Z-1. F216.
X-41.936 Y85.602 F649.
X-41.855 Y85.554
X-41.771 Y85.517
X-41.682 Y85.491
X-41.59 Y85.475
X-41.399 Y85.459
X-41.206 Y85.475
X-41.113 Y85.491
X-41.023 Y85.517
X-40.938 Y85.555
X-40.856 Y85.603
X-40.701 Y85.718
X-40.584 Y85.878
X-40.535 Y85.961
X-40.496 Y86.049
X-40.471 Y86.141
X-40.454 Y86.237
X-40.439 Y86.435
X-40.456 Y86.626
X-40.472 Y86.719
X-40.498 Y86.808
X-40.536 Y86.892
X-40.584 Y86.972
X-40.698 Y87.126
X-40.85 Y87.239
X-40.93 Y87.287
X-41.013 Y87.326
X-41.101 Y87.351
X-41.193 Y87.368
X-41.383 Y87.385
X-41.578 Y87.368
X-41.672 Y87.352
X-41.763 Y87.326
X-41.848 Y87.288
X-41.93 Y87.239
X-42.087 Y87.123
X-42.202 Y86.969
X-42.251 Y86.888
X-42.289 Y86.804
X-42.315 Y86.715
X-42.332 Y86.622
X-42.349 Y86.43
X-42.334 Y86.232
X-42.318 Y86.137
X-42.292 Y86.045
X-42.255 Y85.957
X-42.206 Y85.874
X-42.09 Y85.715
Z4.
G0 Z10.
X-41.738 Y84.182
Z4.
G1 Z-1. F216.
X-41.847 Y84.144 F649.
X-41.948 Y84.087
X-42.041 Y84.014
X-42.215 Y83.843
X-42.33 Y83.648
X-42.42 Y83.445
X-42.449 Y83.338
X-42.468 Y83.228
X-42.491 Y83.003
X-42.473 Y82.734
X-42.454 Y82.603
X-42.422 Y82.477
X-42.375 Y82.355
X-42.313 Y82.239
X-42.166 Y82.015
X-41.99 Y81.865
X-41.898 Y81.8
X-41.8 Y81.748
X-41.695 Y81.712
X-41.585 Y81.688
X-41.356 Y81.66
X-41.133 Y81.686
X-41.027 Y81.709
X-40.925 Y81.744
X-40.83 Y81.794
X-40.74 Y81.856
X-40.57 Y82.001
X-40.427 Y82.226
X-40.367 Y82.342
X-40.322 Y82.463
X-40.292 Y82.589
X-40.274 Y82.719
X-40.259 Y82.986
X-40.278 Y83.234
X-40.298 Y83.354
X-40.329 Y83.47
X-40.376 Y83.58
X-40.435 Y83.686
X-40.575 Y83.89
X-40.75 Y84.035
X-40.842 Y84.098
X-40.939 Y84.147
X-41.042 Y84.182
X-41.151 Y84.205
X-41.377 Y84.231
X-41.621 Y84.206
X-41.738 Y84.182
Z4.
G0 Z10.
X-37.784 Y81.363
Z4.
G1 Z-1. F216.
X-37.711 Y81.552 F649.
X-37.626 Y81.737
X-37.438 Y82.1
X-37.051 Y82.618
X-36.848 Y82.87
X-36.636 Y83.112
X-36.184 Y83.574
X-35.713 Y84.018
X-35.378 Y84.328
X-35.05 Y84.647
X-34.739 Y84.981
X-34.442 Y85.327
X-34.315 Y85.547
X-34.213 Y85.774
X-34.179 Y85.893
X-34.155 Y86.015
X-34.125 Y86.266
X-34.14 Y86.483
X-34.157 Y86.588
X-34.183 Y86.69
X-34.223 Y86.786
X-34.276 Y86.878
X-34.401 Y87.055
X-34.571 Y87.178
X-34.659 Y87.23
X-34.752 Y87.27
X-34.85 Y87.297
X-34.952 Y87.314
X-35.162 Y87.33
X-35.374 Y87.312
X-35.477 Y87.294
X-35.575 Y87.265
X-35.668 Y87.223
X-35.757 Y87.169
X-35.926 Y87.041
X-36.067 Y86.823
X-36.127 Y86.71
X-36.173 Y86.591
X-36.205 Y86.468
X-36.227 Y86.341
X-36.253 Y86.081
X-37.781 Y86.233
X-37.693 Y86.75
X-37.629 Y86.998
X-37.54 Y87.235
X-37.421 Y87.456
X-37.271 Y87.662
X-37.103 Y87.859
X-36.924 Y88.05
X-36.507 Y88.294
X-36.293 Y88.396
X-36.072 Y88.477
X-35.842 Y88.532
X-35.606 Y88.566
X-35.124 Y88.602
X-34.615 Y88.565
X-34.367 Y88.526
X-34.128 Y88.464
X-33.901 Y88.371
X-33.683 Y88.25
X-33.263 Y87.963
X-32.976 Y87.617
X-32.853 Y87.435
X-32.753 Y87.242
X-32.684 Y87.037
X-32.638 Y86.823
X-32.586 Y86.375
X-32.601 Y86.112
X-32.634 Y85.852
X-32.698 Y85.597
X-32.78 Y85.347
X-32.908 Y85.076
X-33.05 Y84.813
X-33.215 Y84.564
X-33.394 Y84.323
X-33.631 Y84.055
X-33.877 Y83.795
X-34.398 Y83.303
X-34.866 Y82.87
X-35.317 Y82.419
X-35.485 Y82.214
X-35.631 Y81.993
X-32.586
Y80.569
X-37.961
X-37.889 Y80.971
X-37.842 Y81.169
X-37.784 Y81.363
Z4.
G0 Z10.
X-31.517 Y82.419
Z4.
G1 Z-1. F216.
X-30.032 Y82.583 F649.
X-30. Y82.397
X-29.948 Y82.221
X-29.861 Y82.061
X-29.749 Y81.911
X-29.613 Y81.815
X-29.468 Y81.742
X-29.309 Y81.707
X-29.143 Y81.693
X-28.904 Y81.733
X-28.791 Y81.765
X-28.686 Y81.811
X-28.59 Y81.875
X-28.501 Y81.953
X-28.335 Y82.13
X-28.146 Y82.561
X-28.068 Y82.781
X-28.01 Y83.006
X-27.97 Y83.236
X-27.942 Y83.469
X-27.91 Y83.941
X-28.218 Y83.66
X-28.382 Y83.538
X-28.556 Y83.44
X-28.743 Y83.37
X-28.941 Y83.324
X-29.356 Y83.27
X-29.817 Y83.331
X-30.038 Y83.382
X-30.248 Y83.458
X-30.445 Y83.565
X-30.631 Y83.696
X-30.985 Y83.999
X-31.285 Y84.425
X-31.413 Y84.646
X-31.513 Y84.878
X-31.581 Y85.121
X-31.625 Y85.374
X-31.669 Y85.895
X-31.623 Y86.436
X-31.577 Y86.698
X-31.505 Y86.951
X-31.399 Y87.19
X-31.264 Y87.418
X-31.11 Y87.639
X-30.946 Y87.857
X-30.746 Y88.022
X-30.541 Y88.177
X-30.329 Y88.314
X-30.105 Y88.423
X-29.868 Y88.499
X-29.619 Y88.548
X-29.105 Y88.602
X-28.814 Y88.57
X-28.529 Y88.528
X-28.255 Y88.463
X-28.123 Y88.419
X-27.996 Y88.366
X-27.873 Y88.302
X-27.755 Y88.228
X-27.531 Y88.057
X-27.316 Y87.864
X-27.107 Y87.66
X-26.91 Y87.301
X-26.727 Y86.938
X-26.573 Y86.567
X-26.51 Y86.377
X-26.46 Y86.184
X-26.39 Y85.789
X-26.351 Y85.385
X-26.334 Y84.976
X-26.327 Y84.563
X-26.335 Y84.141
X-26.353 Y83.722
X-26.394 Y83.309
X-26.468 Y82.906
X-26.52 Y82.708
X-26.585 Y82.514
X-26.745 Y82.135
X-26.935 Y81.765
X-27.14 Y81.398
X-27.363 Y81.186
X-27.591 Y80.985
X-27.83 Y80.808
X-27.955 Y80.732
X-28.085 Y80.666
X-28.22 Y80.611
X-28.36 Y80.566
X-28.65 Y80.501
X-28.951 Y80.458
X-29.257 Y80.427
X-29.669 Y80.458
X-29.869 Y80.488
X-30.063 Y80.538
X-30.249 Y80.611
X-30.428 Y80.704
X-30.774 Y80.926
X-31.053 Y81.252
X-31.175 Y81.423
X-31.277 Y81.605
X-31.357 Y81.798
X-31.42 Y82.
X-31.517 Y82.419
Z4.
G0 Z10.
X-29.695 Y84.605
Z4.
G1 Z-1. F216.
X-29.61 Y84.54 F649.
X-29.518 Y84.487
X-29.419 Y84.449
X-29.314 Y84.424
X-29.094 Y84.394
X-28.88 Y84.423
X-28.778 Y84.447
X-28.682 Y84.484
X-28.592 Y84.535
X-28.508 Y84.598
X-28.349 Y84.744
X-28.208 Y84.979
X-28.149 Y85.101
X-28.105 Y85.228
X-28.077 Y85.359
X-28.06 Y85.494
X-28.046 Y85.77
X-28.063 Y86.079
X-28.083 Y86.23
X-28.115 Y86.377
X-28.165 Y86.519
X-28.23 Y86.656
X-28.387 Y86.921
X-28.553 Y87.086
X-28.641 Y87.158
X-28.735 Y87.218
X-28.837 Y87.262
X-28.946 Y87.292
X-29.176 Y87.33
X-29.379 Y87.303
X-29.476 Y87.28
X-29.568 Y87.245
X-29.653 Y87.196
X-29.732 Y87.135
X-29.882 Y86.995
X-30.019 Y86.739
X-30.074 Y86.607
X-30.115 Y86.471
X-30.14 Y86.331
X-30.154 Y86.187
X-30.163 Y85.895
X-30.152 Y85.591
X-30.136 Y85.443
X-30.108 Y85.298
X-30.064 Y85.157
X-30.004 Y85.021
X-29.858 Y84.757
X-29.695 Y84.605
Z4.
G0 Z10.
X-26.786 Y70.692
Z4.
G1 Z-1. F216.
X-26.78 Y68.39 F649.
X-25.601 Y68.393
X-25.598 Y67.018
X-26.777 Y67.015
X-26.771 Y64.387
X-26.768 Y63.922
X-26.735 Y63.458
X-26.677 Y63.335
X-26.581 Y63.24
X-26.442 Y63.174
X-26.289 Y63.155
X-26.111 Y63.176
X-25.936 Y63.211
X-25.596 Y63.322
X-25.445 Y61.984
X-25.776 Y61.871
X-25.943 Y61.822
X-26.112 Y61.784
X-26.457 Y61.741
X-26.807 Y61.723
X-27.023 Y61.733
X-27.236 Y61.758
X-27.444 Y61.81
X-27.649 Y61.878
X-27.806 Y61.952
X-27.953 Y62.041
X-28.082 Y62.153
X-28.199 Y62.281
X-28.287 Y62.439
X-28.359 Y62.603
X-28.407 Y62.776
X-28.443 Y62.953
X-28.474 Y63.256
X-28.494 Y63.56
X-28.501 Y64.169
X-28.508 Y67.011
X-29.3 Y67.009
X-29.303 Y68.384
X-28.511 Y68.386
X-28.515 Y69.681
X-26.786 Y70.692
Z4.
G0 Z10.
X-24.255 Y67.34
Z4.
G1 Z-1. F216.
X-24.059 Y67.626 F649.
X-23.829 Y67.828
X-23.594 Y68.018
X-23.349 Y68.187
X-23.222 Y68.259
X-23.09 Y68.322
X-22.954 Y68.374
X-22.814 Y68.417
X-22.523 Y68.479
X-22.223 Y68.52
X-21.918 Y68.549
X-21.591 Y68.524
X-21.269 Y68.487
X-20.957 Y68.426
X-20.806 Y68.383
X-20.659 Y68.33
X-20.518 Y68.266
X-20.381 Y68.19
X-20.118 Y68.012
X-19.866 Y67.81
X-19.62 Y67.594
X-19.415 Y67.257
X-19.225 Y66.916
X-19.063 Y66.566
X-18.998 Y66.387
X-18.945 Y66.204
X-18.903 Y66.017
X-18.871 Y65.828
X-18.831 Y65.442
X-18.814 Y65.049
X-18.809 Y64.652
X-23.131 Y64.642
X-23.101 Y64.316
X-23.073 Y64.158
X-23.032 Y64.005
X-22.971 Y63.858
X-22.893 Y63.718
X-22.71 Y63.449
X-22.493 Y63.268
X-22.379 Y63.191
X-22.259 Y63.129
X-22.13 Y63.085
X-21.995 Y63.056
X-21.715 Y63.025
X-21.531 Y63.04
X-21.354 Y63.076
X-21.19 Y63.15
X-21.034 Y63.247
X-20.891 Y63.402
X-20.772 Y63.571
X-20.685 Y63.76
X-20.618 Y63.96
X-18.899 Y63.676
X-19.08 Y63.257
X-19.184 Y63.058
X-19.304 Y62.87
X-19.444 Y62.696
X-19.6 Y62.535
X-19.942 Y62.234
X-20.361 Y62.013
X-20.576 Y61.92
X-20.796 Y61.847
X-21.024 Y61.798
X-21.256 Y61.767
X-21.73 Y61.735
X-22.097 Y61.761
X-22.457 Y61.8
X-22.805 Y61.867
X-22.972 Y61.915
X-23.133 Y61.975
X-23.288 Y62.049
X-23.437 Y62.137
X-23.581 Y62.236
X-23.72 Y62.345
X-23.989 Y62.585
X-24.25 Y62.84
X-24.538 Y63.364
X-24.66 Y63.633
X-24.754 Y63.909
X-24.819 Y64.195
X-24.859 Y64.488
X-24.9 Y65.086
X-24.882 Y65.434
X-24.854 Y65.778
X-24.804 Y66.115
X-24.722 Y66.44
X-24.666 Y66.598
X-24.6 Y66.752
X-24.44 Y67.05
X-24.255 Y67.34
Z4.
G0 Z10.
X-20.524 Y65.704
Z4.
G1 Z-1. F216.
X-20.551 Y66.014 F649.
X-20.575 Y66.165
X-20.613 Y66.311
X-20.669 Y66.451
X-20.742 Y66.584
X-20.914 Y66.842
X-21.109 Y67.005
X-21.212 Y67.076
X-21.321 Y67.132
X-21.436 Y67.173
X-21.558 Y67.199
X-21.811 Y67.23
X-22.076 Y67.198
X-22.203 Y67.17
X-22.323 Y67.127
X-22.436 Y67.066
X-22.542 Y66.991
X-22.743 Y66.816
X-22.907 Y66.562
X-22.976 Y66.43
X-23.029 Y66.293
X-23.064 Y66.149
X-23.084 Y66.002
X-23.103 Y65.698
X-20.524 Y65.704
Z4.
G0 Z10.
X-14.31 Y65.252
Z4.
G1 Z-1. F216.
X-14.276 Y65.686 F649.
X-14.247 Y65.9
X-14.203 Y66.11
X-14.142 Y66.316
X-14.066 Y66.519
X-13.891 Y66.917
X-13.655 Y67.287
X-13.526 Y67.461
X-13.385 Y67.623
X-13.227 Y67.769
X-13.057 Y67.902
X-12.693 Y68.148
X-12.279 Y68.331
X-12.069 Y68.41
X-11.854 Y68.472
X-11.635 Y68.516
X-11.412 Y68.544
X-10.96 Y68.576
X-10.62 Y68.549
X-10.284 Y68.51
X-9.958 Y68.448
X-9.799 Y68.405
X-9.645 Y68.351
X-9.496 Y68.287
X-9.35 Y68.211
X-9.07 Y68.035
X-8.799 Y67.834
X-8.533 Y67.621
X-8.322 Y67.354
X-8.124 Y67.082
X-7.949 Y66.801
X-7.874 Y66.656
X-7.81 Y66.506
X-7.756 Y66.352
X-7.713 Y66.194
X-7.65 Y65.869
X-7.61 Y65.534
X-7.582 Y65.195
X-7.609 Y64.852
X-7.648 Y64.514
X-7.71 Y64.185
X-7.753 Y64.025
X-7.806 Y63.87
X-7.87 Y63.718
X-7.945 Y63.571
X-8.12 Y63.286
X-8.319 Y63.011
X-8.53 Y62.74
X-8.792 Y62.525
X-9.059 Y62.322
X-9.336 Y62.143
X-9.479 Y62.066
X-9.627 Y61.999
X-9.78 Y61.944
X-9.937 Y61.899
X-10.26 Y61.834
X-10.593 Y61.792
X-10.931 Y61.761
X-11.375 Y61.792
X-11.594 Y61.82
X-11.81 Y61.861
X-12.022 Y61.92
X-12.231 Y61.993
X-12.642 Y62.162
X-13.017 Y62.391
X-13.193 Y62.517
X-13.356 Y62.657
X-13.503 Y62.813
X-13.637 Y62.984
X-13.882 Y63.347
X-14.072 Y63.804
X-14.153 Y64.036
X-14.215 Y64.272
X-14.257 Y64.513
X-14.284 Y64.757
X-14.31 Y65.252
Z4.
G0 Z10.
X-12.542 Y65.165
Z4.
G1 Z-1. F216.
X-12.518 Y64.763 F649.
X-12.491 Y64.567
X-12.447 Y64.377
X-12.379 Y64.195
X-12.291 Y64.019
X-12.078 Y63.68
X-11.833 Y63.464
X-11.704 Y63.371
X-11.567 Y63.296
X-11.42 Y63.243
X-11.265 Y63.208
X-10.941 Y63.167
X-10.618 Y63.209
X-10.464 Y63.245
X-10.317 Y63.299
X-10.181 Y63.375
X-10.052 Y63.468
X-9.809 Y63.686
X-9.599 Y64.029
X-9.511 Y64.206
X-9.445 Y64.391
X-9.402 Y64.583
X-9.377 Y64.78
X-9.356 Y65.185
X-9.38 Y65.583
X-9.407 Y65.777
X-9.451 Y65.966
X-9.518 Y66.146
X-9.606 Y66.321
X-9.817 Y66.657
X-10.061 Y66.873
X-10.189 Y66.966
X-10.326 Y67.041
X-10.473 Y67.094
X-10.627 Y67.129
X-10.95 Y67.17
X-11.274 Y67.128
X-11.429 Y67.092
X-11.576 Y67.038
X-11.712 Y66.962
X-11.841 Y66.868
X-12.085 Y66.651
X-12.296 Y66.311
X-12.384 Y66.135
X-12.451 Y65.953
X-12.494 Y65.762
X-12.52 Y65.566
X-12.542 Y65.165
Z4.
G0 Z10.
X-6.991 Y67.081
Z4.
G1 Z-1. F216.
X-6.994 Y68.438 F649.
X-6.036 Y68.44
X-6.037 Y68.931
X-6.033 Y69.244
X-6.009 Y69.554
X-5.95 Y69.859
X-5.865 Y70.16
X-5.744 Y70.363
X-5.677 Y70.458
X-5.601 Y70.545
X-5.515 Y70.622
X-5.422 Y70.693
X-5.222 Y70.821
X-4.937 Y70.937
X-4.793 Y70.986
X-4.645 Y71.023
X-4.343 Y71.064
X-4.035 Y71.079
X-3.668 Y71.062
X-3.305 Y71.025
X-2.947 Y70.953
X-2.592 Y70.861
X-2.822 Y69.657
X-3.215 Y69.729
X-3.614 Y69.754
X-3.762 Y69.746
X-3.902 Y69.721
X-4.031 Y69.661
X-4.151 Y69.577
X-4.234 Y69.421
X-4.266 Y69.34
X-4.289 Y69.257
X-4.31 Y69.083
X-4.312 Y68.905
X-4.311 Y68.444
X-3.022 Y68.447
X-3.019 Y67.091
X-4.308 Y67.088
X-4.295 Y61.924
X-6.02 Y61.92
X-6.033 Y67.083
X-6.991 Y67.081
Z4.
G0 Z10.
X1.581 Y65.796
Z4.
G1 Z-1. F216.
X3.572 Y70.943 F649.
X5.493 Y70.948
X9.119 Y61.957
X7.142 Y61.952
X6.351 Y63.994
X2.754 Y63.986
X2.016 Y61.94
X0.088 Y61.935
X1.581 Y65.796
Z4.
G0 Z10.
X10.34 Y62.995
Z4.
G1 Z-1. F216.
X10.154 Y63.278 F649.
X9.992 Y63.571
X9.924 Y63.722
X9.867 Y63.877
X9.784 Y64.197
X9.732 Y64.529
X9.701 Y64.869
X9.682 Y65.212
X9.699 Y65.558
X9.728 Y65.899
X9.778 Y66.234
X9.86 Y66.557
X9.917 Y66.713
X9.984 Y66.865
X10.145 Y67.16
X10.331 Y67.446
X10.529 Y67.728
X10.781 Y67.933
X11.037 Y68.125
X11.303 Y68.293
X11.441 Y68.365
X11.583 Y68.426
X11.73 Y68.476
X11.881 Y68.516
X12.191 Y68.573
X12.511 Y68.609
X12.835 Y68.633
X13.338 Y68.607
X13.584 Y68.578
X13.825 Y68.529
X14.059 Y68.455
X14.286 Y68.358
X14.73 Y68.125
X15.075 Y67.795
X15.231 Y67.62
X15.367 Y67.431
X15.482 Y67.228
X15.579 Y67.013
X15.744 Y66.565
X14.044 Y66.254
X13.993 Y66.47
X13.959 Y66.574
X13.917 Y66.673
X13.863 Y66.766
X13.799 Y66.854
X13.653 Y67.02
X13.472 Y67.134
X13.379 Y67.182
X13.282 Y67.22
X13.181 Y67.245
X13.077 Y67.261
X12.863 Y67.276
X12.571 Y67.244
X12.431 Y67.215
X12.298 Y67.17
X12.173 Y67.104
X12.057 Y67.022
X11.836 Y66.829
X11.649 Y66.482
X11.573 Y66.304
X11.519 Y66.12
X11.485 Y65.93
X11.466 Y65.735
X11.456 Y65.339
X11.467 Y64.906
X11.486 Y64.693
X11.521 Y64.484
X11.577 Y64.282
X11.656 Y64.085
X11.849 Y63.701
X12.072 Y63.496
X12.19 Y63.408
X12.316 Y63.338
X12.452 Y63.29
X12.596 Y63.258
X12.897 Y63.224
X13.117 Y63.243
X13.223 Y63.261
X13.326 Y63.289
X13.425 Y63.33
X13.519 Y63.382
X13.701 Y63.506
X13.866 Y63.72
X13.937 Y63.832
X13.997 Y63.95
X14.044 Y64.074
X14.082 Y64.202
X14.141 Y64.467
X15.836 Y64.183
X15.687 Y63.681
X15.595 Y63.441
X15.484 Y63.212
X15.346 Y62.998
X15.186 Y62.797
X14.827 Y62.419
X14.363 Y62.148
X14.125 Y62.035
X13.878 Y61.947
X13.622 Y61.889
X13.359 Y61.853
X12.821 Y61.818
X12.5 Y61.842
X12.183 Y61.876
X11.875 Y61.933
X11.726 Y61.973
X11.581 Y62.023
X11.44 Y62.083
X11.304 Y62.154
X11.04 Y62.321
X10.787 Y62.512
X10.538 Y62.715
X10.34 Y62.995
Z4.
G0 Z10.
X17.044 Y67.119
Z4.
G1 Z-1. F216.
X17.035 Y70.976 F649.
X18.76 Y70.98
X18.768 Y67.671
X18.977 Y67.877
X19.19 Y68.073
X19.414 Y68.248
X19.532 Y68.324
X19.653 Y68.391
X19.78 Y68.448
X19.911 Y68.495
X20.186 Y68.566
X20.471 Y68.615
X20.761 Y68.652
X21.038 Y68.637
X21.31 Y68.602
X21.576 Y68.529
X21.836 Y68.434
X22.042 Y68.325
X22.235 Y68.2
X22.404 Y68.045
X22.559 Y67.87
X22.669 Y67.692
X22.764 Y67.507
X22.835 Y67.312
X22.892 Y67.11
X22.937 Y66.788
X22.968 Y66.465
X22.984 Y65.815
X22.993 Y61.99
X21.268 Y61.986
X21.26 Y65.43
X21.261 Y65.758
X21.25 Y66.085
X21.214 Y66.409
X21.158 Y66.731
X21.097 Y66.861
X21.021 Y66.98
X20.923 Y67.08
X20.81 Y67.17
X20.663 Y67.242
X20.511 Y67.296
X20.351 Y67.321
X20.187 Y67.331
X19.985 Y67.315
X19.788 Y67.28
X19.601 Y67.21
X19.42 Y67.12
X19.26 Y66.992
X19.12 Y66.847
X19.014 Y66.676
X18.927 Y66.49
X18.852 Y66.184
X18.799 Y65.875
X18.778 Y65.562
X18.774 Y65.246
X18.782 Y61.98
X17.057 Y61.976
X17.044 Y67.119
Z4.
G0 Z10.
X24.721 Y70.994
Z4.
G1 Z-1. F216.
X26.446 Y70.998 F649.
X26.45 Y69.402
X24.725 Y69.398
X24.721 Y70.994
Z4.
G0 Z10.
X24.727 Y68.514
Z4.
G1 Z-1. F216.
X26.452 Y68.518 F649.
X26.468 Y61.999
X24.743 Y61.994
X24.727 Y68.514
Z4.
G0 Z10.
X28.087 Y63.491
Z4.
G1 Z-1. F216.
X27.965 Y63.759 F649.
X27.87 Y64.036
X27.806 Y64.322
X27.766 Y64.615
X27.725 Y65.212
X27.743 Y65.56
X27.771 Y65.904
X27.821 Y66.241
X27.902 Y66.567
X27.958 Y66.724
X28.025 Y66.878
X28.185 Y67.177
X28.369 Y67.467
X28.566 Y67.753
X28.796 Y67.954
X29.031 Y68.145
X29.276 Y68.313
X29.403 Y68.386
X29.535 Y68.448
X29.671 Y68.501
X29.811 Y68.543
X30.102 Y68.605
X30.402 Y68.646
X30.706 Y68.676
X31.034 Y68.65
X31.356 Y68.613
X31.668 Y68.552
X31.819 Y68.51
X31.965 Y68.457
X32.107 Y68.392
X32.244 Y68.317
X32.507 Y68.139
X32.758 Y67.936
X33.005 Y67.721
X33.209 Y67.384
X33.4 Y67.043
X33.561 Y66.693
X33.627 Y66.514
X33.68 Y66.33
X33.722 Y66.144
X33.754 Y65.954
X33.793 Y65.568
X33.81 Y65.175
X33.816 Y64.779
X29.494 Y64.768
X29.524 Y64.443
X29.551 Y64.284
X29.593 Y64.131
X29.654 Y63.985
X29.731 Y63.845
X29.914 Y63.575
X30.131 Y63.395
X30.245 Y63.318
X30.366 Y63.255
X30.494 Y63.212
X30.629 Y63.183
X30.91 Y63.151
X31.094 Y63.166
X31.27 Y63.203
X31.434 Y63.277
X31.591 Y63.374
X31.733 Y63.529
X31.853 Y63.697
X31.939 Y63.887
X32.007 Y64.087
X33.726 Y63.803
X33.544 Y63.384
X33.44 Y63.184
X33.321 Y62.996
X33.181 Y62.823
X33.025 Y62.662
X32.683 Y62.36
X32.264 Y62.139
X32.049 Y62.046
X31.828 Y61.973
X31.601 Y61.924
X31.368 Y61.893
X30.895 Y61.862
X30.528 Y61.887
X30.168 Y61.926
X29.82 Y61.993
X29.653 Y62.041
X29.492 Y62.101
X29.336 Y62.175
X29.187 Y62.263
X29.044 Y62.362
X28.905 Y62.472
X28.636 Y62.711
X28.375 Y62.967
X28.087 Y63.491
Z4.
G0 Z10.
X32.101 Y65.831
Z4.
G1 Z-1. F216.
X32.074 Y66.141 F649.
X32.05 Y66.292
X32.011 Y66.438
X31.955 Y66.577
X31.883 Y66.711
X31.711 Y66.968
X31.515 Y67.132
X31.413 Y67.202
X31.304 Y67.259
X31.188 Y67.299
X31.067 Y67.326
X30.814 Y67.356
X30.549 Y67.324
X30.422 Y67.296
X30.301 Y67.254
X30.189 Y67.193
X30.083 Y67.118
X29.882 Y66.943
X29.717 Y66.688
X29.648 Y66.556
X29.596 Y66.419
X29.561 Y66.276
X29.54 Y66.128
X29.522 Y65.824
X32.101 Y65.831
Z4.
G0 Z10.
X34.906 Y67.235
Z4.
G1 Z-1. F216.
X34.378 Y68.537 F649.
X36.189 Y68.542
X37.425 Y65.217
X37.783 Y64.107
X37.96 Y64.666
X38.143 Y65.219
X39.375 Y68.549
X41.149 Y68.554
X38.574 Y62.028
X37.021 Y62.024
X34.906 Y67.235
Z4.
G0 Z10.
X41.95 Y63.793
Z4.
G1 Z-1. F216.
X41.855 Y64.07 F649.
X41.791 Y64.355
X41.751 Y64.648
X41.71 Y65.246
X41.728 Y65.594
X41.756 Y65.938
X41.806 Y66.275
X41.887 Y66.601
X41.943 Y66.758
X42.01 Y66.912
X42.17 Y67.211
X42.354 Y67.501
X42.551 Y67.786
X42.781 Y67.988
X43.016 Y68.179
X43.261 Y68.347
X43.388 Y68.419
X43.52 Y68.482
X43.656 Y68.534
X43.796 Y68.577
X44.086 Y68.639
X44.387 Y68.68
X44.691 Y68.71
X45.019 Y68.684
X45.341 Y68.647
X45.653 Y68.586
X45.804 Y68.543
X45.95 Y68.491
X46.092 Y68.426
X46.229 Y68.351
X46.491 Y68.173
X46.743 Y67.97
X46.99 Y67.754
X47.194 Y67.418
X47.385 Y67.076
X47.546 Y66.727
X47.611 Y66.547
X47.665 Y66.364
X47.707 Y66.178
X47.738 Y65.988
X47.778 Y65.602
X47.795 Y65.209
X47.801 Y64.813
X43.479 Y64.802
X43.509 Y64.476
X43.536 Y64.318
X43.578 Y64.165
X43.639 Y64.019
X43.716 Y63.879
X43.899 Y63.609
X44.116 Y63.429
X44.23 Y63.351
X44.351 Y63.289
X44.479 Y63.245
X44.614 Y63.217
X44.895 Y63.185
X45.078 Y63.2
X45.255 Y63.237
X45.419 Y63.311
X45.576 Y63.407
X45.718 Y63.562
X45.838 Y63.731
X45.924 Y63.92
X45.992 Y64.12
X47.711 Y63.836
X47.529 Y63.418
X47.425 Y63.218
X47.306 Y63.03
X47.166 Y62.856
X47.009 Y62.695
X46.668 Y62.394
X46.249 Y62.173
X46.034 Y62.08
X45.813 Y62.007
X45.586 Y61.958
X45.354 Y61.927
X44.88 Y61.896
X44.513 Y61.921
X44.153 Y61.96
X43.805 Y62.027
X43.638 Y62.075
X43.477 Y62.135
X43.321 Y62.209
X43.172 Y62.297
X43.029 Y62.396
X42.89 Y62.505
X42.621 Y62.745
X42.36 Y63.001
X42.072 Y63.524
X41.95 Y63.793
Z4.
G0 Z10.
X46.085 Y65.864
Z4.
G1 Z-1. F216.
X46.059 Y66.174 F649.
X46.035 Y66.325
X45.996 Y66.471
X45.94 Y66.611
X45.868 Y66.745
X45.696 Y67.002
X45.5 Y67.165
X45.398 Y67.236
X45.289 Y67.293
X45.173 Y67.333
X45.052 Y67.359
X44.799 Y67.39
X44.534 Y67.358
X44.407 Y67.33
X44.286 Y67.287
X44.174 Y67.227
X44.068 Y67.151
X43.867 Y66.976
X43.702 Y66.722
X43.633 Y66.59
X43.581 Y66.453
X43.546 Y66.31
X43.525 Y66.162
X43.507 Y65.858
X46.085 Y65.864
Z4.
G0 Z10.
X49.075 Y65.965
Z4.
G1 Z-1. F216.
X49.069 Y68.573 F649.
X50.659 Y68.576
X50.661 Y67.686
X50.871 Y67.904
X51.086 Y68.11
X51.313 Y68.295
X51.432 Y68.376
X51.555 Y68.447
X51.684 Y68.508
X51.819 Y68.559
X52.099 Y68.635
X52.392 Y68.688
X52.69 Y68.729
X52.974 Y68.713
X53.251 Y68.672
X53.386 Y68.634
X53.518 Y68.586
X53.778 Y68.474
X54.005 Y68.316
X54.111 Y68.231
X54.21 Y68.138
X54.3 Y68.036
X54.382 Y67.926
X54.535 Y67.696
X54.739 Y67.923
X54.958 Y68.134
X55.201 Y68.315
X55.46 Y68.478
X55.714 Y68.587
X55.975 Y68.673
X56.245 Y68.717
X56.521 Y68.738
X56.839 Y68.721
X56.995 Y68.703
X57.15 Y68.675
X57.3 Y68.633
X57.447 Y68.578
X57.738 Y68.449
X57.972 Y68.278
X58.081 Y68.185
X58.179 Y68.083
X58.266 Y67.971
X58.344 Y67.85
X58.482 Y67.595
X58.572 Y67.264
X58.609 Y67.097
X58.634 Y66.929
X58.659 Y66.588
X58.664 Y66.244
X58.674 Y62.076
X56.949 Y62.072
X56.94 Y65.798
Y66.119
X56.919 Y66.437
X56.894 Y66.593
X56.856 Y66.746
X56.759 Y67.05
X56.609 Y67.211
X56.529 Y67.279
X56.44 Y67.333
X56.344 Y67.369
X56.24 Y67.393
X56.021 Y67.417
X55.839 Y67.398
X55.663 Y67.359
X55.499 Y67.286
X55.34 Y67.194
X55.188 Y67.059
X55.057 Y66.908
X54.959 Y66.734
X54.881 Y66.545
X54.812 Y66.213
X54.764 Y65.877
X54.746 Y65.538
X54.743 Y65.198
X54.751 Y62.067
X53.026 Y62.062
X53.017 Y65.635
X53.018 Y65.945
X53.007 Y66.253
X52.974 Y66.559
X52.922 Y66.863
X52.873 Y66.982
X52.812 Y67.092
X52.731 Y67.188
X52.636 Y67.274
X52.512 Y67.335
X52.384 Y67.381
X52.249 Y67.401
X52.111 Y67.407
X51.92 Y67.391
X51.735 Y67.354
X51.561 Y67.283
X51.393 Y67.191
X51.243 Y67.062
X51.113 Y66.919
X51.015 Y66.751
X50.937 Y66.57
X50.868 Y66.238
X50.821 Y65.903
X50.804 Y65.565
X50.802 Y65.225
X50.81 Y62.057
X49.084 Y62.053
X49.075 Y65.965
Z4.
G0 Z10.
X59.977 Y66.318
Z4.
G1 Z-1. F216.
X60.059 Y66.644 F649.
X60.115 Y66.802
X60.182 Y66.956
X60.342 Y67.254
X60.526 Y67.544
X60.723 Y67.83
X60.953 Y68.032
X61.188 Y68.222
X61.432 Y68.391
X61.56 Y68.463
X61.691 Y68.526
X61.827 Y68.578
X61.968 Y68.621
X62.258 Y68.683
X62.558 Y68.724
X62.863 Y68.753
X63.19 Y68.728
X63.513 Y68.69
X63.825 Y68.63
X63.976 Y68.587
X64.122 Y68.534
X64.264 Y68.47
X64.401 Y68.394
X64.663 Y68.216
X64.915 Y68.013
X65.161 Y67.798
X65.366 Y67.461
X65.557 Y67.12
X65.718 Y66.77
X65.783 Y66.591
X65.837 Y66.408
X65.878 Y66.221
X65.91 Y66.032
X65.95 Y65.646
X65.967 Y65.253
X65.973 Y64.856
X61.651 Y64.846
X61.681 Y64.52
X61.708 Y64.362
X61.75 Y64.208
X61.811 Y64.062
X61.888 Y63.922
X62.071 Y63.653
X62.288 Y63.472
X62.402 Y63.395
X62.523 Y63.333
X62.651 Y63.289
X62.786 Y63.26
X63.067 Y63.228
X63.25 Y63.244
X63.427 Y63.28
X63.591 Y63.354
X63.748 Y63.451
X63.89 Y63.606
X64.01 Y63.775
X64.096 Y63.964
X64.163 Y64.164
X65.883 Y63.88
X65.701 Y63.461
X65.597 Y63.262
X65.478 Y63.074
X65.338 Y62.9
X65.181 Y62.739
X64.84 Y62.438
X64.42 Y62.217
X64.206 Y62.124
X63.985 Y62.051
X63.758 Y62.001
X63.525 Y61.971
X63.051 Y61.939
X62.685 Y61.965
X62.325 Y62.004
X61.977 Y62.07
X61.81 Y62.118
X61.648 Y62.179
X61.493 Y62.253
X61.344 Y62.34
X61.201 Y62.44
X61.061 Y62.549
X60.793 Y62.789
X60.532 Y63.044
X60.244 Y63.568
X60.122 Y63.837
X60.027 Y64.113
X59.963 Y64.399
X59.922 Y64.692
X59.882 Y65.29
X59.899 Y65.637
X59.928 Y65.982
X59.977 Y66.318
Z4.
G0 Z10.
X64.257 Y65.908
Z4.
G1 Z-1. F216.
X64.231 Y66.218 F649.
X64.206 Y66.369
X64.168 Y66.515
X64.112 Y66.655
X64.04 Y66.788
X63.868 Y67.046
X63.672 Y67.209
X63.569 Y67.28
X63.461 Y67.336
X63.345 Y67.377
X63.224 Y67.403
X62.971 Y67.434
X62.706 Y67.402
X62.579 Y67.373
X62.458 Y67.331
X62.346 Y67.27
X62.239 Y67.195
X62.038 Y67.02
X61.874 Y66.766
X61.805 Y66.634
X61.752 Y66.497
X61.718 Y66.353
X61.697 Y66.205
X61.679 Y65.902
X64.257 Y65.908
Z4.
G0 Z10.
X67.364 Y66.009
Z4.
G1 Z-1. F216.
X67.357 Y68.617 F649.
X68.96 Y68.62
X68.962 Y67.663
X69.181 Y67.898
X69.406 Y68.121
X69.644 Y68.319
X69.769 Y68.406
X69.9 Y68.482
X70.037 Y68.546
X70.179 Y68.599
X70.478 Y68.678
X70.79 Y68.732
X71.108 Y68.773
X71.376 Y68.759
X71.641 Y68.726
X71.898 Y68.658
X72.152 Y68.57
X72.354 Y68.47
X72.544 Y68.354
X72.713 Y68.21
X72.868 Y68.047
X72.98 Y67.878
X73.077 Y67.703
X73.149 Y67.516
X73.208 Y67.323
X73.255 Y67.035
X73.288 Y66.746
X73.302 Y66.455
X73.306 Y66.163
X73.316 Y62.111
X71.59 Y62.107
X71.582 Y65.435
X71.583 Y65.779
X71.57 Y66.122
X71.531 Y66.462
X71.469 Y66.8
X71.405 Y66.94
X71.327 Y67.07
X71.225 Y67.181
X71.108 Y67.281
X70.968 Y67.356
X70.822 Y67.413
X70.668 Y67.441
X70.509 Y67.452
X70.295 Y67.433
X70.088 Y67.39
X69.893 Y67.309
X69.706 Y67.204
X69.546 Y67.069
X69.407 Y66.919
X69.303 Y66.743
X69.219 Y66.552
X69.151 Y66.181
X69.106 Y65.808
X69.091 Y65.432
Y65.054
X69.098 Y62.101
X67.373 Y62.097
X67.364 Y66.009
Z4.
G0 Z10.
X75.282 Y62.852
Z4.
G1 Z-1. F216.
X75.233 Y63.025 F649.
X75.198 Y63.202
X75.167 Y63.505
X75.147 Y63.809
X75.14 Y64.418
X75.133 Y67.26
X74.341 Y67.258
X74.337 Y68.633
X75.129 Y68.635
X75.126 Y69.931
X76.855 Y70.942
X76.861 Y68.64
X78.039 Y68.642
X78.043 Y67.267
X76.864 Y67.264
X76.87 Y64.637
X76.872 Y64.171
X76.906 Y63.707
X76.964 Y63.584
X77.06 Y63.489
X77.199 Y63.423
X77.352 Y63.404
X77.53 Y63.426
X77.705 Y63.46
X78.045 Y63.571
X78.196 Y62.234
X77.865 Y62.12
X77.698 Y62.071
X77.528 Y62.033
X77.184 Y61.99
X76.834 Y61.972
X76.618 Y61.982
X76.405 Y62.008
X76.197 Y62.059
X75.992 Y62.127
X75.835 Y62.202
X75.688 Y62.29
X75.559 Y62.403
X75.442 Y62.531
X75.354 Y62.689
X75.282 Y62.852
Z4.
G0 Z10.
X62.789 Y28.366
Z4.
G1 Z-1. F216.
X62.975 Y28.272 F649.
X63.149 Y28.153
X63.481 Y27.873
X63.617 Y27.648
X63.743 Y27.421
X63.85 Y27.187
X63.929 Y26.945
X63.977 Y26.695
X64.003 Y26.437
X64.017 Y25.911
X61.136
X61.155 Y25.693
X61.173 Y25.588
X61.201 Y25.486
X61.241 Y25.388
X61.292 Y25.295
X61.414 Y25.115
X61.558 Y24.994
X61.634 Y24.942
X61.715 Y24.901
X61.8 Y24.871
X61.89 Y24.852
X62.077 Y24.83
X62.2 Y24.84
X62.317 Y24.864
X62.427 Y24.913
X62.531 Y24.978
X62.627 Y25.081
X62.707 Y25.193
X62.764 Y25.319
X62.81 Y25.452
X63.956 Y25.26
X63.834 Y24.981
X63.764 Y24.848
X63.684 Y24.723
X63.591 Y24.608
X63.486 Y24.501
X63.258 Y24.3
X62.978 Y24.154
X62.835 Y24.092
X62.688 Y24.044
X62.536 Y24.011
X62.381 Y23.991
X62.065 Y23.971
X61.82 Y23.988
X61.58 Y24.015
X61.349 Y24.06
X61.13 Y24.133
X60.927 Y24.241
X60.739 Y24.38
X60.561 Y24.541
X60.387 Y24.712
X60.196 Y25.061
X60.115 Y25.24
X60.052 Y25.425
X60.01 Y25.616
X59.983 Y25.811
X59.957 Y26.209
X59.989 Y26.671
X60.022 Y26.895
X60.077 Y27.112
X60.16 Y27.32
X60.267 Y27.518
X60.522 Y27.902
X60.833 Y28.163
X60.996 Y28.274
X61.169 Y28.364
X61.353 Y28.427
X61.547 Y28.468
X61.95 Y28.514
X62.383 Y28.471
X62.591 Y28.43
X62.789 Y28.366
Z4.
G0 Z10.
X62.875 Y26.615
Z4.
G1 Z-1. F216.
X62.858 Y26.822 F649.
X62.817 Y27.02
X62.779 Y27.113
X62.731 Y27.202
X62.617 Y27.374
X62.487 Y27.483
X62.346 Y27.568
X62.188 Y27.613
X62.02 Y27.634
X61.843 Y27.613
X61.758 Y27.594
X61.678 Y27.566
X61.603 Y27.526
X61.532 Y27.476
X61.398 Y27.36
X61.288 Y27.19
X61.242 Y27.102
X61.206 Y27.011
X61.169 Y26.817
X61.156 Y26.615
X62.875
Z4.
G0 Z10.
X59.392 Y26.254
Z4.
G1 Z-1. F216.
X59.347 Y25.801 F649.
X59.305 Y25.581
X59.24 Y25.371
X59.147 Y25.172
X59.03 Y24.983
X58.756 Y24.619
X58.403 Y24.341
X58.218 Y24.222
X58.023 Y24.127
X57.817 Y24.061
X57.601 Y24.018
X57.153 Y23.971
X56.858 Y23.992
X56.568 Y24.039
X56.288 Y24.127
X56.014 Y24.241
X55.764 Y24.394
X55.647 Y24.478
X55.539 Y24.572
X55.441 Y24.676
X55.352 Y24.79
X55.189 Y25.033
X55.063 Y25.338
X55.01 Y25.493
X54.968 Y25.65
X54.941 Y25.81
X54.923 Y25.973
X54.907 Y26.304
X54.93 Y26.593
X54.95 Y26.735
X54.979 Y26.875
X55.071 Y27.147
X55.189 Y27.413
X55.347 Y27.659
X55.433 Y27.775
X55.527 Y27.882
X55.632 Y27.98
X55.746 Y28.068
X55.989 Y28.231
X56.265 Y28.353
X56.406 Y28.405
X56.549 Y28.446
X56.695 Y28.475
X56.844 Y28.493
X57.145 Y28.514
X57.596 Y28.469
X57.813 Y28.427
X58.021 Y28.362
X58.218 Y28.268
X58.405 Y28.15
X58.762 Y27.873
X59.034 Y27.514
X59.15 Y27.326
X59.242 Y27.129
X59.306 Y26.921
X59.347 Y26.704
X59.392 Y26.254
Z4.
G0 Z10.
X53.891 Y26.271
Z4.
G1 Z-1. F216.
X53.887 Y25.981 F649.
X53.868 Y25.693
X53.824 Y25.408
X53.761 Y25.125
X53.649 Y24.878
X53.585 Y24.761
X53.512 Y24.651
X53.426 Y24.551
X53.33 Y24.458
X53.122 Y24.284
X52.835 Y24.14
X52.688 Y24.079
X52.537 Y24.033
X52.382 Y24.002
X52.224 Y23.984
X51.902 Y23.967
X51.524 Y23.995
X51.341 Y24.025
X51.165 Y24.073
X50.998 Y24.146
X50.839 Y24.24
X50.535 Y24.464
X50.315 Y24.794
X50.223 Y24.965
X50.153 Y25.144
X50.106 Y25.331
X50.078 Y25.525
X50.053 Y25.923
X51.194 Y26.054
X51.204 Y25.865
X51.228 Y25.68
X51.277 Y25.5
X51.346 Y25.325
X51.464 Y25.187
X51.528 Y25.127
X51.599 Y25.08
X51.678 Y25.047
X51.763 Y25.026
X51.943 Y25.002
X52.107 Y25.013
X52.26 Y25.048
X52.33 Y25.081
X52.395 Y25.126
X52.516 Y25.233
X52.605 Y25.463
X52.64 Y25.581
X52.664 Y25.7
X52.684 Y25.944
Y26.193
Y30.069
X53.891
Y26.271
Z4.
G0 Z10.
X56.392 Y27.233
Z4.
G1 Z-1. F216.
X56.251 Y27.006 F649.
X56.192 Y26.889
X56.147 Y26.767
X56.118 Y26.641
X56.1 Y26.51
X56.085 Y26.242
X56.1 Y25.974
X56.118 Y25.844
X56.147 Y25.717
X56.192 Y25.595
X56.251 Y25.478
X56.392 Y25.252
X56.555 Y25.108
X56.641 Y25.045
X56.732 Y24.995
X56.83 Y24.959
X56.934 Y24.935
X57.149 Y24.908
X57.365 Y24.935
X57.468 Y24.959
X57.565 Y24.995
X57.657 Y25.045
X57.742 Y25.108
X57.904 Y25.252
X58.045 Y25.48
X58.104 Y25.599
X58.148 Y25.721
X58.177 Y25.849
X58.194 Y25.981
X58.209 Y26.25
X58.194 Y26.516
X58.176 Y26.646
X58.147 Y26.771
X58.103 Y26.892
X58.044 Y27.008
X57.904 Y27.233
X57.742 Y27.377
X57.657 Y27.439
X57.565 Y27.49
X57.468 Y27.525
X57.365 Y27.549
X57.149 Y27.576
X56.934 Y27.549
X56.83 Y27.525
X56.732 Y27.489
X56.641 Y27.439
X56.555 Y27.377
X56.392 Y27.233
Z4.
G0 Z10.
X47.016 Y26.77
Z4.
G1 Z-1. F216.
Y24.069 F649.
X45.866
Y26.287
X45.858 Y26.746
X45.833 Y26.972
X45.792 Y27.198
X45.75 Y27.291
X45.698 Y27.378
X45.63 Y27.452
X45.553 Y27.519
X45.459 Y27.569
X45.362 Y27.607
X45.259 Y27.626
X45.153 Y27.634
X45.011 Y27.621
X44.873 Y27.594
X44.743 Y27.54
X44.617 Y27.47
X44.511 Y27.381
X44.418 Y27.281
X44.348 Y27.164
X44.292 Y27.036
X44.246 Y26.789
X44.215 Y26.54
X44.204 Y26.289
Y26.038
Y24.069
X43.054
Y28.416
X44.122
Y27.777
X44.419 Y28.082
X44.578 Y28.214
X44.749 Y28.322
X44.935 Y28.399
X45.135 Y28.451
X45.555 Y28.514
X45.733 Y28.504
X45.91 Y28.481
X46.081 Y28.436
X46.25 Y28.377
X46.385 Y28.31
X46.512 Y28.232
X46.624 Y28.135
X46.727 Y28.027
X46.801 Y27.914
X46.865 Y27.797
X46.914 Y27.673
X46.952 Y27.544
X47.005 Y27.159
X47.016 Y26.77
Z4.
G0 Z10.
X42.063 Y25.26
Z4.
G1 Z-1. F216.
X41.942 Y24.981 F649.
X41.872 Y24.848
X41.792 Y24.723
X41.698 Y24.608
X41.594 Y24.501
X41.366 Y24.3
X41.086 Y24.154
X40.942 Y24.092
X40.795 Y24.044
X40.644 Y24.011
X40.489 Y23.991
X40.173 Y23.971
X39.928 Y23.988
X39.688 Y24.015
X39.457 Y24.06
X39.238 Y24.133
X39.035 Y24.241
X38.847 Y24.38
X38.668 Y24.541
X38.494 Y24.712
X38.303 Y25.061
X38.223 Y25.24
X38.16 Y25.425
X38.118 Y25.616
X38.091 Y25.811
X38.065 Y26.209
X38.097 Y26.671
X38.13 Y26.895
X38.185 Y27.112
X38.268 Y27.32
X38.375 Y27.518
X38.63 Y27.902
X38.94 Y28.163
X39.104 Y28.274
X39.276 Y28.364
X39.461 Y28.427
X39.655 Y28.468
X40.058 Y28.514
X40.491 Y28.471
X40.699 Y28.43
X40.897 Y28.366
X41.083 Y28.272
X41.257 Y28.153
X41.589 Y27.873
X41.725 Y27.648
X41.851 Y27.421
X41.958 Y27.187
X42.036 Y26.945
X42.085 Y26.695
X42.111 Y26.437
X42.125 Y25.911
X39.243
X39.263 Y25.693
X39.281 Y25.588
X39.308 Y25.486
X39.349 Y25.388
X39.4 Y25.295
X39.522 Y25.115
X39.666 Y24.994
X39.742 Y24.942
X39.822 Y24.901
X39.908 Y24.871
X39.998 Y24.852
X40.185 Y24.83
X40.307 Y24.84
X40.425 Y24.864
X40.535 Y24.913
X40.639 Y24.978
X40.734 Y25.081
X40.814 Y25.193
X40.872 Y25.319
X40.917 Y25.452
X42.063 Y25.26
Z4.
G0 Z10.
X40.983 Y26.615
Z4.
G1 Z-1. F216.
X40.966 Y26.822 F649.
X40.924 Y27.02
X40.887 Y27.113
X40.839 Y27.202
X40.725 Y27.374
X40.595 Y27.483
X40.454 Y27.568
X40.296 Y27.613
X40.127 Y27.634
X39.951 Y27.613
X39.866 Y27.594
X39.786 Y27.566
X39.711 Y27.526
X39.64 Y27.476
X39.505 Y27.36
X39.395 Y27.19
X39.349 Y27.102
X39.314 Y27.011
X39.277 Y26.817
X39.264 Y26.615
X40.983
Z4.
G0 Z10.
X37.267 Y26.469
Z4.
G1 Z-1. F216.
Y24.069 F649.
X36.199
Y24.707
X36.065 Y24.542
X35.918 Y24.391
X35.751 Y24.265
X35.57 Y24.153
X35.395 Y24.078
X35.216 Y24.018
X35.03 Y23.986
X34.84 Y23.971
X34.472 Y24.022
X34.297 Y24.064
X34.131 Y24.128
X33.977 Y24.216
X33.831 Y24.325
X33.557 Y24.574
X33.314 Y24.959
X33.212 Y25.158
X33.134 Y25.365
X33.083 Y25.58
X33.051 Y25.803
X33.022 Y26.259
X33.048 Y26.713
X33.077 Y26.935
X33.126 Y27.15
X33.202 Y27.357
X33.302 Y27.555
X33.542 Y27.939
X33.827 Y28.183
X33.976 Y28.288
X34.135 Y28.372
X34.305 Y28.431
X34.484 Y28.47
X34.856 Y28.514
X35.218 Y28.461
X35.391 Y28.418
X35.554 Y28.354
X35.705 Y28.265
X35.847 Y28.157
X36.117 Y27.908
Y30.069
X37.267
Y26.469
Z4.
G0 Z10.
X35.842 Y25.217
Z4.
G1 Z-1. F216.
X35.973 Y25.451 F649.
X36.027 Y25.571
X36.068 Y25.696
X36.094 Y25.824
X36.109 Y25.956
X36.121 Y26.226
X36.112 Y26.512
X36.099 Y26.652
X36.075 Y26.79
X36.036 Y26.923
X35.982 Y27.052
X35.851 Y27.304
X35.704 Y27.443
X35.627 Y27.503
X35.544 Y27.551
X35.454 Y27.585
X35.359 Y27.608
X35.159 Y27.634
X34.962 Y27.607
X34.868 Y27.584
X34.779 Y27.551
X34.696 Y27.503
X34.619 Y27.444
X34.473 Y27.308
X34.344 Y27.084
X34.29 Y26.968
X34.25 Y26.848
X34.224 Y26.724
X34.209 Y26.597
X34.197 Y26.336
X34.202 Y26.076
X34.228 Y25.819
X34.256 Y25.694
X34.294 Y25.571
X34.389 Y25.33
X34.541 Y25.143
X34.624 Y25.062
X34.716 Y24.996
X34.819 Y24.949
X34.93 Y24.917
X35.167 Y24.879
X35.363 Y24.909
X35.456 Y24.933
X35.544 Y24.969
X35.625 Y25.018
X35.7 Y25.078
X35.842 Y25.217
Z4.
G0 Z10.
X32.102 Y26.967
Z4.
G1 Z-1. F216.
Y24.069 F649.
X30.951
Y28.416
X32.102
Y26.967
Z4.
G0 Z10.
X29.643 Y24.835
Z4.
G1 Z-1. F216.
X29.526 Y24.67 F649.
X29.384 Y24.526
X29.226 Y24.394
X29.036 Y24.287
X28.839 Y24.201
X28.63 Y24.146
X28.414 Y24.11
X27.684 Y24.077
X26.953 Y24.069
X24.911
Y30.069
X27.309
X27.841 Y30.059
X28.371 Y30.01
X28.537 Y29.971
X28.698 Y29.92
X28.85 Y29.847
X28.997 Y29.762
X29.132 Y29.654
X29.255 Y29.537
X29.362 Y29.404
X29.458 Y29.261
X29.537 Y29.094
X29.597 Y28.922
X29.628 Y28.743
X29.642 Y28.559
X29.624 Y28.354
X29.585 Y28.155
X29.511 Y27.967
X29.415 Y27.785
X29.288 Y27.622
X29.146 Y27.476
X28.979 Y27.358
X28.799 Y27.257
X29.04 Y27.168
X29.156 Y27.115
X29.265 Y27.053
X29.367 Y26.98
X29.462 Y26.897
X29.642 Y26.713
X29.768 Y26.504
X29.823 Y26.397
X29.866 Y26.286
X29.896 Y26.17
X29.915 Y26.052
X29.937 Y25.808
X29.921 Y25.602
X29.888 Y25.399
X29.826 Y25.204
X29.746 Y25.012
X29.643 Y24.835
Z4.
G0 Z10.
X26.122 Y29.07
Z4.
G1 Z-1. F216.
Y27.683 F649.
X26.916
X27.356 Y27.684
X27.796 Y27.703
X27.931 Y27.729
X28.059 Y27.769
X28.176 Y27.835
X28.285 Y27.918
X28.363 Y28.022
X28.422 Y28.134
X28.451 Y28.257
X28.463 Y28.387
X28.453 Y28.51
X28.429 Y28.628
X28.378 Y28.736
X28.31 Y28.839
X28.21 Y28.921
X28.102 Y28.987
X27.981 Y29.026
X27.853 Y29.05
X27.336 Y29.069
X26.818 Y29.07
X26.122
Z4.
G0 Z10.
Y26.684
Z4.
G1 Z-1. F216.
Y25.08 F649.
X27.243
X27.66 Y25.083
X28.074 Y25.117
X28.198 Y25.151
X28.315 Y25.199
X28.419 Y25.27
X28.514 Y25.356
X28.59 Y25.472
X28.647 Y25.594
X28.674 Y25.727
X28.684 Y25.866
X28.676 Y25.987
X28.654 Y26.105
X28.611 Y26.217
X28.553 Y26.324
X28.474 Y26.414
X28.386 Y26.492
X28.285 Y26.551
X28.175 Y26.598
X27.909 Y26.646
X27.641 Y26.676
X27.371 Y26.685
X27.1 Y26.684
X26.122
Z4.
G0 Z10.
X30.951 Y29.005
Z4.
G1 Z-1. F216.
Y30.069 F649.
X32.102
Y29.005
X30.951
Z4.
G0 Z10.
X28.353 Y13.611
Z4.
G1 Z-1. F216.
Y12.722 F649.
X27.392
Y13.611
X28.353
Z4.
G0 Z10.
X27.392 Y12.23
Z4.
G1 Z-1. F216.
X28.353 F649.
Y8.6
X27.392
Y12.23
Z4.
G0 Z10.
X26.394 Y8.6
Z4.
G1 Z-1. F216.
X25.454 F649.
Y12.545
X24.46 Y8.6
X23.485
X22.494 Y12.545
Y8.6
X21.554
Y13.611
X23.069
X23.978 Y10.193
X24.877 Y13.611
X26.394
Y8.6
Z4.
G0 Z10.
X21.007 Y9.937
Z4.
G1 Z-1. F216.
X19.121 F649.
Y10.897
X21.007
Y9.937
Z4.
G0 Z10.
X18.28 Y10.059
Z4.
G1 Z-1. F216.
Y8.973 F649.
X18.277 Y8.73
X18.262 Y8.488
X18.226 Y8.25
X18.174 Y8.013
X18.12 Y7.875
X18.056 Y7.744
X17.972 Y7.625
X17.877 Y7.514
X17.76 Y7.423
X17.637 Y7.343
X17.504 Y7.281
X17.366 Y7.23
X17.166 Y7.183
X16.965 Y7.148
X16.762 Y7.132
X16.557 Y7.127
X16.211 Y7.136
X16.041 Y7.151
X15.874 Y7.179
X15.712 Y7.225
X15.555 Y7.288
X15.248 Y7.443
X15.086 Y7.613
X15.017 Y7.702
X14.96 Y7.799
X14.92 Y7.903
X14.893 Y8.013
X14.862 Y8.245
X14.865 Y8.361
X15.962 Y8.228
X16. Y8.083
X16.039 Y8.021
X16.089 Y7.965
X16.19 Y7.915
X16.296 Y7.88
X16.406 Y7.866
X16.52 Y7.862
X16.666 Y7.866
X16.81 Y7.882
X16.948 Y7.921
X17.084 Y7.975
X17.146 Y8.024
X17.2 Y8.08
X17.275 Y8.218
X17.314 Y8.436
X17.319 Y8.659
Y9.188
X17.098 Y8.947
X16.978 Y8.842
X16.849 Y8.756
X16.707 Y8.694
X16.555 Y8.652
X16.233 Y8.6
X15.887 Y8.65
X15.724 Y8.693
X15.572 Y8.758
X15.435 Y8.848
X15.308 Y8.96
X15.074 Y9.219
X14.925 Y9.505
X14.862 Y9.651
X14.813 Y9.801
X14.78 Y9.956
X14.759 Y10.114
X14.739 Y10.436
X14.761 Y10.814
X14.786 Y10.998
X14.828 Y11.177
X14.892 Y11.348
X14.976 Y11.513
X15.178 Y11.83
X15.415 Y12.034
X15.539 Y12.121
X15.671 Y12.192
X15.812 Y12.242
X15.96 Y12.275
X16.27 Y12.312
X16.599 Y12.262
X16.754 Y12.219
X16.899 Y12.157
X17.031 Y12.07
X17.153 Y11.965
X17.381 Y11.721
Y12.23
X18.28
Y10.059
Z4.
G0 Z10.
X13.98 Y8.6
Z4.
G1 Z-1. F216.
X13.02 F649.
Y10.453
X13.014 Y10.836
X12.992 Y11.025
X12.958 Y11.214
X12.88 Y11.364
X12.823 Y11.426
X12.758 Y11.482
X12.68 Y11.524
X12.599 Y11.556
X12.425 Y11.578
X12.306 Y11.567
X12.19 Y11.544
X12.082 Y11.499
X11.977 Y11.441
X11.888 Y11.366
X11.811 Y11.283
X11.752 Y11.185
X11.705 Y11.078
X11.667 Y10.872
X11.641 Y10.664
X11.632 Y10.245
Y8.6
X10.672
Y12.23
X11.564
Y11.697
X11.812 Y11.951
X11.944 Y12.062
X12.087 Y12.152
X12.243 Y12.217
X12.409 Y12.26
X12.76 Y12.312
X12.909 Y12.304
X13.056 Y12.285
X13.2 Y12.247
X13.341 Y12.198
X13.453 Y12.142
X13.559 Y12.077
X13.653 Y11.997
X13.739 Y11.906
X13.854 Y11.714
X13.927 Y11.502
X13.971 Y11.181
X13.98 Y10.856
Y8.6
Z4.
G0 Z10.
X15.947 Y9.645
Z4.
G1 Z-1. F216.
X16.064 Y9.533 F649.
X16.192 Y9.446
X16.264 Y9.418
X16.34 Y9.399
X16.499 Y9.376
X16.669 Y9.399
X16.75 Y9.418
X16.827 Y9.447
X16.899 Y9.487
X16.966 Y9.537
X17.094 Y9.651
X17.207 Y9.839
X17.254 Y9.935
X17.289 Y10.035
X17.325 Y10.247
X17.337 Y10.467
X17.327 Y10.691
X17.293 Y10.907
X17.26 Y11.011
X17.214 Y11.11
X17.104 Y11.304
X16.979 Y11.419
X16.913 Y11.469
X16.842 Y11.509
X16.765 Y11.537
X16.685 Y11.556
X16.516 Y11.578
X16.352 Y11.556
X16.274 Y11.538
X16.2 Y11.51
X16.132 Y11.471
X16.068 Y11.422
X15.947 Y11.309
X15.841 Y11.119
X15.797 Y11.022
X15.765 Y10.921
X15.732 Y10.709
X15.723 Y10.491
X15.731 Y10.265
X15.763 Y10.047
X15.796 Y9.942
X15.84 Y9.841
X15.947 Y9.645
Z4.
G0 Z10.
X12.485 Y5.463
Z4.
G1 Z-1. F216.
X12.693 Y5.225 F649.
X12.782 Y5.099
X12.855 Y4.966
X12.907 Y4.823
X12.942 Y4.672
X12.985 Y4.359
X11.974 Y4.314
X11.939 Y4.471
X11.886 Y4.619
X11.801 Y4.75
X11.695 Y4.87
X11.546 Y4.95
X11.39 Y5.007
X11.225 Y5.032
X11.054 Y5.039
X10.872 Y5.03
X10.694 Y5.003
X10.526 Y4.941
X10.364 Y4.858
X10.296 Y4.794
X10.244 Y4.723
X10.216 Y4.639
X10.203 Y4.547
X10.216 Y4.459
X10.243 Y4.377
X10.292 Y4.307
X10.354 Y4.243
X10.574 Y4.127
X10.802 Y4.033
X11.04 Y3.964
X11.283 Y3.908
X11.564 Y3.838
X11.84 Y3.759
X12.11 Y3.66
X12.375 Y3.547
X12.538 Y3.445
X12.687 Y3.33
X12.815 Y3.191
X12.929 Y3.038
X13.018 Y2.848
X13.085 Y2.653
X13.117 Y2.449
X13.129 Y2.24
X13.11 Y2.026
X13.068 Y1.819
X12.99 Y1.623
X12.89 Y1.433
X12.751 Y1.257
X12.595 Y1.101
X12.412 Y0.978
X12.213 Y0.874
X11.947 Y0.791
X11.677 Y0.729
X11.402 Y0.701
X11.123 Y0.691
X10.73 Y0.713
X10.538 Y0.738
X10.351 Y0.78
X10.172 Y0.844
X9.998 Y0.928
X9.663 Y1.13
X9.426 Y1.409
X9.322 Y1.555
X9.237 Y1.711
X9.172 Y1.876
X9.124 Y2.05
X9.055 Y2.411
X10.039 Y2.506
X10.087 Y2.302
X10.157 Y2.11
X10.206 Y2.021
X10.265 Y1.937
X10.4 Y1.778
X10.568 Y1.674
X10.654 Y1.63
X10.744 Y1.596
X10.935 Y1.559
X11.133 Y1.546
X11.33 Y1.555
X11.52 Y1.585
X11.611 Y1.615
X11.699 Y1.656
X11.87 Y1.753
X11.97 Y1.854
X12.05 Y1.966
X12.095 Y2.096
X12.117 Y2.236
X12.11 Y2.318
X12.092 Y2.397
X12.058 Y2.47
X12.013 Y2.539
X11.932 Y2.61
X11.845 Y2.67
X11.649 Y2.756
X11.246 Y2.872
X10.839 Y2.974
X10.534 Y3.056
X10.239 Y3.158
X10.098 Y3.224
X9.962 Y3.3
X9.697 Y3.47
X9.505 Y3.687
X9.422 Y3.801
X9.354 Y3.923
X9.306 Y4.053
X9.274 Y4.191
X9.236 Y4.478
X9.254 Y4.668
X9.291 Y4.852
X9.362 Y5.026
X9.453 Y5.194
X9.583 Y5.354
X9.727 Y5.495
X9.896 Y5.607
X10.078 Y5.702
X10.319 Y5.78
X10.562 Y5.839
X10.812 Y5.866
X11.064 Y5.876
X11.446 Y5.858
X11.633 Y5.835
X11.814 Y5.796
X11.989 Y5.736
X12.158 Y5.656
X12.485 Y5.463
Z4.
G0 Z10.
X8.751 Y2.117
Z4.
G1 Z-1. F216.
X6.864 F649.
Y3.077
X8.751
Y2.117
Z4.
G0 Z10.
X5.979 Y1.99
Z4.
G1 Z-1. F216.
Y0.78 F649.
X5.087
Y1.324
X4.976 Y1.186
X4.855 Y1.062
X4.715 Y0.958
X4.565 Y0.866
X4.402 Y0.795
X4.235 Y0.74
X4.061 Y0.711
X3.883 Y0.698
X3.712 Y0.709
X3.545 Y0.736
X3.384 Y0.789
X3.227 Y0.859
X3.096 Y0.948
X2.979 Y1.049
X2.886 Y1.173
X2.807 Y1.31
X2.745 Y1.506
X2.701 Y1.704
X2.682 Y1.908
X2.677 Y2.113
Y4.41
X3.637
Y2.742
X3.641 Y2.271
X3.659 Y2.037
X3.69 Y1.804
X3.723 Y1.724
X3.764 Y1.651
X3.819 Y1.588
X3.883 Y1.53
X3.966 Y1.485
X4.053 Y1.452
X4.144 Y1.436
X4.239 Y1.43
X4.356 Y1.44
X4.47 Y1.463
X4.577 Y1.507
X4.68 Y1.565
X4.765 Y1.634
X4.84 Y1.711
X4.898 Y1.801
X4.946 Y1.9
X4.987 Y2.142
X5.012 Y2.386
X5.018 Y2.879
Y4.41
X5.979
Y1.99
Z4.
G0 Z10.
X1.518 Y1.662
Z4.
G1 Z-1. F216.
X1.425 Y1.456 F649.
X1.372 Y1.358
X1.31 Y1.266
X1.239 Y1.182
X1.159 Y1.105
X0.985 Y0.96
X0.745 Y0.839
X0.623 Y0.789
X0.497 Y0.75
X0.367 Y0.725
X0.235 Y0.709
X-0.034 Y0.695
X-0.35 Y0.718
X-0.503 Y0.743
X-0.65 Y0.784
X-0.789 Y0.844
X-0.922 Y0.923
X-1.175 Y1.11
X-1.36 Y1.385
X-1.436 Y1.528
X-1.495 Y1.678
X-1.534 Y1.834
X-1.557 Y1.996
X-1.579 Y2.328
X-0.625 Y2.438
X-0.617 Y2.28
X-0.597 Y2.126
X-0.556 Y1.976
X-0.498 Y1.829
X-0.4 Y1.714
X-0.346 Y1.664
X-0.287 Y1.625
X-0.221 Y1.597
X-0.15 Y1.579
X0.001 Y1.559
X0.137 Y1.569
X0.265 Y1.598
X0.377 Y1.663
X0.479 Y1.753
X0.554 Y1.945
X0.602 Y2.142
X0.619 Y2.346
Y2.554
Y5.791
X1.628
Y2.619
X1.624 Y2.377
X1.608 Y2.136
X1.571 Y1.898
X1.518 Y1.662
Z4.
G0 Z10.
X0.213 Y8.55
Z4.
G1 Z-1. F216.
X-0.062 Y8.521 F649.
X-0.341 Y8.512
X-0.734 Y8.533
X-0.926 Y8.558
X-1.113 Y8.6
X-1.292 Y8.664
X-1.465 Y8.748
X-1.801 Y8.951
X-2.038 Y9.229
X-2.142 Y9.375
X-2.227 Y9.531
X-2.291 Y9.697
X-2.34 Y9.87
X-2.409 Y10.231
X-1.425 Y10.326
X-1.377 Y10.123
X-1.307 Y9.93
X-1.258 Y9.841
X-1.199 Y9.758
X-1.064 Y9.599
X-0.896 Y9.494
X-0.81 Y9.45
X-0.72 Y9.416
X-0.529 Y9.379
X-0.331 Y9.366
X-0.134 Y9.375
X0.057 Y9.406
X0.147 Y9.436
X0.235 Y9.476
X0.406 Y9.573
X0.506 Y9.675
X0.586 Y9.786
X0.631 Y9.916
X0.653 Y10.057
X0.646 Y10.139
X0.629 Y10.217
X0.594 Y10.29
X0.549 Y10.359
X0.468 Y10.43
X0.381 Y10.491
X0.185 Y10.576
X-0.218 Y10.692
X-0.625 Y10.795
X-0.93 Y10.876
X-1.225 Y10.978
X-1.366 Y11.044
X-1.502 Y11.12
X-1.767 Y11.29
X-1.959 Y11.507
X-2.042 Y11.622
X-2.11 Y11.743
X-2.158 Y11.874
X-2.19 Y12.011
X-2.228 Y12.299
X-2.21 Y12.489
X-2.173 Y12.673
X-2.102 Y12.847
X-2.011 Y13.015
X-1.881 Y13.174
X-1.737 Y13.316
X-1.568 Y13.428
X-1.385 Y13.522
X-1.145 Y13.601
X-0.901 Y13.659
X-0.652 Y13.687
X-0.399 Y13.697
X-0.018 Y13.678
X0.169 Y13.655
X0.35 Y13.617
X0.525 Y13.557
X0.694 Y13.476
X1.021 Y13.283
X1.229 Y13.045
X1.319 Y12.92
X1.391 Y12.786
X1.443 Y12.643
X1.478 Y12.493
X1.522 Y12.179
X0.51 Y12.135
X0.475 Y12.292
X0.422 Y12.439
X0.337 Y12.57
X0.231 Y12.69
X0.082 Y12.77
X-0.074 Y12.828
X-0.239 Y12.852
X-0.41 Y12.859
X-0.592 Y12.85
X-0.77 Y12.823
X-0.938 Y12.762
X-1.1 Y12.678
X-1.167 Y12.614
X-1.22 Y12.543
X-1.248 Y12.459
X-1.261 Y12.367
X-1.248 Y12.279
X-1.221 Y12.198
X-1.172 Y12.127
X-1.11 Y12.063
X-0.89 Y11.948
X-0.662 Y11.853
X-0.424 Y11.784
X-0.181 Y11.728
X0.1 Y11.659
X0.376 Y11.579
X0.646 Y11.48
X0.911 Y11.367
X1.074 Y11.266
X1.223 Y11.15
X1.351 Y11.011
X1.465 Y10.858
X1.554 Y10.669
X1.621 Y10.474
X1.653 Y10.269
X1.665 Y10.06
X1.646 Y9.846
X1.604 Y9.639
X1.526 Y9.443
X1.426 Y9.253
X1.287 Y9.077
X1.131 Y8.921
X0.948 Y8.798
X0.749 Y8.694
X0.483 Y8.611
X0.213 Y8.55
Z4.
G0 Z10.
X-4.887 Y10.139
Z4.
G1 Z-1. F216.
X-7.293 F649.
X-7.277 Y9.957
X-7.239 Y9.784
X-7.205 Y9.702
X-7.163 Y9.624
X-7.061 Y9.474
X-6.94 Y9.373
X-6.81 Y9.295
X-6.663 Y9.254
X-6.507 Y9.236
X-6.405 Y9.244
X-6.307 Y9.265
X-6.215 Y9.306
X-6.128 Y9.359
X-6.048 Y9.445
X-5.981 Y9.539
X-5.933 Y9.644
X-5.895 Y9.756
X-4.938 Y9.595
X-5.04 Y9.362
X-5.098 Y9.251
X-5.165 Y9.147
X-5.243 Y9.05
X-5.331 Y8.961
X-5.521 Y8.794
X-5.755 Y8.671
X-5.875 Y8.62
X-5.997 Y8.579
X-6.124 Y8.552
X-6.254 Y8.535
X-6.517 Y8.518
X-6.922 Y8.555
X-7.115 Y8.593
X-7.298 Y8.654
X-7.467 Y8.744
X-7.625 Y8.861
X-7.919 Y9.137
X-8.078 Y9.429
X-8.146 Y9.579
X-8.198 Y9.733
X-8.234 Y9.892
X-8.256 Y10.055
X-8.278 Y10.388
X-8.251 Y10.773
X-8.223 Y10.961
X-8.177 Y11.142
X-8.108 Y11.315
X-8.019 Y11.481
X-7.806 Y11.801
X-7.547 Y12.019
X-7.41 Y12.112
X-7.266 Y12.187
X-7.112 Y12.24
X-6.95 Y12.274
X-6.613 Y12.312
X-6.252 Y12.277
X-6.078 Y12.242
X-5.912 Y12.189
X-5.758 Y12.11
X-5.612 Y12.011
X-5.335 Y11.778
X-5.116 Y11.4
X-5.026 Y11.205
X-4.961 Y11.003
X-4.92 Y10.793
X-4.899 Y10.578
X-4.887 Y10.139
Z4.
G0 Z10.
X-5.841 Y10.726
Z4.
G1 Z-1. F216.
X-5.855 Y10.899 F649.
X-5.89 Y11.065
X-5.961 Y11.217
X-6.056 Y11.361
X-6.165 Y11.452
X-6.282 Y11.523
X-6.414 Y11.56
X-6.555 Y11.578
X-6.703 Y11.56
X-6.841 Y11.521
X-6.962 Y11.446
X-7.075 Y11.349
X-7.166 Y11.207
X-7.235 Y11.057
X-7.266 Y10.896
X-7.276 Y10.726
X-5.841
Z4.
G0 Z10.
X-8.792 Y10.578
Z4.
G1 Z-1. F216.
X-8.78 Y10.139 F649.
X-11.186
X-11.17 Y9.957
X-11.132 Y9.784
X-11.099 Y9.702
X-11.056 Y9.624
X-10.954 Y9.474
X-10.833 Y9.373
X-10.703 Y9.295
X-10.557 Y9.254
X-10.4 Y9.236
X-10.298 Y9.244
X-10.2 Y9.265
X-10.108 Y9.306
X-10.021 Y9.359
X-9.941 Y9.445
X-9.874 Y9.539
X-9.826 Y9.644
X-9.788 Y9.756
X-8.831 Y9.595
X-8.933 Y9.362
X-8.991 Y9.251
X-9.058 Y9.147
X-9.136 Y9.05
X-9.224 Y8.961
X-9.414 Y8.794
X-9.648 Y8.671
X-9.768 Y8.62
X-9.89 Y8.579
X-10.017 Y8.552
X-10.147 Y8.535
X-10.411 Y8.518
X-10.815 Y8.555
X-11.009 Y8.593
X-11.191 Y8.654
X-11.361 Y8.744
X-11.518 Y8.861
X-11.812 Y9.137
X-11.972 Y9.429
X-12.039 Y9.579
X-12.091 Y9.733
X-12.127 Y9.892
X-12.149 Y10.055
X-12.171 Y10.388
X-12.144 Y10.773
X-12.116 Y10.961
X-12.07 Y11.142
X-12.001 Y11.315
X-11.912 Y11.481
X-11.699 Y11.801
X-11.44 Y12.019
X-11.303 Y12.112
X-11.159 Y12.187
X-11.005 Y12.24
X-10.843 Y12.274
X-10.506 Y12.312
X-10.145 Y12.277
X-9.971 Y12.242
X-9.805 Y12.189
X-9.651 Y12.11
X-9.505 Y12.011
X-9.228 Y11.778
X-9.009 Y11.4
X-8.919 Y11.205
X-8.854 Y11.003
X-8.813 Y10.793
X-8.792 Y10.578
Z4.
G0 Z10.
X-9.734 Y10.726
Z4.
G1 Z-1. F216.
X-9.748 Y10.899 F649.
X-9.783 Y11.065
X-9.854 Y11.217
X-9.949 Y11.361
X-10.058 Y11.452
X-10.175 Y11.523
X-10.307 Y11.56
X-10.448 Y11.578
X-10.596 Y11.56
X-10.734 Y11.521
X-10.856 Y11.446
X-10.968 Y11.349
X-11.059 Y11.207
X-11.128 Y11.057
X-11.159 Y10.896
X-11.169 Y10.726
X-9.734
Z4.
G0 Z10.
X-12.605 Y9.445
Z4.
G1 Z-1. F216.
Y8.6 F649.
X-16.132
Y13.57
X-15.12
Y9.445
X-12.605
Z4.
G0 Z10.
X-16.204 Y5.791
Z4.
G1 Z-1. F216.
X-18.091 Y3.839 F649.
X-16.101 Y0.78
X-17.411
X-18.788 Y3.132
X-19.608 Y2.294
Y0.78
X-20.62
Y5.791
X-19.608
Y3.566
X-17.564 Y5.791
X-16.204
Z4.
G0 Z10.
X-15.814 Y1.555
Z4.
G1 Z-1. F216.
X-15.838 Y1.771 F649.
X-15.828 Y1.916
X-15.803 Y2.056
X-15.755 Y2.19
X-15.691 Y2.32
X-15.607 Y2.433
X-15.513 Y2.535
X-15.401 Y2.618
X-15.279 Y2.689
X-15.094 Y2.762
X-14.905 Y2.824
X-14.516 Y2.913
X-14.043 Y3.01
X-13.812 Y3.074
X-13.582 Y3.149
Y3.244
X-13.588 Y3.354
X-13.608 Y3.458
X-13.655 Y3.552
X-13.719 Y3.639
X-13.84 Y3.699
X-13.966 Y3.74
X-14.099 Y3.755
X-14.235 Y3.757
X-14.341 Y3.752
X-14.443 Y3.737
X-14.541 Y3.703
X-14.635 Y3.656
X-14.712 Y3.581
X-14.778 Y3.498
X-14.828 Y3.403
X-14.868 Y3.303
X-15.739 Y3.46
X-15.659 Y3.685
X-15.611 Y3.793
X-15.554 Y3.895
X-15.486 Y3.989
X-15.408 Y4.076
X-15.233 Y4.239
X-14.981 Y4.359
X-14.853 Y4.409
X-14.721 Y4.445
X-14.585 Y4.469
X-14.447 Y4.482
X-14.167 Y4.492
X-13.922 Y4.487
X-13.679 Y4.466
X-13.443 Y4.414
X-13.21 Y4.34
X-13.078 Y4.267
X-12.958 Y4.181
X-12.856 Y4.074
X-12.767 Y3.954
X-12.701 Y3.745
X-12.656 Y3.532
X-12.64 Y3.314
X-12.639 Y3.094
X-12.649 Y1.973
X-12.642 Y1.619
X-12.603 Y1.267
X-12.532 Y1.018
X-12.431 Y0.78
X-13.381
X-13.473 Y1.064
X-13.507 Y1.177
X-13.627 Y1.07
X-13.754 Y0.973
X-13.891 Y0.891
X-14.034 Y0.818
X-14.179 Y0.767
X-14.326 Y0.727
X-14.478 Y0.707
X-14.632 Y0.698
X-14.873 Y0.716
X-14.991 Y0.734
X-15.104 Y0.764
X-15.212 Y0.809
X-15.316 Y0.866
X-15.515 Y1.002
X-15.653 Y1.17
X-15.712 Y1.259
X-15.76 Y1.352
X-15.793 Y1.451
X-15.814 Y1.555
Z4.
G0 Z10.
X-14.435 Y2.313
Z4.
G1 Z-1. F216.
X-14.564 Y2.266 F649.
X-14.69 Y2.209
X-14.767 Y2.14
X-14.828 Y2.063
X-14.861 Y1.972
X-14.878 Y1.87
X-14.866 Y1.772
X-14.839 Y1.68
X-14.79 Y1.598
X-14.727 Y1.522
X-14.642 Y1.458
X-14.551 Y1.41
X-14.451 Y1.385
X-14.345 Y1.375
X-14.211 Y1.39
X-14.083 Y1.42
X-13.964 Y1.476
X-13.849 Y1.546
X-13.774 Y1.612
X-13.708 Y1.686
X-13.659 Y1.771
X-13.62 Y1.864
X-13.587 Y2.096
X-13.582 Y2.332
Y2.523
X-13.873 Y2.443
X-14.167 Y2.376
X-14.435 Y2.313
Z4.
G0 Z10.
X-11.699 Y1.99
Z4.
G1 Z-1. F216.
Y4.41 F649.
X-10.807
Y3.877
X-10.559 Y4.131
X-10.426 Y4.241
X-10.283 Y4.332
X-10.128 Y4.396
X-9.961 Y4.44
X-9.611 Y4.492
X-9.461 Y4.484
X-9.314 Y4.465
X-9.171 Y4.427
X-9.03 Y4.378
X-8.917 Y4.322
X-8.812 Y4.257
X-8.718 Y4.176
X-8.632 Y4.085
X-8.516 Y3.894
X-8.444 Y3.682
X-8.4 Y3.361
X-8.391 Y3.036
Y0.78
X-9.351
Y2.633
X-9.357 Y3.015
X-9.379 Y3.205
X-9.413 Y3.393
X-9.491 Y3.543
X-9.548 Y3.606
X-9.612 Y3.661
X-9.691 Y3.703
X-9.771 Y3.735
X-9.946 Y3.757
X-10.065 Y3.747
X-10.18 Y3.724
X-10.289 Y3.679
X-10.394 Y3.62
X-10.482 Y3.546
X-10.56 Y3.462
X-10.618 Y3.365
X-10.665 Y3.258
X-10.704 Y3.052
X-10.729 Y2.844
X-10.739 Y2.424
Y0.78
X-11.699
Y1.99
Z4.
G0 Z10.
X-7.505 Y0.541
Z4.
G1 Z-1. F216.
X-6.408 Y0.408 F649.
X-6.371 Y0.263
X-6.332 Y0.201
X-6.282 Y0.144
X-6.18 Y0.095
X-6.075 Y0.06
X-5.964 Y0.045
X-5.851 Y0.042
X-5.705 Y0.046
X-5.561 Y0.062
X-5.422 Y0.1
X-5.287 Y0.155
X-5.225 Y0.204
X-5.171 Y0.259
X-5.096 Y0.397
X-5.057 Y0.616
X-5.051 Y0.838
Y1.368
X-5.273 Y1.127
X-5.392 Y1.022
X-5.521 Y0.936
X-5.663 Y0.874
X-5.816 Y0.831
X-6.138 Y0.78
X-6.483 Y0.83
X-6.647 Y0.873
X-6.798 Y0.937
X-6.936 Y1.028
X-7.063 Y1.14
X-7.297 Y1.399
X-7.446 Y1.684
X-7.508 Y1.831
X-7.557 Y1.981
X-7.59 Y2.135
X-7.611 Y2.293
X-7.632 Y2.616
X-7.61 Y2.994
X-7.585 Y3.178
X-7.543 Y3.357
X-7.479 Y3.528
X-7.395 Y3.692
X-7.193 Y4.01
X-6.956 Y4.214
X-6.832 Y4.301
X-6.7 Y4.372
X-6.559 Y4.422
X-6.41 Y4.454
X-6.1 Y4.492
X-5.772 Y4.441
X-5.616 Y4.399
X-5.472 Y4.337
X-5.339 Y4.25
X-5.217 Y4.144
X-4.99 Y3.901
Y4.41
X-4.091
Y1.153
X-4.094 Y0.91
X-4.108 Y0.668
X-4.145 Y0.429
X-4.197 Y0.192
X-4.25 Y0.055
X-4.315 Y-0.076
X-4.398 Y-0.195
X-4.494 Y-0.307
X-4.61 Y-0.398
X-4.733 Y-0.477
X-4.866 Y-0.539
X-5.005 Y-0.59
X-5.204 Y-0.638
X-5.405 Y-0.672
X-5.609 Y-0.688
X-5.813 Y-0.693
X-6.16 Y-0.684
X-6.33 Y-0.669
X-6.497 Y-0.641
X-6.659 Y-0.596
X-6.816 Y-0.533
X-7.122 Y-0.377
X-7.284 Y-0.208
X-7.354 Y-0.118
X-7.411 Y-0.022
X-7.451 Y0.082
X-7.478 Y0.193
X-7.509 Y0.425
X-7.505 Y0.541
Z4.
G0 Z10.
X-6.307 Y1.713
Z4.
G1 Z-1. F216.
X-6.179 Y1.626 F649.
X-6.107 Y1.597
X-6.031 Y1.578
X-5.871 Y1.556
X-5.702 Y1.578
X-5.62 Y1.598
X-5.543 Y1.626
X-5.472 Y1.667
X-5.404 Y1.716
X-5.277 Y1.831
X-5.164 Y2.018
X-5.117 Y2.115
X-5.082 Y2.215
X-5.045 Y2.427
X-5.034 Y2.646
X-5.044 Y2.87
X-5.077 Y3.087
X-5.111 Y3.19
X-5.156 Y3.29
X-5.267 Y3.484
X-5.392 Y3.599
X-5.458 Y3.648
X-5.529 Y3.688
X-5.605 Y3.717
X-5.686 Y3.736
X-5.854 Y3.757
X-6.018 Y3.736
X-6.096 Y3.717
X-6.17 Y3.69
X-6.239 Y3.65
X-6.303 Y3.602
X-6.423 Y3.489
X-6.53 Y3.299
X-6.573 Y3.201
X-6.606 Y3.1
X-6.638 Y2.889
X-6.647 Y2.67
X-6.639 Y2.445
X-6.607 Y2.227
X-6.575 Y2.122
X-6.531 Y2.021
X-6.423 Y1.824
X-6.307 Y1.713
Z4.
G0 Z10.
X-5.868 Y-2.029
Z4.
G1 Z-1. F216.
X-4.908 F649.
Y-3.872
X-4.672 Y-3.649
X-4.547 Y-3.552
X-4.414 Y-3.472
X-4.27 Y-3.414
X-4.117 Y-3.375
X-3.797 Y-3.328
X-3.643 Y-3.337
X-3.491 Y-3.357
X-3.343 Y-3.398
X-3.199 Y-3.451
X-3.084 Y-3.512
X-2.977 Y-3.582
X-2.883 Y-3.669
X-2.797 Y-3.766
X-2.683 Y-3.968
X-2.612 Y-4.19
X-2.571 Y-4.549
X-2.563 Y-4.911
Y-7.04
X-3.523
Y-5.123
X-3.528 Y-4.758
X-3.547 Y-4.578
X-3.578 Y-4.398
X-3.654 Y-4.26
X-3.771 Y-4.154
X-3.853 Y-4.113
X-3.938 Y-4.083
X-4.118 Y-4.063
X-4.231 Y-4.071
X-4.34 Y-4.091
X-4.444 Y-4.129
X-4.545 Y-4.179
X-4.635 Y-4.25
X-4.713 Y-4.331
X-4.772 Y-4.426
X-4.82 Y-4.53
X-4.863 Y-4.7
X-4.893 Y-4.872
X-4.908 Y-5.222
Y-7.04
X-5.868
Y-2.029
Z4.
G0 Z10.
X-7.046 Y-2.844
Z4.
G1 Z-1. F216.
X-6.995 Y-2.987 F649.
X-6.97 Y-3.137
X-6.958 Y-3.291
X-6.973 Y-3.462
X-7.006 Y-3.628
X-7.068 Y-3.785
X-7.148 Y-3.937
X-7.254 Y-4.073
X-7.373 Y-4.195
X-7.512 Y-4.293
X-7.662 Y-4.378
X-7.461 Y-4.452
X-7.273 Y-4.548
X-7.188 Y-4.609
X-7.108 Y-4.679
X-6.958 Y-4.832
X-6.853 Y-5.006
X-6.771 Y-5.189
X-6.73 Y-5.384
X-6.712 Y-5.588
X-6.725 Y-5.76
X-6.753 Y-5.929
X-6.805 Y-6.092
X-6.871 Y-6.252
X-6.957 Y-6.4
X-7.055 Y-6.538
X-7.174 Y-6.659
X-7.305 Y-6.768
X-7.464 Y-6.858
X-7.629 Y-6.93
X-7.804 Y-6.976
X-7.984 Y-7.006
X-8.594 Y-7.034
X-9.204 Y-7.04
X-10.91
Y-2.029
X-8.907
X-8.462 Y-2.037
X-8.02 Y-2.079
X-7.881 Y-2.111
X-7.747 Y-2.154
X-7.62 Y-2.214
X-7.497 Y-2.286
X-7.384 Y-2.376
X-7.281 Y-2.474
X-7.192 Y-2.585
X-7.112 Y-2.704
X-7.046 Y-2.844
Z4.
G0 Z10.
X-9.898 Y-2.863
Z4.
G1 Z-1. F216.
Y-4.022 F649.
X-9.235
X-8.867 Y-4.021
X-8.5 Y-4.005
X-8.387 Y-3.984
X-8.28 Y-3.95
X-8.183 Y-3.895
X-8.091 Y-3.826
X-8.026 Y-3.739
X-7.977 Y-3.646
X-7.953 Y-3.543
X-7.943 Y-3.434
X-7.951 Y-3.331
X-7.972 Y-3.233
X-8.014 Y-3.142
X-8.071 Y-3.057
X-8.154 Y-2.988
X-8.245 Y-2.933
X-8.345 Y-2.901
X-8.452 Y-2.881
X-8.884 Y-2.864
X-9.317 Y-2.863
X-9.898
Z4.
G0 Z10.
Y-4.856
Z4.
G1 Z-1. F216.
Y-6.196 F649.
X-8.961
X-8.614 Y-6.193
X-8.267 Y-6.165
X-8.164 Y-6.137
X-8.066 Y-6.097
X-7.98 Y-6.037
X-7.9 Y-5.965
X-7.837 Y-5.869
X-7.789 Y-5.766
X-7.767 Y-5.655
X-7.758 Y-5.54
X-7.765 Y-5.438
X-7.783 Y-5.34
X-7.82 Y-5.247
X-7.868 Y-5.157
X-7.934 Y-5.082
X-8.007 Y-5.017
X-8.092 Y-4.968
X-8.184 Y-4.928
X-8.406 Y-4.888
X-8.63 Y-4.863
X-9.081 Y-4.856
X-9.898
Z4.
G0 Z10.
X-1.831 Y-5.905
Z4.
G1 Z-1. F216.
X-1.807 Y-5.764 F649.
X-1.758 Y-5.63
X-1.695 Y-5.5
X-1.611 Y-5.387
X-1.516 Y-5.286
X-1.404 Y-5.203
X-1.283 Y-5.131
X-1.097 Y-5.058
X-0.908 Y-4.996
X-0.519 Y-4.907
X-0.047 Y-4.81
X0.185 Y-4.746
X0.414 Y-4.672
Y-4.576
X0.409 Y-4.466
X0.389 Y-4.362
X0.342 Y-4.268
X0.277 Y-4.181
X0.156 Y-4.121
X0.03 Y-4.08
X-0.102 Y-4.065
X-0.239 Y-4.063
X-0.344 Y-4.068
X-0.447 Y-4.083
X-0.544 Y-4.117
X-0.639 Y-4.164
X-0.716 Y-4.239
X-0.782 Y-4.323
X-0.831 Y-4.417
X-0.871 Y-4.518
X-1.743 Y-4.36
X-1.662 Y-4.135
X-1.615 Y-4.027
X-1.558 Y-3.926
X-1.489 Y-3.832
X-1.411 Y-3.744
X-1.237 Y-3.581
X-0.985 Y-3.461
X-0.856 Y-3.412
X-0.724 Y-3.375
X-0.589 Y-3.352
X-0.451 Y-3.338
X-0.17 Y-3.328
X0.075 Y-3.333
X0.317 Y-3.354
X0.554 Y-3.406
X0.787 Y-3.48
X0.918 Y-3.554
X1.039 Y-3.639
X1.14 Y-3.746
X1.229 Y-3.867
X1.296 Y-4.076
X1.34 Y-4.288
X1.356 Y-4.506
X1.358 Y-4.726
X1.347 Y-5.847
X1.354 Y-6.201
X1.393 Y-6.553
X1.464 Y-6.802
X1.566 Y-7.04
X0.616
X0.524 Y-6.756
X0.489 Y-6.644
X0.369 Y-6.75
X0.243 Y-6.848
X0.106 Y-6.93
X-0.037 Y-7.003
X-0.182 Y-7.054
X-0.33 Y-7.093
X-0.481 Y-7.113
X-0.635 Y-7.122
X-0.877 Y-7.104
X-0.994 Y-7.086
X-1.108 Y-7.056
X-1.216 Y-7.012
X-1.319 Y-6.954
X-1.519 Y-6.818
X-1.657 Y-6.65
X-1.716 Y-6.562
X-1.763 Y-6.469
X-1.796 Y-6.369
X-1.818 Y-6.265
X-1.842 Y-6.049
X-1.831 Y-5.905
Z4.
G0 Z10.
X-0.439 Y-5.508
Z4.
G1 Z-1. F216.
X-0.568 Y-5.555 F649.
X-0.693 Y-5.611
X-0.77 Y-5.68
X-0.831 Y-5.757
X-0.865 Y-5.849
X-0.881 Y-5.95
X-0.869 Y-6.048
X-0.843 Y-6.14
X-0.794 Y-6.222
X-0.731 Y-6.298
X-0.646 Y-6.362
X-0.555 Y-6.411
X-0.454 Y-6.435
X-0.348 Y-6.445
X-0.215 Y-6.431
X-0.087 Y-6.4
X0.033 Y-6.345
X0.148 Y-6.275
X0.223 Y-6.208
X0.289 Y-6.135
X0.338 Y-6.049
X0.377 Y-5.957
X0.41 Y-5.724
X0.414 Y-5.488
Y-5.297
X0.124 Y-5.378
X-0.17 Y-5.444
X-0.439 Y-5.508
Z4.
G0 Z10.
X2.297 Y-5.83
Z4.
G1 Z-1. F216.
Y-3.41 F649.
X3.19
Y-3.943
X3.438 Y-3.689
X3.57 Y-3.579
X3.713 Y-3.489
X3.869 Y-3.424
X4.035 Y-3.38
X4.386 Y-3.328
X4.535 Y-3.336
X4.682 Y-3.355
X4.826 Y-3.393
X4.967 Y-3.443
X5.079 Y-3.499
X5.185 Y-3.563
X5.279 Y-3.644
X5.365 Y-3.735
X5.481 Y-3.927
X5.553 Y-4.138
X5.597 Y-4.46
X5.606 Y-4.784
Y-7.04
X4.646
Y-5.188
X4.64 Y-4.805
X4.618 Y-4.615
X4.584 Y-4.427
X4.506 Y-4.277
X4.449 Y-4.215
X4.384 Y-4.159
X4.306 Y-4.117
X4.225 Y-4.085
X4.051 Y-4.063
X3.932 Y-4.073
X3.816 Y-4.097
X3.708 Y-4.142
X3.603 Y-4.2
X3.514 Y-4.275
X3.437 Y-4.358
X3.378 Y-4.456
X3.331 Y-4.562
X3.293 Y-4.769
X3.267 Y-4.976
X3.258 Y-5.396
Y-7.04
X2.297
Y-5.83
Z4.
G0 Z10.
X6.608 Y-6.297
Z4.
G1 Z-1. F216.
X6.523 Y-6.131 F649.
X6.458 Y-5.958
X6.415 Y-5.778
X6.389 Y-5.592
X6.365 Y-5.212
X6.386 Y-4.832
X6.41 Y-4.647
X6.452 Y-4.467
X6.515 Y-4.295
X6.598 Y-4.129
X6.799 Y-3.808
X7.036 Y-3.605
X7.161 Y-3.517
X7.294 Y-3.447
X7.436 Y-3.397
X7.585 Y-3.365
X7.896 Y-3.328
X8.198 Y-3.372
X8.343 Y-3.408
X8.479 Y-3.462
X8.605 Y-3.536
X8.724 Y-3.626
X8.949 Y-3.834
Y-2.029
X9.909
Y-7.04
X9.017
Y-6.507
X8.905 Y-6.645
X8.783 Y-6.771
X8.643 Y-6.877
X8.493 Y-6.97
X8.346 Y-7.033
X8.196 Y-7.082
X8.041 Y-7.109
X7.882 Y-7.122
X7.576 Y-7.08
X7.429 Y-7.044
X7.291 Y-6.991
X7.162 Y-6.917
X7.04 Y-6.827
X6.811 Y-6.618
X6.608 Y-6.297
Z4.
G0 Z10.
X10.729 Y-6.562
Z4.
G1 Z-1. F216.
X10.682 Y-6.469 F649.
X10.649 Y-6.369
X10.627 Y-6.265
X10.603 Y-6.049
X10.614 Y-5.905
X10.638 Y-5.764
X10.687 Y-5.63
X10.75 Y-5.5
X10.834 Y-5.387
X10.929 Y-5.286
X11.04 Y-5.203
X11.162 Y-5.131
X11.348 Y-5.058
X11.537 Y-4.996
X11.926 Y-4.907
X12.398 Y-4.81
X12.63 Y-4.746
X12.859 Y-4.672
Y-4.576
X12.853 Y-4.466
X12.833 Y-4.362
X12.787 Y-4.268
X12.722 Y-4.181
X12.601 Y-4.121
X12.475 Y-4.08
X12.342 Y-4.065
X12.206 Y-4.063
X12.101 Y-4.068
X11.998 Y-4.083
X11.9 Y-4.117
X11.806 Y-4.164
X11.729 Y-4.239
X11.663 Y-4.323
X11.614 Y-4.417
X11.574 Y-4.518
X10.702 Y-4.36
X10.783 Y-4.135
X10.83 Y-4.027
X10.887 Y-3.926
X10.955 Y-3.832
X11.034 Y-3.744
X11.208 Y-3.581
X11.46 Y-3.461
X11.589 Y-3.412
X11.721 Y-3.375
X11.856 Y-3.352
X11.994 Y-3.338
X12.274 Y-3.328
X12.52 Y-3.333
X12.762 Y-3.354
X12.999 Y-3.406
X13.231 Y-3.48
X13.363 Y-3.554
X13.484 Y-3.639
X13.585 Y-3.746
X13.674 Y-3.867
X13.741 Y-4.076
X13.785 Y-4.288
X13.801 Y-4.506
X13.802 Y-4.726
X13.792 Y-5.847
X13.799 Y-6.201
X13.838 Y-6.553
X13.909 Y-6.802
X14.011 Y-7.04
X13.061
X12.968 Y-6.756
X12.934 Y-6.644
X12.814 Y-6.75
X12.688 Y-6.848
X12.551 Y-6.93
X12.408 Y-7.003
X12.262 Y-7.054
X12.115 Y-7.093
X11.963 Y-7.113
X11.81 Y-7.122
X11.568 Y-7.104
X11.45 Y-7.086
X11.337 Y-7.056
X11.229 Y-7.012
X11.125 Y-6.954
X10.926 Y-6.818
X10.788 Y-6.65
X10.729 Y-6.562
Z4.
G0 Z10.
X12.006 Y-5.508
Z4.
G1 Z-1. F216.
X11.877 Y-5.555 F649.
X11.752 Y-5.611
X11.675 Y-5.68
X11.614 Y-5.757
X11.58 Y-5.849
X11.564 Y-5.95
X11.576 Y-6.048
X11.602 Y-6.14
X11.651 Y-6.222
X11.714 Y-6.298
X11.799 Y-6.362
X11.89 Y-6.411
X11.991 Y-6.435
X12.097 Y-6.445
X12.23 Y-6.431
X12.358 Y-6.4
X12.478 Y-6.345
X12.592 Y-6.275
X12.668 Y-6.208
X12.734 Y-6.135
X12.783 Y-6.049
X12.821 Y-5.957
X12.854 Y-5.724
X12.859 Y-5.488
Y-5.297
X12.569 Y-5.378
X12.274 Y-5.444
X12.006 Y-5.508
Z4.
G0 Z10.
X14.708 Y-5.83
Z4.
G1 Z-1. F216.
Y-3.41 F649.
X15.6
Y-3.926
X15.687 Y-3.792
X15.782 Y-3.664
X15.892 Y-3.549
X16.012 Y-3.444
X16.11 Y-3.395
X16.211 Y-3.356
X16.318 Y-3.337
X16.427 Y-3.328
X16.594 Y-3.343
X16.756 Y-3.375
X16.91 Y-3.434
X17.06 Y-3.509
X16.762 Y-4.347
X16.657 Y-4.286
X16.548 Y-4.236
X16.432 Y-4.206
X16.311 Y-4.19
X16.219 Y-4.197
X16.13 Y-4.216
X16.048 Y-4.252
X15.969 Y-4.301
X15.892 Y-4.389
X15.829 Y-4.484
X15.784 Y-4.59
X15.749 Y-4.702
X15.705 Y-5.005
X15.677 Y-5.308
X15.668 Y-5.919
Y-7.04
X14.708
Y-5.83
Z4.
G0 Z10.
X17.473 Y-7.04
Z4.
G1 Z-1. F216.
Y-3.41 F649.
X18.434
Y-7.04
X17.473
Z4.
G0 Z10.
X21.383
Z4.
G1 Z-1. F216.
Y-2.029 F649.
X22.395
Y-4.255
X24.439 Y-2.029
X25.799
X23.913 Y-3.981
X25.902 Y-7.04
X24.593
X23.215 Y-4.689
X22.395 Y-5.526
Y-7.04
X21.383
Z4.
G0 Z10.
X26.377
Z4.
G1 Z-1. F216.
Y-3.41 F649.
X27.269
Y-3.926
X27.356 Y-3.792
X27.451 Y-3.664
X27.56 Y-3.549
X27.681 Y-3.444
X27.779 Y-3.395
X27.88 Y-3.356
X27.987 Y-3.337
X28.096 Y-3.328
X28.263 Y-3.343
X28.425 Y-3.375
X28.579 Y-3.434
X28.729 Y-3.509
X28.431 Y-4.347
X28.326 Y-4.286
X28.217 Y-4.236
X28.101 Y-4.206
X27.98 Y-4.19
X27.888 Y-4.197
X27.799 Y-4.216
X27.717 Y-4.252
X27.638 Y-4.301
X27.561 Y-4.389
X27.498 Y-4.484
X27.453 Y-4.59
X27.418 Y-4.702
X27.374 Y-5.005
X27.346 Y-5.308
X27.337 Y-5.919
Y-7.04
X26.377
Z4.
G0 Z10.
X29.142
Z4.
G1 Z-1. F216.
Y-3.41 F649.
X30.103
Y-7.04
X29.142
Z4.
G0 Z10.
X30.838 Y-6.245
Z4.
G1 Z-1. F216.
X30.749 Y-6.005 F649.
X31.712 Y-5.858
X31.749 Y-5.979
X31.799 Y-6.093
X31.873 Y-6.193
X31.962 Y-6.283
X32.085 Y-6.35
X32.213 Y-6.399
X32.348 Y-6.421
X32.488 Y-6.428
X32.636 Y-6.423
X32.78 Y-6.403
X32.917 Y-6.357
X33.049 Y-6.292
X33.103 Y-6.238
X33.144 Y-6.179
X33.166 Y-6.11
X33.175 Y-6.035
X33.159 Y-5.938
X33.107 Y-5.854
X32.954 Y-5.773
X32.786 Y-5.728
X32.406 Y-5.645
X32.031 Y-5.547
X31.667 Y-5.417
X31.313 Y-5.259
X31.131 Y-5.094
X31.052 Y-5.005
X30.989 Y-4.908
X30.945 Y-4.801
X30.916 Y-4.686
X30.882 Y-4.443
X30.912 Y-4.215
X30.938 Y-4.106
X30.977 Y-4.004
X31.032 Y-3.908
X31.099 Y-3.819
X31.254 Y-3.65
X31.521 Y-3.497
X31.659 Y-3.434
X31.802 Y-3.388
X31.949 Y-3.358
X32.1 Y-3.341
X32.41 Y-3.328
X32.699 Y-3.337
X32.842 Y-3.349
X32.982 Y-3.371
X33.12 Y-3.406
X33.254 Y-3.454
X33.517 Y-3.571
X33.687 Y-3.719
X33.764 Y-3.798
X33.832 Y-3.884
X33.888 Y-3.978
X33.936 Y-4.078
X34.016 Y-4.289
X33.11 Y-4.456
X33.075 Y-4.361
X33.029 Y-4.274
X32.965 Y-4.199
X32.89 Y-4.131
X32.781 Y-4.079
X32.667 Y-4.04
X32.549 Y-4.024
X32.427 Y-4.019
X32.286 Y-4.021
X32.147 Y-4.036
X32.014 Y-4.072
X31.883 Y-4.125
X31.839 Y-4.164
X31.803 Y-4.208
X31.784 Y-4.261
X31.774 Y-4.319
X31.8 Y-4.418
X31.87 Y-4.494
X32.087 Y-4.583
X32.309 Y-4.657
X32.767 Y-4.764
X33.051 Y-4.833
X33.327 Y-4.92
X33.459 Y-4.977
X33.588 Y-5.043
X33.839 Y-5.191
X33.971 Y-5.345
X34.027 Y-5.426
X34.07 Y-5.513
X34.101 Y-5.605
X34.12 Y-5.703
X34.139 Y-5.905
X34.103 Y-6.153
X34.073 Y-6.27
X34.029 Y-6.381
X33.968 Y-6.484
X33.894 Y-6.581
X33.722 Y-6.763
X33.438 Y-6.931
X33.292 Y-7.
X33.139 Y-7.052
X32.982 Y-7.086
X32.82 Y-7.106
X32.488 Y-7.122
X32.179 Y-7.107
X32.026 Y-7.09
X31.877 Y-7.061
X31.732 Y-7.017
X31.591 Y-6.96
X31.314 Y-6.821
X31.121 Y-6.653
X31.033 Y-6.563
X30.956 Y-6.465
X30.892 Y-6.359
X30.838 Y-6.245
Z4.
G0 Z10.
X30.103 Y-2.918
Z4.
G1 Z-1. F216.
X29.142 F649.
Y-2.029
X30.103
Y-2.918
Z4.
G0 Z10.
X28.63 Y-0.638
Z4.
G1 Z-1. F216.
X28.429 Y-0.672 F649.
X28.226 Y-0.688
X28.021 Y-0.693
X27.675 Y-0.684
X27.505 Y-0.669
X27.338 Y-0.641
X27.176 Y-0.596
X27.018 Y-0.533
X26.712 Y-0.377
X26.55 Y-0.208
X26.48 Y-0.118
X26.424 Y-0.022
X26.384 Y0.082
X26.357 Y0.193
X26.326 Y0.425
X26.329 Y0.541
X27.426 Y0.408
X27.463 Y0.263
X27.503 Y0.201
X27.553 Y0.144
X27.654 Y0.095
X27.759 Y0.06
X27.87 Y0.045
X27.983 Y0.042
X28.13 Y0.046
X28.273 Y0.062
X28.412 Y0.1
X28.548 Y0.155
X28.61 Y0.204
X28.664 Y0.259
X28.739 Y0.397
X28.778 Y0.616
X28.783 Y0.838
Y1.368
X28.562 Y1.127
X28.442 Y1.022
X28.313 Y0.936
X28.171 Y0.874
X28.019 Y0.831
X27.696 Y0.78
X27.351 Y0.83
X27.188 Y0.873
X27.036 Y0.937
X26.898 Y1.028
X26.772 Y1.14
X26.538 Y1.399
X26.389 Y1.684
X26.326 Y1.831
X26.277 Y1.981
X26.244 Y2.135
X26.223 Y2.293
X26.203 Y2.616
X26.225 Y2.994
X26.25 Y3.178
X26.292 Y3.357
X26.356 Y3.528
X26.44 Y3.692
X26.642 Y4.01
X26.878 Y4.214
X27.003 Y4.301
X27.135 Y4.372
X27.276 Y4.422
X27.424 Y4.454
X27.734 Y4.492
X28.063 Y4.441
X28.218 Y4.399
X28.363 Y4.337
X28.495 Y4.25
X28.617 Y4.144
X28.845 Y3.901
Y4.41
X29.744
Y1.153
X29.741 Y0.91
X29.726 Y0.668
X29.69 Y0.429
X29.638 Y0.192
X29.584 Y0.055
X29.52 Y-0.076
X29.436 Y-0.195
X29.34 Y-0.307
X29.224 Y-0.398
X29.101 Y-0.477
X28.968 Y-0.539
X28.829 Y-0.59
X28.63 Y-0.638
Z4.
G0 Z10.
X25.444 Y0.78
Z4.
G1 Z-1. F216.
X24.483 F649.
Y2.633
X24.477 Y3.015
X24.456 Y3.205
X24.422 Y3.393
X24.344 Y3.543
X24.287 Y3.606
X24.222 Y3.661
X24.144 Y3.703
X24.063 Y3.735
X23.889 Y3.757
X23.77 Y3.747
X23.654 Y3.724
X23.546 Y3.679
X23.441 Y3.62
X23.352 Y3.546
X23.274 Y3.462
X23.216 Y3.365
X23.169 Y3.258
X23.131 Y3.052
X23.105 Y2.844
X23.096 Y2.424
Y0.78
X22.135
Y4.41
X23.027
Y3.877
X23.275 Y4.131
X23.408 Y4.241
X23.551 Y4.332
X23.707 Y4.396
X23.873 Y4.44
X24.224 Y4.492
X24.373 Y4.484
X24.52 Y4.465
X24.664 Y4.427
X24.805 Y4.378
X24.917 Y4.322
X25.023 Y4.257
X25.117 Y4.176
X25.203 Y4.085
X25.318 Y3.894
X25.391 Y3.682
X25.435 Y3.361
X25.444 Y3.036
Y0.78
Z4.
G0 Z10.
X27.411 Y1.824
Z4.
G1 Z-1. F216.
X27.528 Y1.713 F649.
X27.656 Y1.626
X27.728 Y1.597
X27.803 Y1.578
X27.963 Y1.556
X28.133 Y1.578
X28.214 Y1.598
X28.291 Y1.626
X28.363 Y1.667
X28.43 Y1.716
X28.558 Y1.831
X28.671 Y2.018
X28.718 Y2.115
X28.753 Y2.215
X28.789 Y2.427
X28.8 Y2.646
X28.791 Y2.87
X28.757 Y3.087
X28.723 Y3.19
X28.678 Y3.29
X28.568 Y3.484
X28.443 Y3.599
X28.376 Y3.648
X28.306 Y3.688
X28.229 Y3.717
X28.149 Y3.736
X27.98 Y3.757
X27.816 Y3.736
X27.738 Y3.717
X27.664 Y3.69
X27.596 Y3.65
X27.532 Y3.602
X27.411 Y3.489
X27.305 Y3.299
X27.261 Y3.201
X27.229 Y3.1
X27.196 Y2.889
X27.187 Y2.67
X27.195 Y2.445
X27.227 Y2.227
X27.26 Y2.122
X27.304 Y2.021
X27.411 Y1.824
Z4.
G0 Z10.
X30.67 Y1.741
Z4.
G1 Z-1. F216.
X31.631 F649.
Y1.054
X31.617 Y0.722
X31.559 Y0.396
X31.511 Y0.275
X31.451 Y0.162
X31.374 Y0.059
X31.287 Y-0.037
X31.171 Y-0.131
X31.049 Y-0.214
X30.917 Y-0.281
X30.779 Y-0.338
X30.591 Y0.059
X30.709 Y0.104
X30.819 Y0.159
X30.916 Y0.234
X31.005 Y0.322
X31.062 Y0.429
X31.105 Y0.541
X31.126 Y0.659
X31.135 Y0.78
X30.67
Y1.741
Z4.
G0 Z10.
X34.587 Y2.033
Z4.
G1 Z-1. F216.
Y5.791 F649.
X36.436
X36.677 Y5.788
X36.916 Y5.774
X37.154 Y5.742
X37.39 Y5.695
X37.6 Y5.615
X37.799 Y5.515
X37.978 Y5.384
X38.145 Y5.234
X38.295 Y5.049
X38.429 Y4.854
X38.534 Y4.643
X38.624 Y4.422
X38.699 Y4.131
X38.754 Y3.837
X38.779 Y3.538
X38.788 Y3.238
X38.779 Y2.967
X38.755 Y2.698
X38.703 Y2.433
X38.634 Y2.171
X38.535 Y1.928
X38.418 Y1.696
X38.268 Y1.485
X38.097 Y1.286
X37.936 Y1.157
X37.765 Y1.045
X37.58 Y0.958
X37.386 Y0.886
X37.165 Y0.836
X36.943 Y0.8
X36.717 Y0.785
X36.491 Y0.78
X34.587
Y2.033
Z4.
G0 Z10.
X35.599 Y4.943
Z4.
G1 Z-1. F216.
Y1.624 F649.
X36.354
X36.661 Y1.631
X36.966 Y1.672
X37.077 Y1.707
X37.183 Y1.751
X37.281 Y1.811
X37.374 Y1.881
X37.463 Y1.989
X37.538 Y2.105
X37.594 Y2.231
X37.639 Y2.364
X37.688 Y2.591
X37.723 Y2.819
X37.738 Y3.05
X37.742 Y3.282
X37.738 Y3.508
X37.724 Y3.732
X37.689 Y3.954
X37.639 Y4.174
X37.588 Y4.308
X37.526 Y4.435
X37.445 Y4.551
X37.352 Y4.66
X37.246 Y4.741
X37.134 Y4.81
X37.012 Y4.858
X36.884 Y4.895
X36.47 Y4.938
X36.053 Y4.943
X35.599
Z4.
G0 Z10.
X33.968 Y7.606
Z4.
G1 Z-1. F216.
X33.836 Y7.54 F649.
X33.698 Y7.483
X33.51 Y7.879
X33.628 Y7.924
X33.738 Y7.979
X33.835 Y8.054
X33.924 Y8.142
X33.981 Y8.25
X34.024 Y8.361
X34.045 Y8.479
X34.054 Y8.6
X33.589
Y9.561
X34.549
Y8.874
X34.536 Y8.542
X34.478 Y8.216
X34.43 Y8.095
X34.37 Y7.982
X34.293 Y7.879
X34.206 Y7.784
X34.09 Y7.69
X33.968 Y7.606
Z4.
G0 Z10.
X32.639 Y9.728
Z4.
G1 Z-1. F216.
Y8.6 F649.
X31.678
Y10.453
X31.672 Y10.836
X31.651 Y11.025
X31.617 Y11.214
X31.538 Y11.364
X31.482 Y11.426
X31.417 Y11.482
X31.339 Y11.524
X31.258 Y11.556
X31.084 Y11.578
X30.964 Y11.567
X30.849 Y11.544
X30.74 Y11.499
X30.636 Y11.441
X30.547 Y11.366
X30.469 Y11.283
X30.411 Y11.185
X30.364 Y11.078
X30.326 Y10.872
X30.3 Y10.664
X30.291 Y10.245
Y8.6
X29.33
Y12.23
X30.222
Y11.697
X30.47 Y11.951
X30.603 Y12.062
X30.746 Y12.152
X30.901 Y12.217
X31.068 Y12.26
X31.419 Y12.312
X31.568 Y12.304
X31.715 Y12.285
X31.858 Y12.247
X32. Y12.198
X32.112 Y12.142
X32.218 Y12.077
X32.312 Y11.997
X32.398 Y11.906
X32.513 Y11.714
X32.586 Y11.502
X32.63 Y11.181
X32.639 Y10.856
Y9.728
Z4.
G0 Z10.
X37.513 Y8.6
Z4.
G1 Z-1. F216.
Y13.611 F649.
X38.525
Y11.639
X40.507
Y13.611
X41.519
Y8.6
X40.507
Y10.791
X38.525
Y8.6
X37.513
Z4.
G0 Z10.
X39.618 Y4.41
Z4.
G1 Z-1. F216.
X40.579 F649.
Y2.742
X40.582 Y2.271
X40.601 Y2.037
X40.632 Y1.804
X40.664 Y1.724
X40.705 Y1.651
X40.761 Y1.588
X40.825 Y1.53
X40.908 Y1.485
X40.994 Y1.452
X41.086 Y1.436
X41.18 Y1.43
X41.298 Y1.44
X41.411 Y1.463
X41.518 Y1.507
X41.621 Y1.565
X41.706 Y1.634
X41.781 Y1.711
X41.84 Y1.801
X41.888 Y1.9
X41.929 Y2.142
X41.954 Y2.386
X41.96 Y2.879
Y4.41
X42.92
Y0.78
X42.028
Y1.324
X41.917 Y1.186
X41.796 Y1.062
X41.657 Y0.958
X41.507 Y0.866
X41.343 Y0.795
X41.176 Y0.74
X41.002 Y0.711
X40.825 Y0.698
X40.654 Y0.709
X40.486 Y0.736
X40.325 Y0.789
X40.169 Y0.859
X40.038 Y0.948
X39.921 Y1.049
X39.827 Y1.173
X39.748 Y1.31
X39.687 Y1.506
X39.643 Y1.704
X39.624 Y1.908
X39.618 Y2.113
Y4.41
Z4.
G0 Z10.
X43.74 Y1.352
Z4.
G1 Z-1. F216.
X43.707 Y1.451 F649.
X43.686 Y1.555
X43.662 Y1.771
X43.672 Y1.916
X43.697 Y2.056
X43.745 Y2.19
X43.809 Y2.32
X43.893 Y2.433
X43.987 Y2.535
X44.099 Y2.618
X44.221 Y2.689
X44.406 Y2.762
X44.595 Y2.824
X44.985 Y2.913
X45.457 Y3.01
X45.688 Y3.074
X45.918 Y3.149
Y3.244
X45.912 Y3.354
X45.892 Y3.458
X45.846 Y3.552
X45.781 Y3.639
X45.66 Y3.699
X45.534 Y3.74
X45.401 Y3.755
X45.265 Y3.757
X45.159 Y3.752
X45.057 Y3.737
X44.959 Y3.703
X44.865 Y3.656
X44.788 Y3.581
X44.722 Y3.498
X44.673 Y3.403
X44.632 Y3.303
X43.761 Y3.46
X43.841 Y3.685
X43.889 Y3.793
X43.946 Y3.895
X44.014 Y3.989
X44.092 Y4.076
X44.267 Y4.239
X44.519 Y4.359
X44.647 Y4.409
X44.779 Y4.445
X44.915 Y4.469
X45.053 Y4.482
X45.333 Y4.492
X45.578 Y4.487
X45.82 Y4.466
X46.057 Y4.414
X46.29 Y4.34
X46.422 Y4.267
X46.542 Y4.181
X46.644 Y4.074
X46.733 Y3.954
X46.799 Y3.745
X46.843 Y3.532
X46.86 Y3.314
X46.861 Y3.094
X46.851 Y1.973
X46.858 Y1.619
X46.897 Y1.267
X46.968 Y1.018
X47.069 Y0.78
X46.119
X46.027 Y1.064
X45.993 Y1.177
X45.873 Y1.07
X45.746 Y0.973
X45.61 Y0.891
X45.466 Y0.818
X45.321 Y0.767
X45.174 Y0.727
X45.022 Y0.707
X44.868 Y0.698
X44.626 Y0.716
X44.509 Y0.734
X44.396 Y0.764
X44.287 Y0.809
X44.184 Y0.866
X43.985 Y1.002
X43.847 Y1.17
X43.788 Y1.259
X43.74 Y1.352
Z4.
G0 Z10.
X45.065 Y2.313
Z4.
G1 Z-1. F216.
X44.936 Y2.266 F649.
X44.81 Y2.209
X44.733 Y2.14
X44.672 Y2.063
X44.639 Y1.972
X44.622 Y1.87
X44.634 Y1.772
X44.661 Y1.68
X44.71 Y1.598
X44.772 Y1.522
X44.858 Y1.458
X44.949 Y1.41
X45.049 Y1.385
X45.155 Y1.375
X45.289 Y1.39
X45.417 Y1.42
X45.536 Y1.476
X45.651 Y1.546
X45.726 Y1.612
X45.792 Y1.686
X45.841 Y1.771
X45.88 Y1.864
X45.913 Y2.096
X45.918 Y2.332
Y2.523
X45.627 Y2.443
X45.333 Y2.376
X45.065 Y2.313
Z4.
G0 Z10.
X47.801 Y1.99
Z4.
G1 Z-1. F216.
Y4.41 F649.
X48.693
Y3.877
X48.941 Y4.131
X49.074 Y4.241
X49.216 Y4.332
X49.372 Y4.396
X49.539 Y4.44
X49.889 Y4.492
X50.039 Y4.484
X50.186 Y4.465
X50.329 Y4.427
X50.47 Y4.378
X50.583 Y4.322
X50.688 Y4.257
X50.782 Y4.176
X50.868 Y4.085
X50.984 Y3.894
X51.056 Y3.682
X51.1 Y3.361
X51.11 Y3.036
Y0.78
X50.149
Y2.633
X50.143 Y3.015
X50.121 Y3.205
X50.088 Y3.393
X50.009 Y3.543
X49.952 Y3.606
X49.888 Y3.661
X49.81 Y3.703
X49.729 Y3.735
X49.554 Y3.757
X49.435 Y3.747
X49.32 Y3.724
X49.211 Y3.679
X49.106 Y3.62
X49.018 Y3.546
X48.94 Y3.462
X48.882 Y3.365
X48.835 Y3.258
X48.796 Y3.052
X48.771 Y2.844
X48.761 Y2.424
Y0.78
X47.801
Y1.99
Z4.
G0 Z10.
X51.13 Y-1.944
Z4.
G1 Z-1. F216.
X51.512 Y-1.962 F649.
X51.698 Y-1.985
X51.88 Y-2.024
X52.055 Y-2.084
X52.223 Y-2.164
X52.55 Y-2.358
X52.758 Y-2.595
X52.848 Y-2.721
X52.92 Y-2.854
X52.972 Y-2.997
X53.007 Y-3.148
X53.051 Y-3.462
X52.039 Y-3.506
X52.004 Y-3.349
X51.951 Y-3.201
X51.867 Y-3.07
X51.761 Y-2.951
X51.611 Y-2.871
X51.455 Y-2.813
X51.29 Y-2.788
X51.12 Y-2.781
X50.937 Y-2.79
X50.759 Y-2.818
X50.591 Y-2.879
X50.429 Y-2.963
X50.362 Y-3.026
X50.309 Y-3.098
X50.281 Y-3.182
X50.269 Y-3.274
X50.282 Y-3.362
X50.308 Y-3.443
X50.357 Y-3.513
X50.419 Y-3.578
X50.639 Y-3.693
X50.868 Y-3.787
X51.106 Y-3.856
X51.349 Y-3.913
X51.629 Y-3.982
X51.905 Y-4.061
X52.175 Y-4.16
X52.441 Y-4.273
X52.603 Y-4.375
X52.752 Y-4.49
X52.88 Y-4.629
X52.994 Y-4.783
X53.084 Y-4.972
X53.15 Y-5.167
X53.182 Y-5.371
X53.194 Y-5.581
X53.175 Y-5.794
X53.133 Y-6.001
X53.055 Y-6.198
X52.955 Y-6.387
X52.816 Y-6.564
X52.661 Y-6.72
X52.478 Y-6.843
X52.278 Y-6.946
X52.012 Y-7.029
X51.743 Y-7.091
X51.467 Y-7.119
X51.188 Y-7.129
X50.795 Y-7.107
X50.603 Y-7.082
X50.417 Y-7.041
X50.237 Y-6.977
X50.064 Y-6.892
X49.729 Y-6.69
X49.491 Y-6.412
X49.388 Y-6.265
X49.302 Y-6.11
X49.238 Y-5.944
X49.19 Y-5.77
X49.12 Y-5.41
X50.105 Y-5.314
X50.153 Y-5.518
X50.222 Y-5.71
X50.272 Y-5.799
X50.331 Y-5.883
X50.465 Y-6.042
X50.633 Y-6.147
X50.72 Y-6.191
X50.81 Y-6.225
X51. Y-6.261
X51.198 Y-6.275
X51.395 Y-6.266
X51.586 Y-6.235
X51.677 Y-6.205
X51.764 Y-6.165
X51.935 Y-6.068
X52.035 Y-5.966
X52.115 Y-5.854
X52.16 Y-5.725
X52.183 Y-5.584
X52.175 Y-5.502
X52.158 Y-5.423
X52.123 Y-5.351
X52.078 Y-5.282
X51.998 Y-5.211
X51.911 Y-5.15
X51.714 Y-5.065
X51.311 Y-4.949
X50.904 Y-4.846
X50.6 Y-4.765
X50.304 Y-4.662
X50.163 Y-4.597
X50.027 Y-4.521
X49.763 Y-4.35
X49.57 Y-4.133
X49.487 Y-4.019
X49.419 Y-3.897
X49.371 Y-3.767
X49.339 Y-3.629
X49.301 Y-3.342
X49.319 Y-3.152
X49.357 Y-2.968
X49.428 Y-2.794
X49.518 Y-2.626
X49.648 Y-2.466
X49.792 Y-2.325
X49.961 Y-2.213
X50.144 Y-2.118
X50.384 Y-2.04
X50.628 Y-1.982
X50.877 Y-1.954
X51.13 Y-1.944
Z4.
G0 Z10.
X46.468 Y-5.847
Z4.
G1 Z-1. F216.
X46.475 Y-6.201 F649.
X46.514 Y-6.553
X46.585 Y-6.802
X46.687 Y-7.04
X45.736
X45.644 Y-6.756
X45.61 Y-6.644
X45.49 Y-6.75
X45.363 Y-6.848
X45.227 Y-6.93
X45.084 Y-7.003
X44.938 Y-7.054
X44.791 Y-7.093
X44.639 Y-7.113
X44.485 Y-7.122
X44.244 Y-7.104
X44.126 Y-7.086
X44.013 Y-7.056
X43.905 Y-7.012
X43.801 Y-6.954
X43.602 Y-6.818
X43.464 Y-6.65
X43.405 Y-6.562
X43.357 Y-6.469
X43.324 Y-6.369
X43.303 Y-6.265
X43.279 Y-6.049
X43.289 Y-5.905
X43.314 Y-5.764
X43.362 Y-5.63
X43.426 Y-5.5
X43.51 Y-5.387
X43.605 Y-5.286
X43.716 Y-5.203
X43.838 Y-5.131
X44.024 Y-5.058
X44.213 Y-4.996
X44.602 Y-4.907
X45.074 Y-4.81
X45.306 Y-4.746
X45.535 Y-4.672
Y-4.576
X45.529 Y-4.466
X45.509 Y-4.362
X45.463 Y-4.268
X45.398 Y-4.181
X45.277 Y-4.121
X45.151 Y-4.08
X45.018 Y-4.065
X44.882 Y-4.063
X44.777 Y-4.068
X44.674 Y-4.083
X44.576 Y-4.117
X44.482 Y-4.164
X44.405 Y-4.239
X44.339 Y-4.323
X44.29 Y-4.417
X44.25 Y-4.518
X43.378 Y-4.36
X43.458 Y-4.135
X43.506 Y-4.027
X43.563 Y-3.926
X43.631 Y-3.832
X43.71 Y-3.744
X43.884 Y-3.581
X44.136 Y-3.461
X44.264 Y-3.412
X44.397 Y-3.375
X44.532 Y-3.352
X44.67 Y-3.338
X44.95 Y-3.328
X45.195 Y-3.333
X45.438 Y-3.354
X45.674 Y-3.406
X45.907 Y-3.48
X46.039 Y-3.554
X46.159 Y-3.639
X46.261 Y-3.746
X46.35 Y-3.867
X46.416 Y-4.076
X46.461 Y-4.288
X46.477 Y-4.506
X46.478 Y-4.726
X46.468 Y-5.847
Z4.
G0 Z10.
X44.682 Y-5.508
Z4.
G1 Z-1. F216.
X44.553 Y-5.555 F649.
X44.427 Y-5.611
X44.35 Y-5.68
X44.29 Y-5.757
X44.256 Y-5.849
X44.239 Y-5.95
X44.252 Y-6.048
X44.278 Y-6.14
X44.327 Y-6.222
X44.39 Y-6.298
X44.475 Y-6.362
X44.566 Y-6.411
X44.667 Y-6.435
X44.773 Y-6.445
X44.906 Y-6.431
X45.034 Y-6.4
X45.153 Y-6.345
X45.268 Y-6.275
X45.344 Y-6.208
X45.409 Y-6.135
X45.458 Y-6.049
X45.497 Y-5.957
X45.53 Y-5.724
X45.535 Y-5.488
Y-5.297
X45.244 Y-5.378
X44.95 Y-5.444
X44.682 Y-5.508
Z4.
G0 Z10.
X42.558 Y-4.784
Z4.
G1 Z-1. F216.
Y-7.04 F649.
X41.597
Y-5.188
X41.591 Y-4.805
X41.57 Y-4.615
X41.536 Y-4.427
X41.457 Y-4.277
X41.401 Y-4.215
X41.336 Y-4.159
X41.258 Y-4.117
X41.177 Y-4.085
X41.002 Y-4.063
X40.883 Y-4.073
X40.768 Y-4.097
X40.659 Y-4.142
X40.555 Y-4.2
X40.466 Y-4.275
X40.388 Y-4.358
X40.33 Y-4.456
X40.283 Y-4.562
X40.244 Y-4.769
X40.219 Y-4.976
X40.21 Y-5.396
Y-7.04
X39.249
Y-3.41
X40.141
Y-3.943
X40.389 Y-3.689
X40.522 Y-3.579
X40.665 Y-3.489
X40.82 Y-3.424
X40.987 Y-3.38
X41.338 Y-3.328
X41.487 Y-3.336
X41.634 Y-3.355
X41.778 Y-3.393
X41.918 Y-3.443
X42.031 Y-3.499
X42.137 Y-3.563
X42.23 Y-3.644
X42.317 Y-3.735
X42.432 Y-3.927
X42.505 Y-4.138
X42.549 Y-4.46
X42.558 Y-4.784
Z4.
G0 Z10.
X38.282 Y-7.04
Z4.
G1 Z-1. F216.
X37.321 F649.
Y-5.123
X37.317 Y-4.758
X37.297 Y-4.578
X37.267 Y-4.398
X37.191 Y-4.26
X37.074 Y-4.154
X36.992 Y-4.113
X36.907 Y-4.083
X36.727 Y-4.063
X36.614 Y-4.071
X36.505 Y-4.091
X36.401 Y-4.129
X36.299 Y-4.179
X36.21 Y-4.25
X36.132 Y-4.331
X36.073 Y-4.426
X36.024 Y-4.53
X35.982 Y-4.7
X35.952 Y-4.872
X35.937 Y-5.222
Y-7.04
X34.977
Y-2.029
X35.937
Y-3.872
X36.173 Y-3.649
X36.298 Y-3.552
X36.431 Y-3.472
X36.575 Y-3.414
X36.728 Y-3.375
X37.048 Y-3.328
X37.202 Y-3.337
X37.354 Y-3.357
X37.501 Y-3.398
X37.646 Y-3.451
X37.761 Y-3.512
X37.868 Y-3.582
X37.962 Y-3.669
X38.048 Y-3.766
X38.162 Y-3.968
X38.232 Y-4.19
X38.274 Y-4.549
X38.282 Y-4.911
Y-7.04
Z4.
G0 Z10.
X43.088 Y8.744
Z4.
G1 Z-1. F216.
X42.931 Y8.861 F649.
X42.636 Y9.137
X42.477 Y9.429
X42.409 Y9.579
X42.357 Y9.733
X42.321 Y9.892
X42.299 Y10.055
X42.277 Y10.388
X42.304 Y10.773
X42.332 Y10.961
X42.378 Y11.142
X42.447 Y11.315
X42.536 Y11.481
X42.749 Y11.801
X43.009 Y12.019
X43.145 Y12.112
X43.289 Y12.187
X43.443 Y12.24
X43.605 Y12.274
X43.942 Y12.312
X44.304 Y12.277
X44.477 Y12.242
X44.643 Y12.189
X44.798 Y12.11
X44.944 Y12.011
X45.22 Y11.778
X45.439 Y11.4
X45.529 Y11.205
X45.594 Y11.003
X45.635 Y10.793
X45.657 Y10.578
X45.668 Y10.139
X43.262
X43.278 Y9.957
X43.316 Y9.784
X43.35 Y9.702
X43.393 Y9.624
X43.494 Y9.474
X43.615 Y9.373
X43.745 Y9.295
X43.892 Y9.254
X44.048 Y9.236
X44.15 Y9.244
X44.249 Y9.265
X44.34 Y9.306
X44.427 Y9.359
X44.507 Y9.445
X44.574 Y9.539
X44.622 Y9.644
X44.66 Y9.756
X45.617 Y9.595
X45.515 Y9.362
X45.457 Y9.251
X45.39 Y9.147
X45.312 Y9.05
X45.225 Y8.961
X45.034 Y8.794
X44.8 Y8.671
X44.681 Y8.62
X44.558 Y8.579
X44.431 Y8.552
X44.302 Y8.535
X44.038 Y8.518
X43.633 Y8.555
X43.44 Y8.593
X43.257 Y8.654
X43.088 Y8.744
Z4.
G0 Z10.
X44.714 Y10.726
Z4.
G1 Z-1. F216.
X44.7 Y10.899 F649.
X44.666 Y11.065
X44.595 Y11.217
X44.499 Y11.361
X44.39 Y11.452
X44.273 Y11.523
X44.141 Y11.56
X44. Y11.578
X43.853 Y11.56
X43.715 Y11.521
X43.593 Y11.446
X43.481 Y11.349
X43.389 Y11.207
X43.321 Y11.057
X43.289 Y10.896
X43.279 Y10.726
X44.714
Z4.
G0 Z10.
X46.248 Y10.708
Z4.
G1 Z-1. F216.
X46.289 Y10.944 F649.
X46.366 Y11.171
X46.464 Y11.393
X46.596 Y11.599
X46.668 Y11.695
X46.747 Y11.785
X46.835 Y11.866
X46.93 Y11.94
X47.133 Y12.076
X47.364 Y12.178
X47.6 Y12.256
X47.847 Y12.295
X48.098 Y12.312
X48.474 Y12.275
X48.656 Y12.24
X48.83 Y12.186
X48.994 Y12.107
X49.15 Y12.009
X49.448 Y11.778
X49.675 Y11.477
X49.772 Y11.321
X49.849 Y11.156
X49.903 Y10.982
X49.937 Y10.801
X49.975 Y10.426
X49.937 Y10.047
X49.902 Y9.864
X49.848 Y9.688
X49.77 Y9.522
X49.672 Y9.364
X49.443 Y9.06
X49.148 Y8.828
X48.994 Y8.729
X48.832 Y8.649
X48.659 Y8.594
X48.479 Y8.558
X48.105 Y8.518
X47.858 Y8.536
X47.616 Y8.575
X47.382 Y8.649
X47.153 Y8.744
X46.945 Y8.872
X46.847 Y8.942
X46.757 Y9.02
X46.675 Y9.108
X46.601 Y9.203
X46.464 Y9.405
X46.359 Y9.66
X46.315 Y9.789
X46.28 Y9.921
X46.243 Y10.191
X46.229 Y10.467
X46.248 Y10.708
Z4.
G0 Z10.
X47.213 Y10.415
Z4.
G1 Z-1. F216.
X47.226 Y10.192 F649.
X47.24 Y10.083
X47.265 Y9.977
X47.302 Y9.875
X47.351 Y9.777
X47.469 Y9.588
X47.605 Y9.468
X47.677 Y9.416
X47.754 Y9.374
X47.835 Y9.344
X47.922 Y9.324
X48.102 Y9.301
X48.282 Y9.324
X48.368 Y9.344
X48.449 Y9.374
X48.525 Y9.416
X48.597 Y9.468
X48.732 Y9.588
X48.85 Y9.779
X48.899 Y9.878
X48.936 Y9.98
X48.96 Y10.087
X48.974 Y10.197
X48.987 Y10.422
X48.974 Y10.644
X48.959 Y10.752
X48.935 Y10.857
X48.898 Y10.958
X48.849 Y11.055
X48.732 Y11.243
X48.597 Y11.363
X48.525 Y11.415
X48.449 Y11.457
X48.368 Y11.487
X48.282 Y11.507
X48.102 Y11.53
X47.922 Y11.507
X47.835 Y11.487
X47.754 Y11.457
X47.677 Y11.415
X47.605 Y11.363
X47.469 Y11.243
X47.351 Y11.054
X47.302 Y10.956
X47.265 Y10.854
X47.24 Y10.748
X47.226 Y10.639
X47.213 Y10.415
Z4.
G0 Z10.
X52.647 Y9.853
Z4.
G1 Z-1. F216.
Y13.611 F649.
X53.659
Y8.6
X52.647
Y9.853
Z4.
G0 Z10.
X54.616 Y8.6
Z4.
G1 Z-1. F216.
Y13.611 F649.
X55.577
Y8.6
X54.616
Z4.
G0 Z10.
X56.452 Y9.937
Z4.
G1 Z-1. F216.
Y10.897 F649.
X58.339
Y9.937
X56.452
Z4.
G0 Z10.
X58.643 Y10.231
Z4.
G1 Z-1. F216.
X59.627 Y10.326 F649.
X59.675 Y10.123
X59.745 Y9.93
X59.794 Y9.841
X59.853 Y9.758
X59.988 Y9.599
X60.155 Y9.494
X60.242 Y9.45
X60.332 Y9.416
X60.523 Y9.379
X60.721 Y9.366
X60.918 Y9.375
X61.108 Y9.406
X61.199 Y9.436
X61.287 Y9.476
X61.457 Y9.573
X61.558 Y9.675
X61.638 Y9.786
X61.683 Y9.916
X61.705 Y10.057
X61.698 Y10.139
X61.68 Y10.217
X61.646 Y10.29
X61.601 Y10.359
X61.52 Y10.43
X61.433 Y10.491
X61.237 Y10.576
X60.834 Y10.692
X60.427 Y10.795
X60.122 Y10.876
X59.827 Y10.978
X59.686 Y11.044
X59.549 Y11.12
X59.285 Y11.29
X59.093 Y11.507
X59.009 Y11.622
X58.942 Y11.743
X58.894 Y11.874
X58.861 Y12.011
X58.824 Y12.299
X58.841 Y12.489
X58.879 Y12.673
X58.95 Y12.847
X59.041 Y13.015
X59.17 Y13.174
X59.315 Y13.316
X59.484 Y13.428
X59.666 Y13.522
X59.907 Y13.601
X60.15 Y13.659
X60.4 Y13.687
X60.652 Y13.697
X61.034 Y13.678
X61.221 Y13.655
X61.402 Y13.617
X61.577 Y13.557
X61.746 Y13.476
X62.073 Y13.283
X62.281 Y13.045
X62.37 Y12.92
X62.443 Y12.786
X62.494 Y12.643
X62.53 Y12.493
X62.573 Y12.179
X61.562 Y12.135
X61.526 Y12.292
X61.474 Y12.439
X61.389 Y12.57
X61.283 Y12.69
X61.134 Y12.77
X60.978 Y12.828
X60.813 Y12.852
X60.642 Y12.859
X60.459 Y12.85
X60.282 Y12.823
X60.114 Y12.762
X59.952 Y12.678
X59.884 Y12.614
X59.832 Y12.543
X59.804 Y12.459
X59.791 Y12.367
X59.804 Y12.279
X59.831 Y12.198
X59.88 Y12.127
X59.942 Y12.063
X60.162 Y11.948
X60.39 Y11.853
X60.628 Y11.784
X60.871 Y11.728
X61.151 Y11.659
X61.428 Y11.579
X61.698 Y11.48
X61.963 Y11.367
X62.125 Y11.266
X62.275 Y11.15
X62.403 Y11.011
X62.517 Y10.858
X62.606 Y10.669
X62.673 Y10.474
X62.705 Y10.269
X62.717 Y10.06
X62.698 Y9.846
X62.656 Y9.639
X62.578 Y9.443
X62.478 Y9.253
X62.339 Y9.077
X62.183 Y8.921
X62. Y8.798
X61.801 Y8.694
X61.535 Y8.611
X61.265 Y8.55
X60.989 Y8.521
X60.71 Y8.512
X60.318 Y8.533
X60.125 Y8.558
X59.939 Y8.6
X59.759 Y8.664
X59.586 Y8.748
X59.251 Y8.951
X59.013 Y9.229
X58.91 Y9.375
X58.825 Y9.531
X58.76 Y9.697
X58.712 Y9.87
X58.643 Y10.231
Z4.
G0 Z10.
X58.882 Y5.791
Z4.
G1 Z-1. F216.
Y4.902 F649.
X57.922
Y5.791
X58.882
Z4.
G0 Z10.
X57.922 Y4.41
Z4.
G1 Z-1. F216.
X58.882 F649.
Y0.78
X57.922
Y4.41
Z4.
G0 Z10.
X56.649 Y1.456
Z4.
G1 Z-1. F216.
X56.596 Y1.358 F649.
X56.534 Y1.266
X56.463 Y1.182
X56.383 Y1.105
X56.209 Y0.96
X55.969 Y0.839
X55.847 Y0.789
X55.721 Y0.75
X55.591 Y0.725
X55.459 Y0.709
X55.19 Y0.695
X54.875 Y0.718
X54.722 Y0.743
X54.575 Y0.784
X54.435 Y0.844
X54.303 Y0.923
X54.049 Y1.11
X53.865 Y1.385
X53.788 Y1.528
X53.729 Y1.678
X53.69 Y1.834
X53.667 Y1.996
X53.646 Y2.328
X54.599 Y2.438
X54.607 Y2.28
X54.627 Y2.126
X54.668 Y1.976
X54.726 Y1.829
X54.824 Y1.714
X54.878 Y1.664
X54.937 Y1.625
X55.003 Y1.597
X55.074 Y1.579
X55.225 Y1.559
X55.361 Y1.569
X55.489 Y1.598
X55.602 Y1.663
X55.703 Y1.753
X55.778 Y1.945
X55.826 Y2.142
X55.843 Y2.346
Y2.554
Y5.791
X56.852
Y2.619
X56.848 Y2.377
X56.832 Y2.136
X56.795 Y1.898
X56.742 Y1.662
X56.649 Y1.456
Z4.
G0 Z10.
X59.863 Y5.791
Z4.
G1 Z-1. F216.
X60.823 F649.
Y3.949
X61.059 Y4.172
X61.184 Y4.269
X61.317 Y4.348
X61.461 Y4.406
X61.614 Y4.445
X61.934 Y4.492
X62.088 Y4.484
X62.24 Y4.463
X62.388 Y4.422
X62.532 Y4.369
X62.647 Y4.308
X62.754 Y4.238
X62.848 Y4.152
X62.934 Y4.055
X63.048 Y3.852
X63.118 Y3.631
X63.16 Y3.271
X63.168 Y2.91
Y0.78
X62.208
Y2.698
X62.203 Y3.062
X62.184 Y3.243
X62.153 Y3.422
X62.077 Y3.561
X61.96 Y3.667
X61.878 Y3.707
X61.793 Y3.737
X61.613 Y3.757
X61.5 Y3.749
X61.391 Y3.729
X61.287 Y3.691
X61.186 Y3.641
X61.096 Y3.57
X61.018 Y3.489
X60.959 Y3.394
X60.91 Y3.291
X60.868 Y3.12
X60.838 Y2.949
X60.823 Y2.599
Y0.78
X59.863
Y5.791
Z4.
G0 Z10.
X64.173 Y3.895
Z4.
G1 Z-1. F216.
X64.242 Y3.989 F649.
X64.32 Y4.076
X64.494 Y4.239
X64.746 Y4.359
X64.875 Y4.409
X65.007 Y4.445
X65.142 Y4.469
X65.28 Y4.482
X65.561 Y4.492
X65.806 Y4.487
X66.048 Y4.466
X66.285 Y4.414
X66.518 Y4.34
X66.649 Y4.267
X66.77 Y4.181
X66.871 Y4.074
X66.96 Y3.954
X67.027 Y3.745
X67.071 Y3.532
X67.087 Y3.314
X67.089 Y3.094
X67.078 Y1.973
X67.085 Y1.619
X67.124 Y1.267
X67.195 Y1.018
X67.297 Y0.78
X66.347
X66.255 Y1.064
X66.22 Y1.177
X66.1 Y1.07
X65.974 Y0.973
X65.837 Y0.891
X65.694 Y0.818
X65.549 Y0.767
X65.401 Y0.727
X65.249 Y0.707
X65.096 Y0.698
X64.854 Y0.716
X64.737 Y0.734
X64.623 Y0.764
X64.515 Y0.809
X64.411 Y0.866
X64.212 Y1.002
X64.074 Y1.17
X64.015 Y1.259
X63.968 Y1.352
X63.935 Y1.451
X63.913 Y1.555
X63.889 Y1.771
X63.9 Y1.916
X63.924 Y2.056
X63.973 Y2.19
X64.036 Y2.32
X64.12 Y2.433
X64.215 Y2.535
X64.326 Y2.618
X64.448 Y2.689
X64.634 Y2.762
X64.823 Y2.824
X65.212 Y2.913
X65.684 Y3.01
X65.916 Y3.074
X66.145 Y3.149
Y3.244
X66.14 Y3.354
X66.119 Y3.458
X66.073 Y3.552
X66.008 Y3.639
X65.887 Y3.699
X65.761 Y3.74
X65.629 Y3.755
X65.492 Y3.757
X65.387 Y3.752
X65.284 Y3.737
X65.187 Y3.703
X65.092 Y3.656
X65.015 Y3.581
X64.949 Y3.498
X64.9 Y3.403
X64.86 Y3.303
X63.988 Y3.46
X64.069 Y3.685
X64.116 Y3.793
X64.173 Y3.895
Z4.
G0 Z10.
X65.292 Y2.313
Z4.
G1 Z-1. F216.
X65.163 Y2.266 F649.
X65.038 Y2.209
X64.961 Y2.14
X64.9 Y2.063
X64.866 Y1.972
X64.85 Y1.87
X64.862 Y1.772
X64.888 Y1.68
X64.937 Y1.598
X65. Y1.522
X65.085 Y1.458
X65.176 Y1.41
X65.277 Y1.385
X65.383 Y1.375
X65.516 Y1.39
X65.644 Y1.42
X65.764 Y1.476
X65.879 Y1.546
X65.954 Y1.612
X66.02 Y1.686
X66.069 Y1.771
X66.107 Y1.864
X66.141 Y2.096
X66.145 Y2.332
Y2.523
X65.855 Y2.443
X65.561 Y2.376
X65.292 Y2.313
Z4.
G0 Z10.
X68.028 Y1.99
Z4.
G1 Z-1. F216.
Y4.41 F649.
X68.921
Y3.877
X69.169 Y4.131
X69.301 Y4.241
X69.444 Y4.332
X69.6 Y4.396
X69.766 Y4.44
X70.117 Y4.492
X70.266 Y4.484
X70.413 Y4.465
X70.557 Y4.427
X70.698 Y4.378
X70.81 Y4.322
X70.916 Y4.257
X71.01 Y4.176
X71.096 Y4.085
X71.211 Y3.894
X71.284 Y3.682
X71.328 Y3.361
X71.337 Y3.036
Y0.78
X70.377
Y2.633
X70.37 Y3.015
X70.349 Y3.205
X70.315 Y3.393
X70.237 Y3.543
X70.18 Y3.606
X70.115 Y3.661
X70.037 Y3.703
X69.956 Y3.735
X69.782 Y3.757
X69.663 Y3.747
X69.547 Y3.724
X69.439 Y3.679
X69.334 Y3.62
X69.245 Y3.546
X69.168 Y3.462
X69.109 Y3.365
X69.062 Y3.258
X69.024 Y3.052
X68.998 Y2.844
X68.989 Y2.424
Y0.78
X68.028
Y1.99
Z4.
G0 Z10.
X72.222 Y0.541
Z4.
G1 Z-1. F216.
X73.319 Y0.408 F649.
X73.356 Y0.263
X73.396 Y0.201
X73.446 Y0.144
X73.547 Y0.095
X73.652 Y0.06
X73.763 Y0.045
X73.877 Y0.042
X74.023 Y0.046
X74.166 Y0.062
X74.305 Y0.1
X74.44 Y0.155
X74.503 Y0.204
X74.557 Y0.259
X74.632 Y0.397
X74.671 Y0.616
X74.676 Y0.838
Y1.368
X74.455 Y1.127
X74.335 Y1.022
X74.206 Y0.936
X74.064 Y0.874
X73.912 Y0.831
X73.59 Y0.78
X73.244 Y0.83
X73.081 Y0.873
X72.929 Y0.937
X72.791 Y1.028
X72.665 Y1.14
X72.431 Y1.399
X72.282 Y1.684
X72.219 Y1.831
X72.17 Y1.981
X72.137 Y2.135
X72.116 Y2.293
X72.096 Y2.616
X72.118 Y2.994
X72.143 Y3.178
X72.185 Y3.357
X72.249 Y3.528
X72.333 Y3.692
X72.535 Y4.01
X72.771 Y4.214
X72.896 Y4.301
X73.028 Y4.372
X73.169 Y4.422
X73.317 Y4.454
X73.627 Y4.492
X73.956 Y4.441
X74.111 Y4.399
X74.256 Y4.337
X74.388 Y4.25
X74.51 Y4.144
X74.738 Y3.901
Y4.41
X75.637
Y1.153
X75.634 Y0.91
X75.619 Y0.668
X75.583 Y0.429
X75.531 Y0.192
X75.477 Y0.055
X75.413 Y-0.076
X75.329 Y-0.195
X75.233 Y-0.307
X75.117 Y-0.398
X74.994 Y-0.477
X74.861 Y-0.539
X74.723 Y-0.59
X74.523 Y-0.638
X74.322 Y-0.672
X74.119 Y-0.688
X73.914 Y-0.693
X73.568 Y-0.684
X73.398 Y-0.669
X73.231 Y-0.641
X73.069 Y-0.596
X72.912 Y-0.533
X72.605 Y-0.377
X72.443 Y-0.208
X72.373 Y-0.118
X72.317 Y-0.022
X72.277 Y0.082
X72.25 Y0.193
X72.219 Y0.425
X72.222 Y0.541
Z4.
G0 Z10.
X73.421 Y1.713
Z4.
G1 Z-1. F216.
X73.549 Y1.626 F649.
X73.62 Y1.597
X73.697 Y1.578
X73.856 Y1.556
X74.026 Y1.578
X74.107 Y1.598
X74.184 Y1.626
X74.256 Y1.667
X74.323 Y1.716
X74.451 Y1.831
X74.564 Y2.018
X74.611 Y2.115
X74.646 Y2.215
X74.682 Y2.427
X74.693 Y2.646
X74.684 Y2.87
X74.65 Y3.087
X74.616 Y3.19
X74.571 Y3.29
X74.461 Y3.484
X74.336 Y3.599
X74.269 Y3.648
X74.199 Y3.688
X74.122 Y3.717
X74.042 Y3.736
X73.873 Y3.757
X73.709 Y3.736
X73.631 Y3.717
X73.557 Y3.69
X73.489 Y3.65
X73.425 Y3.602
X73.304 Y3.489
X73.198 Y3.299
X73.154 Y3.201
X73.122 Y3.1
X73.089 Y2.889
X73.08 Y2.67
X73.088 Y2.445
X73.12 Y2.227
X73.153 Y2.122
X73.197 Y2.021
X73.304 Y1.824
X73.421 Y1.713
Z4.
G0 Z10.
X76.563 Y1.741
Z4.
G1 Z-1. F216.
X77.523 F649.
Y1.054
X77.51 Y0.722
X77.452 Y0.396
X77.404 Y0.275
X77.344 Y0.162
X77.268 Y0.059
X77.18 Y-0.037
X77.064 Y-0.131
X76.942 Y-0.214
X76.81 Y-0.281
X76.673 Y-0.338
X76.484 Y0.059
X76.602 Y0.104
X76.712 Y0.159
X76.809 Y0.234
X76.898 Y0.322
X76.955 Y0.429
X76.998 Y0.541
X77.019 Y0.659
X77.028 Y0.78
X76.563
Y1.741
Z4.
G0 Z10.
X72.468 Y7.606
Z4.
G1 Z-1. F216.
X72.336 Y7.54 F649.
