(5.31 -  2)
(T2  D=3. CR=1.5 - ZMIN=-1. - BALL END MILL)
G21
G40
G49
G80
G90

(4)
M5
T2 M6
S11999 M3
G54
G0 B0. C0.
G17
G0 X15.048 Y108.986 Z40.
Z4.
G94 G1 Z-1. F216.
X15.028 Y108.214 F649.
X14.969 Y107.444
X14.869 Y106.678
X14.731 Y105.918
X14.553 Y105.166
X14.337 Y104.424
X14.084 Y103.695
X13.793 Y102.979
X13.465 Y102.28
X13.102 Y101.598
X12.705 Y100.936
X12.273 Y100.295
X11.81 Y99.677
X11.315 Y99.084
X10.79 Y98.517
X10.237 Y97.978
X9.657 Y97.468
X9.051 Y96.988
X8.422 Y96.541
X7.77 Y96.126
X7.098 Y95.746
X6.407 Y95.4
X5.699 Y95.091
X4.976 Y94.819
X4.24 Y94.584
X3.493 Y94.387
X2.737 Y94.229
X1.974 Y94.11
X1.206 Y94.031
X0.434 Y93.991
X-0.338
X-1.11 Y94.031
X-1.878 Y94.11
X-2.641 Y94.229
X-3.397 Y94.387
X-4.144 Y94.584
X-4.88 Y94.819
X-5.603 Y95.091
X-6.311 Y95.4
X-7.002 Y95.746
X-7.674 Y96.126
X-8.326 Y96.541
X-8.955 Y96.988
X-9.561 Y97.468
X-10.141 Y97.978
X-10.694 Y98.517
X-11.219 Y99.084
X-11.714 Y99.677
X-12.177 Y100.295
X-12.609 Y100.936
X-13.006 Y101.598
X-13.369 Y102.28
X-13.697 Y102.979
X-13.988 Y103.695
X-14.242 Y104.424
X-14.458 Y105.166
X-14.635 Y105.918
X-14.773 Y106.678
X-14.873 Y107.444
X-14.932 Y108.214
X-14.952 Y108.986
X-14.932 Y109.758
X-14.873 Y110.528
X-14.773 Y111.294
X-14.635 Y112.054
X-14.458 Y112.806
X-14.242 Y113.548
X-13.988 Y114.277
X-13.697 Y114.993
X-13.369 Y115.692
X-13.006 Y116.374
X-12.609 Y117.036
X-12.177 Y117.677
X-11.714 Y118.295
X-11.219 Y118.888
X-10.694 Y119.455
X-10.141 Y119.994
X-9.561 Y120.504
X-8.955 Y120.984
X-8.326 Y121.431
X-7.674 Y121.846
X-7.002 Y122.226
X-6.311 Y122.572
X-5.603 Y122.881
X-4.88 Y123.153
X-4.144 Y123.388
X-3.397 Y123.585
X-2.641 Y123.743
X-1.878 Y123.862
X-1.11 Y123.941
X-0.338 Y123.981
X0.434
X1.206 Y123.941
X1.974 Y123.862
X2.737 Y123.743
X3.493 Y123.585
X4.24 Y123.388
X4.976 Y123.153
X5.699 Y122.881
X6.407 Y122.572
X7.098 Y122.226
X7.77 Y121.846
X8.422 Y121.431
X9.051 Y120.984
X9.657 Y120.504
X10.237 Y119.994
X10.79 Y119.455
X11.315 Y118.888
X11.81 Y118.295
X12.273 Y117.677
X12.705 Y117.036
X13.102 Y116.374
X13.465 Y115.692
X13.793 Y114.993
X14.084 Y114.277
X14.337 Y113.548
X14.553 Y112.806
X14.731 Y112.054
X14.869 Y111.294
X14.969 Y110.528
X15.028 Y109.758
X15.048 Y108.986
Z4.
G0 Z10.
X14.233 Y109.254
Z4.
G1 Z-1. F216.
X14.217 Y109.22 F649.
X14.192 Y109.198
X14.16 Y109.189
X14.13 Y109.193
X14.103 Y109.209
X14.081 Y109.241
X14.072 Y109.28
X14.014 Y110.06
X13.281 Y110.117
X13.356 Y110.036
X13.411 Y109.941
X13.451 Y109.824
X13.47 Y109.702
X13.464 Y109.558
X13.436 Y109.423
X13.369 Y109.303
X13.279 Y109.191
X13.168 Y109.11
X13.05 Y109.045
X12.92 Y109.008
X12.783 Y108.987
X12.646
X12.512 Y109.003
X12.387 Y109.049
X12.266 Y109.113
X12.154 Y109.226
X12.107 Y109.287
X12.068 Y109.353
X12.021 Y109.499
X11.996 Y109.657
X11.995 Y109.768
X12.006 Y109.876
X12.036 Y109.981
X12.079 Y110.083
X12.135 Y110.163
X12.2 Y110.232
X12.28 Y110.283
X12.369 Y110.322
X12.408 Y110.329
X12.446 Y110.319
X12.474 Y110.296
X12.491 Y110.264
X12.496 Y110.229
X12.488 Y110.196
X12.463 Y110.163
X12.427 Y110.144
X12.308 Y110.083
X12.221 Y109.982
X12.189 Y109.904
X12.166 Y109.825
X12.16 Y109.657
X12.182 Y109.546
X12.219 Y109.444
X12.283 Y109.357
X12.365 Y109.279
X12.459 Y109.227
X12.557 Y109.188
X12.661 Y109.173
X12.769 Y109.171
X12.876 Y109.188
X12.977 Y109.216
X13.07 Y109.266
X13.157 Y109.329
X13.226 Y109.416
X13.277 Y109.509
X13.299 Y109.614
X13.304 Y109.725
X13.28 Y109.853
X13.224 Y109.972
X13.155 Y110.052
X13.069 Y110.113
X13.012 Y110.163
X13.003 Y110.198
X13.004 Y110.237
X13.025 Y110.269
X13.051 Y110.291
X13.123 Y110.299
X14.166 Y110.224
X14.235 Y109.292
X14.233 Y109.254
Z4.
G0 Z10.
X13.926 Y108.826
Z4.
G1 Z-1. F216.
X14.021 Y108.772 F649.
X14.108 Y108.702
X14.186 Y108.595
X14.243 Y108.48
X14.269 Y108.354
X14.276 Y108.221
X14.26 Y108.09
X14.225 Y107.966
X14.16 Y107.855
X14.076 Y107.753
X13.983 Y107.689
X13.885 Y107.64
X13.778 Y107.617
X13.666 Y107.609
X13.55 Y107.622
X13.44 Y107.649
X13.339 Y107.701
X13.244 Y107.768
X13.095 Y107.953
X12.97 Y108.155
X12.931 Y108.215
X12.782 Y108.449
X12.692 Y108.554
X12.594 Y108.652
X12.433 Y108.741
X12.253 Y108.784
X12.215 Y107.698
X12.209 Y107.665
X12.19 Y107.637
X12.162 Y107.62
X12.13 Y107.616
X12.1 Y107.623
X12.075 Y107.641
X12.056 Y107.669
X12.051 Y107.703
X12.096 Y108.983
X12.243 Y108.968
X12.386 Y108.938
X12.52 Y108.881
X12.649 Y108.808
X12.764 Y108.707
X12.868 Y108.597
X12.956 Y108.474
X13.163 Y108.132
X13.314 Y107.938
X13.394 Y107.879
X13.479 Y107.832
X13.573 Y107.807
X13.672 Y107.794
X13.754 Y107.799
X13.831 Y107.815
X13.902 Y107.849
X13.969 Y107.895
X14.029 Y107.967
X14.076 Y108.045
X14.101 Y108.133
X14.113 Y108.227
X14.107 Y108.321
X14.089 Y108.409
X14.048 Y108.49
X13.992 Y108.565
X13.929 Y108.616
X13.86 Y108.655
X13.784 Y108.676
X13.703 Y108.687
X13.618 Y108.69
X13.58 Y108.698
X13.549 Y108.721
X13.531 Y108.752
X13.525 Y108.787
X13.533 Y108.821
X13.554 Y108.85
X13.591 Y108.87
X13.634 Y108.874
X13.71 Y108.871
X13.821 Y108.856
X13.926 Y108.826
Z4.
G0 Z10.
X11.929 Y108.189
Z4.
G1 Z-1. F216.
X11.877 Y107.503 F649.
X11.743 Y106.83
X11.569 Y106.166
X11.359 Y105.512
X11.111 Y104.872
X10.827 Y104.247
X10.508 Y103.639
X10.154 Y103.051
X9.768 Y102.483
X9.349 Y101.939
X8.901 Y101.419
X8.423 Y100.926
X7.918 Y100.462
X7.387 Y100.026
X6.832 Y99.622
X6.255 Y99.25
X5.657 Y98.912
X5.041 Y98.609
X4.409 Y98.341
X3.763 Y98.11
X3.104 Y97.916
X2.435 Y97.761
X1.759 Y97.643
X1.077 Y97.565
X0.391 Y97.526
X-0.295
X-0.981 Y97.565
X-1.663 Y97.643
X-2.339 Y97.76
X-3.008 Y97.916
X-3.666 Y98.11
X-4.313 Y98.341
X-4.945 Y98.609
X-5.561 Y98.912
X-6.158 Y99.25
X-6.736 Y99.622
X-7.291 Y100.026
X-7.822 Y100.461
X-8.327 Y100.926
X-8.805 Y101.419
X-9.253 Y101.939
X-9.672 Y102.483
X-10.058 Y103.051
X-10.412 Y103.639
X-10.731 Y104.247
X-11.015 Y104.872
X-11.263 Y105.512
X-11.474 Y106.166
X-11.646 Y106.83
X-11.781 Y107.503
X-11.833 Y108.188
X-11.846 Y108.875
X-11.819 Y109.562
X-11.752 Y110.246
X-11.646 Y110.925
X-11.5 Y111.597
X-11.317 Y112.259
X-11.095 Y112.909
X-10.836 Y113.546
X-10.541 Y114.166
X-10.21 Y114.769
X-9.845 Y115.351
X-9.448 Y115.911
X-9.018 Y116.448
X-8.558 Y116.958
X-8.07 Y117.442
X-7.554 Y117.896
X-7.013 Y118.32
X-6.449 Y118.711
X-5.862 Y119.07
X-5.257 Y119.394
X-4.633 Y119.683
X-3.994 Y119.935
X-3.341 Y120.149
X-2.677 Y120.326
X-2.004 Y120.464
X-1.324 Y120.563
X-0.639 Y120.623
X0.048 Y120.642
X0.735 Y120.623
X1.419 Y120.563
X2.099 Y120.464
X2.773 Y120.326
X3.437 Y120.149
X4.089 Y119.935
X4.729 Y119.683
X5.352 Y119.394
X5.958 Y119.07
X6.544 Y118.712
X7.109 Y118.32
X7.65 Y117.896
X8.166 Y117.442
X8.654 Y116.958
X9.114 Y116.448
X9.543 Y115.911
X9.941 Y115.351
X10.306 Y114.769
X10.637 Y114.166
X10.932 Y113.546
X11.191 Y112.909
X11.413 Y112.259
X11.596 Y111.597
X11.741 Y110.925
X11.848 Y110.246
X11.915 Y109.562
X11.942 Y108.876
X11.929 Y108.189
Z4.
G0 Z10.
X12.233 Y110.457
Z4.
G1 Z-1. F216.
X12.079 Y110.543 F649.
X12.011 Y110.594
X11.954 Y110.653
X11.909 Y110.723
X11.875 Y110.801
X11.822 Y110.971
X11.811 Y111.07
X11.81 Y111.167
X11.83 Y111.263
X11.861 Y111.357
X11.919 Y111.443
X11.988 Y111.517
X12.075 Y111.569
X12.172 Y111.608
X12.21 Y111.612
X12.243 Y111.606
X12.268 Y111.582
X12.287 Y111.549
X12.293 Y111.51
X12.288 Y111.476
X12.266 Y111.45
X12.232 Y111.428
X12.12 Y111.373
X12.033 Y111.284
X12. Y111.216
X11.979 Y111.145
X11.977 Y111.071
X11.985 Y110.995
X12.027 Y110.868
X12.055 Y110.81
X12.09 Y110.759
X12.135 Y110.716
X12.188 Y110.68
X12.308 Y110.62
X12.481 Y110.592
X12.654 Y110.58
X12.829 Y110.59
X13.003 Y110.612
X12.887 Y110.679
X12.789 Y110.772
X12.69 Y110.932
X12.636 Y111.113
X12.626 Y111.223
X12.63 Y111.332
X12.658 Y111.437
X12.7 Y111.539
X12.793 Y111.654
X12.901 Y111.746
X13.031 Y111.805
X13.174 Y111.844
X13.33 Y111.863
X13.482 Y111.862
X13.629 Y111.825
X13.773 Y111.765
X13.879 Y111.668
X13.965 Y111.56
X14.02 Y111.432
X14.057 Y111.293
X14.069 Y111.172
X14.064 Y111.054
X14.029 Y110.942
X13.975 Y110.834
X13.824 Y110.696
X13.744 Y110.636
X13.657 Y110.588
X13.468 Y110.521
X13.267 Y110.476
X13.008 Y110.432
X12.75 Y110.407
X12.621
X12.492 Y110.418
X12.233 Y110.457
Z4.
G0 Z10.
X12.803 Y111.096
Z4.
G1 Z-1. F216.
X12.833 Y110.997 F649.
X12.876 Y110.907
X12.941 Y110.831
X13.02 Y110.764
X13.113 Y110.717
X13.208 Y110.686
X13.309 Y110.679
X13.412 Y110.688
X13.519 Y110.715
X13.618 Y110.754
X13.708 Y110.813
X13.79 Y110.886
X13.849 Y110.978
X13.889 Y111.075
X13.899 Y111.18
X13.891 Y111.289
X13.862 Y111.387
X13.819 Y111.476
X13.753 Y111.549
X13.673 Y111.612
X13.566 Y111.654
X13.456 Y111.679
X13.343 Y111.68
X13.228 Y111.667
X13.135 Y111.643
X13.047 Y111.609
X12.969 Y111.557
X12.896 Y111.495
X12.84 Y111.403
X12.802 Y111.307
X12.794 Y111.204
X12.803 Y111.096
Z4.
G0 Z10.
X12.665 Y112.371
Z4.
G1 Z-1. F216.
X11.671 Y112.072 F649.
X11.628 Y112.066
X11.587 Y112.078
X11.558 Y112.098
X11.541 Y112.128
X11.539 Y112.164
X11.55 Y112.198
X11.582 Y112.229
X11.621 Y112.247
X13.178 Y112.715
X13.086 Y113.024
Y113.079
X13.129 Y113.114
X13.182
X13.212 Y113.071
X13.261 Y112.95
X13.345 Y112.851
X13.41 Y112.822
X13.476 Y112.805
X13.545 Y112.807
X13.615 Y112.819
X13.674 Y112.814
X13.708 Y112.765
X13.713 Y112.733
X13.708 Y112.705
X13.689 Y112.686
X13.66 Y112.671
X12.665 Y112.371
Z4.
G0 Z10.
X13.028 Y114.3
Z4.
G1 Z-1. F216.
X11.713 Y114.444 F649.
X10.902 Y114.048
X10.863 Y114.037
X10.823 Y114.043
X10.794 Y114.062
X10.774 Y114.09
X10.764 Y114.124
X10.767 Y114.159
X10.788 Y114.192
X10.821 Y114.214
X11.632 Y114.61
X12.325 Y115.728
X12.35 Y115.758
X12.385 Y115.773
X12.42 Y115.772
X12.451 Y115.756
X12.477 Y115.735
X12.493 Y115.705
X12.497 Y115.667
X12.483 Y115.632
X11.855 Y114.614
X13.03 Y114.484
X13.071 Y114.474
X13.103 Y114.448
X13.121 Y114.417
X13.129 Y114.382
X13.122 Y114.349
X13.103 Y114.321
X13.068 Y114.303
X13.028 Y114.3
Z4.
G0 Z10.
X12.209 Y115.931
Z4.
G1 Z-1. F216.
X12.18 Y115.92 F649.
X12.148 Y115.922
X12.114 Y115.938
X12.088 Y115.966
X11.76 Y116.462
X10.132 Y115.387
X10.097 Y115.373
X10.059 Y115.374
X10.029 Y115.388
X10.006 Y115.413
X9.992 Y115.445
X9.99 Y115.479
X10.005 Y115.513
X10.032 Y115.539
X11.66 Y116.614
X11.317 Y117.132
X11.307 Y117.163
X11.306 Y117.191
X11.347 Y117.236
X11.405 Y117.256
X11.43 Y117.245
X11.454 Y117.223
X12.225 Y116.057
X12.241 Y116.023
X12.244 Y115.985
X12.233 Y115.954
X12.209 Y115.931
Z4.
G0 Z10.
X11.23 Y117.405
Z4.
G1 Z-1. F216.
X9.604 Y116.131 F649.
X9.57 Y116.113
X9.531 Y116.111
X9.5 Y116.122
X9.475 Y116.145
X9.458 Y116.175
X9.453 Y116.21
X9.466 Y116.246
X9.492 Y116.274
X11.118 Y117.548
X11.153 Y117.568
X11.192 Y117.572
X11.225 Y117.56
X11.25 Y117.536
X11.266 Y117.506
X11.27 Y117.473
X11.258 Y117.435
X11.23 Y117.405
Z4.
G0 Z10.
X10.598 Y117.82
Z4.
G1 Z-1. F216.
X10.554 Y117.733 F649.
X10.499 Y117.65
X10.465 Y117.617
X10.421 Y117.601
X10.384 Y117.602
X10.351 Y117.62
X10.329 Y117.649
X10.318 Y117.685
X10.323 Y117.726
X10.344 Y117.761
X10.393 Y117.835
X10.431 Y117.914
X10.45 Y117.998
X10.456 Y118.087
X10.431 Y118.177
X10.395 Y118.262
X10.343 Y118.338
X10.282 Y118.41
X10.132 Y118.544
X10.045 Y118.592
X9.951 Y118.63
X9.868 Y118.638
X9.788 Y118.631
X9.715 Y118.598
X9.646 Y118.549
X9.593 Y118.489
X9.551 Y118.424
X9.53 Y118.35
X9.521 Y118.271
X9.547 Y118.154
X9.584 Y118.042
X9.699 Y117.832
X9.781 Y117.692
X9.851 Y117.547
X9.897 Y117.393
X9.926 Y117.234
X9.908 Y117.114
X9.871 Y117.003
X9.805 Y116.906
X9.724 Y116.816
X9.616 Y116.74
X9.502 Y116.688
X9.378 Y116.673
X9.247 Y116.682
X9.112 Y116.725
X8.986 Y116.784
X8.875 Y116.866
X8.771 Y116.963
X8.675 Y117.076
X8.594 Y117.196
X8.54 Y117.329
X8.504 Y117.471
X8.514 Y117.616
X8.548 Y117.751
X8.617 Y117.874
X8.705 Y117.989
X8.737 Y118.015
X8.777 Y118.024
X8.809 Y118.017
X8.836 Y117.999
X8.857 Y117.972
X8.865 Y117.938
X8.857 Y117.897
X8.834 Y117.861
X8.765 Y117.773
X8.711 Y117.68
X8.685 Y117.576
X8.678 Y117.466
X8.707 Y117.357
X8.75 Y117.256
X8.813 Y117.165
X8.887 Y117.08
X9.037 Y116.952
X9.124 Y116.907
X9.215 Y116.87
X9.314 Y116.85
X9.409
X9.498 Y116.883
X9.583 Y116.936
X9.643 Y117.
X9.693 Y117.068
X9.725 Y117.147
X9.744 Y117.232
X9.719 Y117.367
X9.68 Y117.496
X9.622 Y117.62
X9.553 Y117.739
X9.425 Y117.99
X9.38 Y118.123
X9.346 Y118.26
X9.353 Y118.379
X9.379 Y118.49
X9.438 Y118.589
X9.516 Y118.68
X9.61 Y118.749
X9.711 Y118.798
X9.822 Y118.815
X9.939 Y118.811
X10.073 Y118.763
X10.197 Y118.699
X10.307 Y118.613
X10.41 Y118.513
X10.5 Y118.403
X10.574 Y118.285
X10.616 Y118.153
X10.638 Y118.012
X10.624 Y117.914
X10.598 Y117.82
Z4.
G0 Z10.
X9.229 Y119.095
Z4.
G1 Z-1. F216.
X9.182 Y118.996 F649.
X9.121 Y118.902
X9. Y118.786
X8.851 Y118.713
X8.692 Y118.692
X8.535 Y118.722
X8.593 Y118.641
X8.619 Y118.546
X8.618 Y118.481
X8.607 Y118.419
X8.545 Y118.308
X8.425 Y118.151
X8.314 Y117.986
X8.251 Y117.87
X8.199 Y117.748
X8.179 Y117.71
X8.146 Y117.682
X8.11 Y117.674
X8.073 Y117.68
X8.042 Y117.698
X8.018 Y117.724
X8.006 Y117.76
X8.01 Y117.798
X8.073 Y117.946
X8.153 Y118.085
X8.385 Y118.403
X8.414 Y118.453
X8.433 Y118.506
Y118.562
X8.423 Y118.62
X8.367 Y118.731
X8.28 Y118.82
X7.687 Y119.294
X7.109 Y118.571
X7.079 Y118.544
X7.041 Y118.532
X7.006 Y118.535
X6.976 Y118.55
X6.953 Y118.577
X6.942 Y118.611
X6.947 Y118.65
X6.967 Y118.685
X8.105 Y120.108
X8.183 Y120.18
X8.281 Y120.219
X8.34 Y120.221
X8.397 Y120.213
X8.5 Y120.156
X9.017 Y119.743
X9.109 Y119.653
X9.184 Y119.554
X9.229 Y119.44
X9.257 Y119.315
X9.25 Y119.203
X9.229 Y119.095
Z4.
G0 Z10.
X8.423 Y120.008
Z4.
G1 Z-1. F216.
X8.374 Y120.035 F649.
X8.319 Y120.038
X8.275 Y120.019
X8.24 Y119.985
X7.788 Y119.42
X8.365 Y118.959
X8.443 Y118.908
X8.526 Y118.872
X8.616 Y118.858
X8.709 Y118.86
X8.786 Y118.881
X8.858 Y118.913
X8.921 Y118.96
X8.977 Y119.017
X9.021 Y119.085
X9.054 Y119.157
X9.069 Y119.234
X9.073 Y119.315
X9.053 Y119.406
X9.02 Y119.49
X8.966 Y119.562
X8.899 Y119.627
X8.423 Y120.008
Z4.
G0 Z10.
X7.237 Y119.774
Z4.
G1 Z-1. F216.
X7.216 Y119.751 F649.
X7.188 Y119.738
X7.15 Y119.737
X7.114 Y119.751
X6.197 Y120.289
X5.822 Y119.65
X5.804 Y119.606
X5.803 Y119.559
X5.826 Y119.509
X5.868 Y119.474
X6.795 Y118.93
X6.825 Y118.906
X6.844 Y118.874
X6.846 Y118.842
X6.835 Y118.811
X6.814 Y118.788
X6.786 Y118.775
X6.748 Y118.774
X6.712 Y118.788
X5.757 Y119.348
X5.668 Y119.424
X5.64 Y119.475
X5.62 Y119.531
X5.621 Y119.635
X5.66 Y119.732
X6.465 Y121.104
X6.531 Y121.186
X6.622 Y121.239
X6.681 Y121.249
X6.739
X6.848 Y121.208
X7.771 Y120.667
X7.799 Y120.644
X7.817 Y120.613
X7.819 Y120.581
X7.808 Y120.55
X7.787 Y120.527
X7.759 Y120.514
X7.722 Y120.512
X7.688 Y120.526
X6.793 Y121.05
X6.741 Y121.07
X6.687 Y121.065
X6.645 Y121.04
X6.615 Y121.002
X6.28 Y120.431
X7.197 Y119.893
X7.227 Y119.869
X7.246 Y119.837
X7.248 Y119.805
X7.237 Y119.774
Z4.
G0 Z10.
X6.154 Y121.531
Z4.
G1 Z-1. F216.
X6.132 Y121.496 F649.
X4.736 Y119.922
X4.697 Y119.882
X4.655 Y119.854
X4.605 Y119.846
X4.552 Y119.852
X4.509 Y119.886
X4.48 Y119.926
X4.471 Y119.976
X4.473 Y120.031
X4.601 Y122.132
X4.609 Y122.174
X4.633 Y122.21
X4.664 Y122.227
X4.699 Y122.231
X4.734 Y122.221
X4.762 Y122.198
X4.78 Y122.159
X4.784 Y122.116
X4.652 Y120.109
X4.663 Y120.104
X5.991 Y121.614
X6.022 Y121.644
X6.063 Y121.658
X6.098 Y121.652
X6.129 Y121.633
X6.151 Y121.606
X6.161 Y121.572
X6.154 Y121.531
Z4.
G0 Z10.
X3.762 Y120.239
Z4.
G1 Z-1. F216.
X3.744 Y120.204 F649.
X3.713 Y120.181
X3.681 Y120.173
X3.647 Y120.177
X3.616 Y120.193
X3.593 Y120.219
X3.583 Y120.256
X3.589 Y120.294
X4.211 Y122.263
X4.228 Y122.299
X4.258 Y122.325
X4.292 Y122.333
X4.327 Y122.328
X4.356 Y122.313
X4.378 Y122.287
X4.39 Y122.249
X4.384 Y122.209
X3.762 Y120.239
Z4.
G0 Z10.
X3.732 Y122.439
Z4.
G1 Z-1. F216.
X3.302 Y120.434 F649.
X3.269 Y120.363
X3.238 Y120.344
X3.199 Y120.333
X3.135 Y120.343
X3.096 Y120.394
X2.986 Y120.663
X2.358 Y122.473
X1.976 Y120.694
X1.961 Y120.654
X1.931 Y120.623
X1.898 Y120.609
X1.863 Y120.61
X1.83 Y120.626
X1.806 Y120.653
X1.793 Y120.692
X1.796 Y120.733
X2.222 Y122.724
X2.237 Y122.764
X2.258 Y122.795
X2.292 Y122.812
X2.333 Y122.82
X2.407 Y122.794
X2.452 Y122.731
X2.519 Y122.567
X3.166 Y120.679
X3.551 Y122.478
X3.564 Y122.509
X3.59 Y122.532
X3.623 Y122.539
X3.656 Y122.536
X3.689 Y122.524
X3.715 Y122.503
X3.732 Y122.473
Y122.439
Z4.
G0 Z10.
X1.67 Y122.829
Z4.
G1 Z-1. F216.
X1.587 Y121.46 F649.
X1.566 Y121.313
X1.526 Y121.172
X1.456 Y121.045
X1.367 Y120.925
X1.232 Y120.822
X1.162 Y120.779
X1.087 Y120.746
X1.008 Y120.726
X0.926 Y120.715
X0.756 Y120.709
X0.586 Y120.736
X0.506 Y120.756
X0.429 Y120.786
X0.359 Y120.827
X0.294 Y120.878
X0.171 Y120.997
X0.097 Y121.127
X0.043 Y121.262
X0.021 Y121.406
X0.017 Y121.555
X0.099 Y122.912
X0.107 Y122.95
X0.129 Y122.981
X0.16 Y122.997
X0.195 Y123.
X0.227 Y122.993
X0.255 Y122.976
X0.276 Y122.941
X0.28 Y122.901
X0.198 Y121.541
X0.2 Y121.424
X0.216 Y121.31
X0.257 Y121.203
X0.312 Y121.1
X0.407 Y121.007
X0.512 Y120.934
X0.634 Y120.894
X0.765 Y120.873
X0.898 Y120.878
X1.023 Y120.903
X1.136 Y120.962
X1.24 Y121.044
X1.307 Y121.14
X1.361 Y121.241
X1.39 Y121.352
X1.406 Y121.468
X1.489 Y122.846
X1.497 Y122.879
X1.519 Y122.906
X1.551 Y122.917
X1.584 Y122.919
X1.617 Y122.911
X1.644 Y122.892
X1.665 Y122.864
X1.67 Y122.829
Z4.
G0 Z10.
X-1.015 Y120.896
Z4.
G1 Z-1. F216.
X-0.993 Y120.872 F649.
X-0.983 Y120.842
X-0.985 Y120.811
X-0.998 Y120.783
X-1.027 Y120.758
X-1.064 Y120.747
X-1.988 Y120.61
X-2.106 Y120.613
X-2.159 Y120.634
X-2.21 Y120.666
X-2.274 Y120.748
X-2.305 Y120.847
X-2.573 Y122.655
Y122.695
X-2.558 Y122.732
X-2.531 Y122.754
X-2.497 Y122.764
X-2.464 Y122.763
X-2.433 Y122.75
X-2.406 Y122.721
X-2.393 Y122.682
X-2.127 Y120.885
X-2.113 Y120.84
X-2.085 Y120.803
X-2.036 Y120.778
X-1.981 Y120.777
X-1.088 Y120.909
X-1.05
X-1.015 Y120.896
Z4.
G0 Z10.
X-3.596 Y122.37
Z4.
G1 Z-1. F216.
X-2.365 Y120.65 F649.
X-2.347 Y120.612
X-2.346 Y120.57
X-2.358 Y120.539
X-2.382 Y120.515
X-2.415 Y120.5
X-2.45 Y120.499
X-2.489 Y120.517
X-2.519 Y120.547
X-2.938 Y121.139
X-3.844 Y120.887
X-3.902 Y120.163
X-3.913 Y120.121
X-3.938 Y120.086
X-3.967 Y120.067
X-4.002 Y120.063
X-4.037 Y120.071
X-4.065 Y120.094
X-4.084 Y120.131
Y120.173
X-3.918 Y122.281
X-3.906 Y122.343
X-3.877 Y122.398
X-3.838 Y122.434
X-3.79 Y122.456
X-3.74 Y122.461
X-3.691 Y122.45
X-3.637 Y122.417
X-3.596 Y122.37
Z4.
G0 Z10.
X-3.736 Y122.24
Z4.
G1 Z-1. F216.
X-3.831 Y121.058 F649.
X-3.04 Y121.278
X-3.727 Y122.242
Z4.
G0 Z10.
X-4.987 Y122.002
Z4.
G1 Z-1. F216.
X-4.16 Y120.125 F649.
X-4.145 Y120.049
X-4.159 Y120.015
X-4.184 Y119.983
X-4.243 Y119.954
X-4.304 Y119.972
X-4.551 Y120.126
X-6.12 Y121.224
X-5.387 Y119.559
X-5.376 Y119.518
X-5.382 Y119.475
X-5.401 Y119.445
X-5.43 Y119.425
X-5.466 Y119.419
X-5.501 Y119.426
X-5.534 Y119.45
X-5.556 Y119.485
X-6.376 Y121.349
X-6.388 Y121.389
X-6.39 Y121.427
X-6.372 Y121.461
X-6.343 Y121.491
X-6.269 Y121.514
X-6.195 Y121.489
X-6.045 Y121.395
X-4.414 Y120.244
X-5.156 Y121.928
X-5.163 Y121.961
X-5.156 Y121.995
X-5.133 Y122.019
X-5.104 Y122.037
X-5.071 Y122.046
X-5.037 Y122.044
X-5.006 Y122.029
X-4.987 Y122.002
Z4.
G0 Z10.
X-6.679 Y120.725
Z4.
G1 Z-1. F216.
X-6.591 Y120.67 F649.
X-6.51 Y120.608
X-6.369 Y120.458
X-6.244 Y120.29
X-6.143 Y120.107
X-6.065 Y119.918
X-6.042 Y119.819
X-6.029 Y119.717
X-6.018 Y119.508
X-6.067 Y119.297
X-6.102 Y119.198
X-6.15 Y119.107
X-6.212 Y119.025
X-6.287 Y118.95
X-6.455 Y118.812
X-6.65 Y118.715
X-6.749 Y118.678
X-6.85 Y118.655
X-6.953 Y118.649
X-7.058 Y118.658
X-7.272 Y118.7
X-7.456 Y118.798
X-7.542 Y118.852
X-7.622 Y118.915
X-7.762 Y119.064
X-7.886 Y119.232
X-7.987 Y119.415
X-8.066 Y119.604
X-8.105 Y119.805
X-8.118 Y120.013
X-8.067 Y120.224
X-8.032 Y120.323
X-7.984 Y120.414
X-7.921 Y120.496
X-7.846 Y120.571
X-7.677 Y120.708
X-7.483 Y120.805
X-7.384 Y120.842
X-7.284 Y120.865
X-7.181 Y120.871
X-7.077 Y120.862
X-6.864 Y120.821
X-6.679 Y120.725
Z4.
G0 Z10.
X-7.59 Y120.573
Z4.
G1 Z-1. F216.
X-7.729 Y120.46 F649.
X-7.79 Y120.398
X-7.841 Y120.331
X-7.88 Y120.255
X-7.907 Y120.173
X-7.945 Y119.999
X-7.93 Y119.82
X-7.892 Y119.648
X-7.822 Y119.486
X-7.733 Y119.33
X-7.627 Y119.185
X-7.509 Y119.054
X-7.368 Y118.949
X-7.212 Y118.861
X-7.037 Y118.823
X-6.951 Y118.815
X-6.867 Y118.819
X-6.784 Y118.837
X-6.703 Y118.868
X-6.542 Y118.948
X-6.404 Y119.061
X-6.343 Y119.122
X-6.291 Y119.19
X-6.253 Y119.265
X-6.225 Y119.347
X-6.187 Y119.522
X-6.202 Y119.7
X-6.238 Y119.873
X-6.308 Y120.035
X-6.396 Y120.192
X-6.502 Y120.337
X-6.622 Y120.468
X-6.764 Y120.572
X-6.921 Y120.659
X-7.095 Y120.697
X-7.181 Y120.705
X-7.265 Y120.701
X-7.348 Y120.683
X-7.43 Y120.652
X-7.59 Y120.573
Z4.
G0 Z10.
X-8.719 Y119.844
Z4.
G1 Z-1. F216.
X-7.43 Y118.231 F649.
X-7.411 Y118.197
X-7.409 Y118.158
X-7.42 Y118.126
X-7.442 Y118.101
X-7.472 Y118.084
X-7.507 Y118.079
X-7.543 Y118.092
X-7.571 Y118.117
X-8.861 Y119.731
X-8.881 Y119.765
X-8.886 Y119.804
X-8.874 Y119.837
X-8.851 Y119.863
X-8.821 Y119.879
X-8.788 Y119.883
X-8.749 Y119.871
X-8.719 Y119.844
Z4.
G0 Z10.
X-9.104 Y119.506
Z4.
G1 Z-1. F216.
X-9.088 Y119.479 F649.
X-9.085 Y119.447
X-9.095 Y119.41
X-9.118 Y119.38
X-9.551 Y118.972
X-8.214 Y117.551
X-8.194 Y117.52
X-8.189 Y117.482
X-8.198 Y117.45
X-8.218 Y117.423
X-8.247 Y117.403
X-8.281 Y117.396
X-8.317 Y117.405
X-8.346 Y117.427
X-9.684 Y118.848
X-10.136 Y118.422
X-10.164 Y118.406
X-10.192 Y118.401
X-10.243 Y118.433
X-10.273 Y118.487
X-10.266 Y118.514
X-10.248 Y118.541
X-9.231 Y119.499
X-9.2 Y119.521
X-9.164 Y119.53
X-9.131 Y119.525
X-9.104 Y119.506
Z4.
G0 Z10.
X-9.788 Y117.425
Z4.
G1 Z-1. F216.
X-8.789 Y117.078 F649.
X-8.753 Y117.057
X-8.727 Y117.024
X-8.719 Y116.991
X-8.725 Y116.958
X-8.743 Y116.927
X-8.772 Y116.905
X-8.813 Y116.898
X-8.855 Y116.905
X-9.539 Y117.147
X-10.134 Y116.418
X-9.764 Y115.794
X-9.749 Y115.753
Y115.71
X-9.762 Y115.678
X-9.787 Y115.654
X-9.821 Y115.641
X-9.857 Y115.643
X-9.894 Y115.663
X-9.918 Y115.697
X-10.998 Y117.514
X-11.025 Y117.572
X-11.033 Y117.634
X-11.022 Y117.686
X-10.995 Y117.731
X-10.957 Y117.764
X-10.911 Y117.783
X-10.848 Y117.788
X-10.787 Y117.773
X-9.788 Y117.425
Z4.
G0 Z10.
X-10.826 Y117.586
Z4.
G1 Z-1. F216.
X-10.222 Y116.566 F649.
X-9.703 Y117.201
X-10.821 Y117.593
Z4.
G0 Z10.
X-11.71 Y116.67
Z4.
G1 Z-1. F216.
X-9.953 Y115.613 F649.
X-9.897 Y115.56
X-9.888 Y115.524
X-9.891 Y115.484
X-9.921 Y115.426
X-9.982 Y115.405
X-10.272 Y115.389
X-12.188 Y115.381
X-10.628 Y114.444
X-10.595 Y114.416
X-10.576 Y114.378
X-10.574 Y114.342
X-10.586 Y114.309
X-10.612 Y114.284
X-10.644 Y114.269
X-10.686 Y114.27
X-10.723 Y114.286
X-12.469 Y115.334
X-12.502 Y115.361
X-12.525 Y115.391
X-12.53 Y115.429
X-12.524 Y115.47
X-12.476 Y115.531
X-12.402 Y115.554
X-12.225 Y115.564
X-10.229
X-11.806 Y116.512
X-11.831 Y116.534
X-11.845 Y116.566
X-11.84 Y116.599
X-11.827 Y116.63
X-11.805 Y116.657
X-11.776 Y116.675
X-11.743 Y116.681
X-11.71 Y116.67
Z4.
G0 Z10.
X-13.181 Y113.837
Z4.
G1 Z-1. F216.
X-11.877 Y113.415 F649.
X-11.739 Y113.357
X-11.613 Y113.284
X-11.507 Y113.184
X-11.413 Y113.068
X-11.347 Y112.911
X-11.323 Y112.832
X-11.311 Y112.752
Y112.67
X-11.321 Y112.588
X-11.357 Y112.422
X-11.425 Y112.264
X-11.465 Y112.191
X-11.513 Y112.125
X-11.57 Y112.067
X-11.636 Y112.016
X-11.782 Y111.928
X-11.926 Y111.888
X-12.07 Y111.87
X-12.215 Y111.884
X-12.361 Y111.918
X-13.654 Y112.336
X-13.689 Y112.353
X-13.713 Y112.383
X-13.721 Y112.417
X-13.716 Y112.451
X-13.701 Y112.481
X-13.677 Y112.504
X-13.639 Y112.515
X-13.598 Y112.509
X-12.302 Y112.09
X-12.188 Y112.062
X-12.074 Y112.05
X-11.96 Y112.062
X-11.846 Y112.09
X-11.732 Y112.158
X-11.636 Y112.242
X-11.567 Y112.35
X-11.514 Y112.472
X-11.485 Y112.602
X-11.478 Y112.729
X-11.507 Y112.853
X-11.561 Y112.974
X-11.636 Y113.063
X-11.721 Y113.14
X-11.821 Y113.196
X-11.93 Y113.241
X-13.243 Y113.666
X-13.273 Y113.682
X-13.293 Y113.71
X-13.297 Y113.743
X-13.29 Y113.776
X-13.274 Y113.806
X-13.249 Y113.828
X-13.216 Y113.841
X-13.181 Y113.837
Z4.
G0 Z10.
X-13.751 Y111.878
Z4.
G1 Z-1. F216.
X-12.203 Y111.581 F649.
X-12.097 Y111.55
X-11.998 Y111.506
X-11.913 Y111.44
X-11.836 Y111.361
X-11.776 Y111.253
X-11.736 Y111.141
X-11.729 Y111.021
X-11.741 Y110.898
X-11.775 Y110.779
X-11.826 Y110.67
X-11.904 Y110.579
X-11.999 Y110.5
X-12.095 Y110.457
X-12.193 Y110.429
X-12.295 Y110.424
X-12.399 Y110.434
X-12.437 Y110.447
X-12.467 Y110.474
X-12.478 Y110.507
X-12.477 Y110.541
X-12.468 Y110.573
X-12.448 Y110.599
X-12.418 Y110.616
X-12.382
X-12.304 Y110.607
X-12.227 Y110.608
X-12.152 Y110.626
X-12.079 Y110.656
X-12.014 Y110.71
X-11.96 Y110.772
X-11.925 Y110.847
X-11.902 Y110.929
X-11.893 Y111.013
X-11.898 Y111.095
X-11.925 Y111.172
X-11.966 Y111.246
X-12.028 Y111.304
X-12.097 Y111.351
X-12.175 Y111.382
X-12.258 Y111.403
X-13.786 Y111.697
X-13.823 Y111.71
X-13.853 Y111.737
X-13.864 Y111.769
X-13.863 Y111.804
X-13.851 Y111.837
X-13.828 Y111.863
X-13.791 Y111.879
X-13.751 Y111.878
Z4.
G0 Z10.
X-13.967 Y110.509
Z4.
G1 Z-1. F216.
X-13.937 Y110.501 F649.
X-13.913 Y110.482
X-13.895 Y110.449
X-13.891 Y110.413
X-13.968 Y109.378
X-13.963 Y109.323
X-13.935 Y109.276
X-13.894 Y109.25
X-13.846 Y109.24
X-13.186 Y109.191
X-13.107 Y110.252
X-13.099 Y110.289
X-13.079 Y110.32
X-13.051 Y110.336
X-13.019 Y110.339
X-12.989 Y110.331
X-12.965 Y110.311
X-12.947 Y110.278
X-12.944 Y110.239
X-13.022 Y109.179
X-12.283 Y109.124
X-12.236 Y109.127
X-12.193 Y109.147
X-12.158 Y109.189
X-12.145 Y109.243
X-12.066 Y110.315
X-12.058 Y110.352
X-12.037 Y110.384
X-12.009 Y110.399
X-11.977 Y110.403
X-11.947 Y110.394
X-11.923 Y110.375
X-11.905 Y110.341
X-11.902 Y110.303
X-11.984 Y109.199
X-12.012 Y109.085
X-12.045 Y109.038
X-12.087 Y108.995
X-12.181 Y108.95
X-12.285 Y108.942
X-13.871 Y109.06
X-13.974 Y109.083
X-14.062 Y109.141
X-14.097 Y109.19
X-14.123 Y109.241
X-14.134 Y109.358
X-14.055 Y110.425
X-14.047 Y110.46
X-14.027 Y110.49
X-13.999 Y110.506
X-13.967 Y110.509
Z4.
G0 Z10.
X-14.101 Y108.626
Z4.
G1 Z-1. F216.
X-12.526 Y108.691 F649.
X-12.416 Y108.686
X-12.31 Y108.666
X-12.212 Y108.621
X-12.119 Y108.562
X-12.035 Y108.471
X-11.971 Y108.371
X-11.936 Y108.256
X-11.919 Y108.133
X-11.926 Y108.009
X-11.95 Y107.892
X-12.005 Y107.786
X-12.079 Y107.687
X-12.163 Y107.623
X-12.252 Y107.572
X-12.35 Y107.545
X-12.454 Y107.53
X-12.494 Y107.534
X-12.528 Y107.554
X-12.547 Y107.583
X-12.554 Y107.617
X-12.553 Y107.65
X-12.539 Y107.679
X-12.514 Y107.703
X-12.479 Y107.711
X-12.401 Y107.72
X-12.326 Y107.739
X-12.258 Y107.774
X-12.193 Y107.82
X-12.142 Y107.888
X-12.104 Y107.96
X-12.087 Y108.041
X-12.083 Y108.126
X-12.094 Y108.21
X-12.118 Y108.289
X-12.161 Y108.357
X-12.219 Y108.42
X-12.293 Y108.462
X-12.37 Y108.492
X-12.453 Y108.504
X-12.539 Y108.506
X-14.093 Y108.441
X-14.133 Y108.445
X-14.167 Y108.464
X-14.186 Y108.494
X-14.193 Y108.528
X-14.189 Y108.563
X-14.173 Y108.593
X-14.141 Y108.617
X-14.101 Y108.626
Z4.
G0 Z10.
X-20. Y109.
Z4.
G1 Z-1. F216.
Y112. F649.
X-97.
Y-118.
X97.
Y112.
X20.
Y109.
X94.
Y-115.
X-94.
Y109.
X-20.
Z4.
G0 Z10.
X8.746 Y96.668
Z4.
G1 Z-1. F216.
X8.708 Y96.654 F649.
X8.667 Y96.657
X8.626 Y96.678
X8.597 Y96.714
X8.322 Y97.193
X8.29 Y97.237
X8.244 Y97.263
X8.184 Y97.26
X8.129 Y97.236
X6.482 Y96.294
X6.442 Y96.279
X6.406 Y96.277
X6.375 Y96.296
X6.348 Y96.328
X6.335 Y96.367
X6.334 Y96.402
X6.355 Y96.431
X6.388 Y96.457
X8.039 Y97.401
X8.169 Y97.457
X8.31 Y97.467
X8.37 Y97.445
X8.423 Y97.414
X8.502 Y97.317
X8.787 Y96.818
X8.802 Y96.774
X8.797 Y96.727
X8.777 Y96.692
X8.746 Y96.668
Z4.
G0 Z10.
X8.015 Y97.866
Z4.
G1 Z-1. F216.
X7.975 Y97.869 F649.
X7.934 Y97.888
X7.906 Y97.922
X7.174 Y99.202
X7.161 Y99.244
Y99.282
X7.183 Y99.313
X7.218 Y99.341
X7.26 Y99.358
X7.299 Y99.361
X7.332 Y99.343
X7.363 Y99.31
X7.754 Y98.625
X8.103 Y98.825
X8.141 Y98.838
X8.175 Y98.84
X8.205 Y98.822
X8.231 Y98.792
X8.245 Y98.753
X8.246 Y98.718
X8.227 Y98.688
X8.196 Y98.661
X7.847 Y98.462
X8.094 Y98.03
X8.109 Y97.987
X8.102 Y97.942
X8.084 Y97.906
X8.053 Y97.88
X8.015 Y97.866
Z4.
G0 Z10.
X7.076 Y98.574
Z4.
G1 Z-1. F216.
X7.074 Y98.538 F649.
X7.055 Y98.5
X7.022 Y98.474
X5.493 Y97.6
X5.453 Y97.585
X5.416 Y97.582
X5.385 Y97.6
X5.356 Y97.632
X5.344 Y97.672
X5.345 Y97.707
X5.367 Y97.737
X5.4 Y97.763
X6.922 Y98.633
X6.962 Y98.65
X7.005 Y98.651
X7.039 Y98.636
X7.064 Y98.608
X7.076 Y98.574
Z4.
G0 Z10.
X6.522 Y98.707
Z4.
G1 Z-1. F216.
X6.503 Y98.677 F649.
X6.471 Y98.651
X5.626 Y98.168
X5.586 Y98.153
X5.549 Y98.15
X5.518 Y98.169
X5.489 Y98.2
X5.477 Y98.24
X5.478 Y98.276
X5.5 Y98.305
X5.533 Y98.331
X6.371 Y98.81
X6.41 Y98.826
X6.447 Y98.829
X6.478 Y98.812
X6.506 Y98.782
X6.521 Y98.743
X6.522 Y98.707
Z4.
G0 Z10.
X6.655 Y98.036
Z4.
G1 Z-1. F216.
X6.818 Y98.07 F649.
X6.986 Y98.084
X7.094 Y98.068
X7.193 Y98.036
X7.275 Y97.973
X7.346 Y97.891
X7.378 Y97.79
X7.389 Y97.689
X7.367 Y97.589
X7.326 Y97.489
X7.229 Y97.351
X7.119 Y97.226
X6.988 Y97.123
X6.845 Y97.032
X6.692 Y96.954
X6.535 Y96.892
X6.37 Y96.859
X6.2 Y96.846
X6.094 Y96.861
X5.996 Y96.893
X5.915 Y96.953
X5.843 Y97.032
X5.809 Y97.135
X5.797 Y97.238
X5.819 Y97.339
X5.86 Y97.44
X5.959 Y97.579
X6.072 Y97.704
X6.205 Y97.807
X6.349 Y97.898
X6.5 Y97.975
X6.655 Y98.036
Z4.
G0 Z10.
X6.441 Y97.739
Z4.
G1 Z-1. F216.
X6.333 Y97.672 F649.
X6.232 Y97.597
X6.144 Y97.509
X6.063 Y97.412
X6.03 Y97.346
X6.009 Y97.279
X6.013 Y97.21
X6.032 Y97.14
X6.082 Y97.089
X6.138 Y97.054
X6.205 Y97.04
X6.277 Y97.038
X6.402 Y97.058
X6.523 Y97.09
X6.638 Y97.139
X6.75 Y97.198
X6.856 Y97.264
X6.955 Y97.337
X7.042 Y97.424
X7.121 Y97.521
X7.156 Y97.584
X7.178 Y97.648
X7.176 Y97.715
X7.158 Y97.784
X7.107 Y97.836
X7.049 Y97.874
X6.981 Y97.89
X6.907 Y97.895
X6.784 Y97.876
X6.665 Y97.845
X6.551 Y97.797
X6.441 Y97.739
Z4.
G0 Z10.
X4.431 Y100.292
Z4.
G1 Z-1. F216.
X4. Y100. F649.
X3.511 Y99.774
X3.007 Y99.581
X2.492 Y99.422
X1.968 Y99.298
X1.436 Y99.209
X0.9 Y99.155
X0.361 Y99.137
X-0.177 Y99.155
X-0.714 Y99.209
X-1.245 Y99.298
X-1.77 Y99.422
X-2.285 Y99.581
X-2.788 Y99.774
X-3.278 Y100.
X-2.851 Y99.818
X-2.411 Y99.671
X-1.961 Y99.559
X-1.503 Y99.485
X-1.041 Y99.448
X-0.577
X-0.115 Y99.486
X0.343 Y99.561
X0.793 Y99.672
X1.233 Y99.82
X1.659 Y100.003
X2.07 Y100.219
X2.461 Y100.468
X2.831 Y100.748
X3.177 Y101.056
X3.497 Y101.392
X3.789 Y101.752
X3.981 Y102.08
X4.149 Y102.42
X4.292 Y102.771
X4.409 Y103.132
X4.5 Y103.5
Y112.5
X7.181
X7.178 Y104.574
X7.054 Y104.068
X6.894 Y103.573
X6.698 Y103.091
X6.467 Y102.625
X6.202 Y102.177
X5.905 Y101.75
X5.578 Y101.346
X5.222 Y100.967
X4.839 Y100.615
X4.431 Y100.292
Z4.
G0 Z10.
X2.073 Y100.5
Z4.
G1 Z-1. F216.
X1.214 F649.
X1.218 Y100.556
X1.233 Y100.611
X1.278 Y100.702
X1.338 Y100.784
X1.438 Y100.887
X1.547 Y100.981
X1.697 Y101.11
X1.833 Y101.256
X1.886 Y101.346
X1.907 Y101.448
X1.891 Y101.535
X1.84 Y101.608
X1.758 Y101.658
X1.663 Y101.673
X1.563 Y101.658
X1.478 Y101.604
X1.424 Y101.516
X1.408 Y101.412
X1.244 Y101.429
X1.257 Y101.508
X1.28 Y101.582
X1.32 Y101.648
X1.371 Y101.709
X1.438 Y101.752
X1.509 Y101.784
X1.586 Y101.8
X1.666 Y101.805
X1.747 Y101.799
X1.825 Y101.783
X1.896 Y101.748
X1.962 Y101.702
X2.009 Y101.645
X2.045 Y101.585
X2.063 Y101.517
X2.072 Y101.444
X2.063 Y101.366
X2.04 Y101.291
X1.993 Y101.207
X1.934 Y101.132
X1.814 Y101.014
X1.688 Y100.903
X1.503 Y100.74
X1.436 Y100.653
X2.073
Y100.5
Z4.
G0 Z10.
X1.079 Y100.858
Z4.
G1 Z-1. F216.
X1.062 Y100.779 F649.
X1.028 Y100.706
X0.983 Y100.636
X0.911 Y100.568
X0.832 Y100.516
X0.741 Y100.489
X0.642 Y100.478
X0.563 Y100.484
X0.488 Y100.5
X0.418 Y100.533
X0.353 Y100.577
X0.303 Y100.634
X0.263 Y100.696
X0.239 Y100.766
X0.224 Y100.841
X0.392 Y100.855
X0.419 Y100.755
X0.478 Y100.671
X0.554 Y100.624
X0.642 Y100.609
X0.749 Y100.631
X0.837 Y100.696
X0.899 Y100.803
X0.917 Y100.927
X0.9 Y101.042
X0.84 Y101.142
X0.748 Y101.203
X0.639 Y101.221
X0.567 Y101.213
X0.5 Y101.186
X0.446 Y101.147
X0.403 Y101.095
X0.253 Y101.115
X0.379 Y101.782
X1.025
Y101.63
X0.506
X0.436 Y101.28
X0.553 Y101.34
X0.682 Y101.362
X0.762 Y101.353
X0.838 Y101.333
X0.906 Y101.294
X0.969 Y101.244
X1.02 Y101.177
X1.059 Y101.105
X1.078 Y101.025
X1.086 Y100.941
X1.079 Y100.858
Z4.
G0 Z10.
X0.059 Y100.976
Z4.
G1 Z-1. F216.
X0.015 Y100.78 F649.
X-0.048 Y100.655
X-0.146 Y100.555
X-0.265 Y100.496
X-0.396 Y100.478
X-0.529 Y100.497
X-0.646 Y100.563
X-0.726 Y100.67
X-0.762 Y100.801
X-0.608 Y100.815
X-0.584 Y100.73
X-0.534 Y100.658
X-0.468 Y100.62
X-0.393 Y100.609
X-0.326 Y100.617
X-0.264 Y100.643
X-0.213 Y100.682
X-0.173 Y100.733
X-0.137 Y100.806
X-0.113 Y100.885
X-0.095 Y100.982
X-0.09 Y101.08
Y101.112
X-0.148 Y101.042
X-0.221 Y100.988
X-0.308 Y100.953
X-0.401 Y100.941
X-0.478 Y100.95
X-0.55 Y100.97
X-0.614 Y101.008
X-0.674 Y101.058
X-0.723 Y101.127
X-0.76 Y101.201
X-0.778 Y101.281
X-0.786 Y101.366
X-0.778 Y101.454
X-0.759 Y101.538
X-0.72 Y101.613
X-0.669 Y101.685
X-0.605 Y101.736
X-0.536 Y101.776
X-0.459 Y101.796
X-0.377 Y101.805
X-0.256 Y101.788
X-0.145 Y101.737
X-0.051 Y101.652
X0.015 Y101.542
X0.06 Y101.362
X0.069 Y101.177
X0.059 Y100.976
Z4.
G0 Z10.
X-0.547 Y101.159
Z4.
G1 Z-1. F216.
X-0.462 Y101.101 F649.
X-0.362 Y101.082
X-0.262 Y101.101
X-0.18 Y101.159
X-0.123 Y101.26
X-0.108 Y101.374
X-0.124 Y101.491
X-0.181 Y101.592
X-0.26 Y101.652
X-0.357 Y101.673
X-0.459 Y101.65
X-0.543 Y101.586
X-0.604 Y101.481
X-0.622 Y101.361
X-0.604 Y101.252
X-0.547 Y101.159
Z4.
G0 Z10.
X0.084 Y102.3
Z4.
G1 Z-1. F216.
X-1.285 F649.
Y104.1
X0.05
Y103.795
X-0.922
Y103.396
X-0.018
Y103.093
X-0.922
Y102.603
X0.084
Y102.3
Z4.
G0 Z10.
X-1.297 Y101.805
Z4.
G1 Z-1. F216.
X-1.194 F649.
Y100.5
X-1.354
Y101.517
X-1.427 Y101.458
X-1.505 Y101.407
X-1.673 Y101.325
Y101.479
X-1.551 Y101.547
X-1.439 Y101.632
X-1.36 Y101.712
X-1.297 Y101.805
Z4.
G0 Z10.
X-2. Y100.
Z4.
G1 Z-1. F216.
X-2.416 Y100.36 F649.
X-2.806 Y100.748
X-3.168 Y101.162
X-3.5 Y101.6
X-3.652 Y101.843
X-3.775 Y102.101
X-3.868 Y102.372
X-3.93 Y102.651
X-3.96 Y102.936
X-3.958 Y103.222
X-3.924 Y103.506
X-3.858 Y103.785
X-3.719 Y104.252
X-3.547 Y104.709
X-3.343 Y105.152
X-3.108 Y105.58
X-2.843 Y105.99
X-2.55 Y106.38
X-2.23 Y106.749
X-1.884 Y107.094
X-1.515 Y107.413
X-1.124 Y107.705
X-0.712 Y108.015
X-0.325 Y108.357
X0.034 Y108.727
X0.364 Y109.123
X0.661 Y109.544
X0.926 Y109.987
X1.155 Y110.449
X1.348 Y110.927
X1.504 Y111.419
X1.621 Y111.921
X1.699 Y112.431
X1.737 Y112.946
X1.735 Y113.461
X1.693 Y113.975
X1.612 Y114.485
X1.491 Y114.986
X1.333 Y115.477
X1.136 Y115.954
X0.904 Y116.414
X0.636 Y116.855
X0.335 Y117.274
X0.003 Y117.668
X-0.359 Y118.036
X-0.155 Y117.561
X0.014 Y117.071
X0.145 Y116.571
X0.239 Y116.062
X0.295 Y115.547
X0.313 Y115.03
X0.292 Y114.513
X0.233 Y113.999
X0.136 Y113.491
X0.001 Y112.991
X-0.17 Y112.503
X-0.377 Y112.029
X-0.618 Y111.571
X-0.893 Y111.133
X-1.2 Y110.716
X-1.537 Y110.323
X-1.902 Y109.956
X-2.293 Y109.618
X-2.709 Y109.309
X-3.069 Y108.992
X-3.404 Y108.649
X-3.711 Y108.281
X-3.99 Y107.891
X-4.237 Y107.48
X-4.453 Y107.052
X-4.634 Y106.608
X-4.782 Y106.152
X-4.893 Y105.685
X-4.969 Y105.212
X-5.008 Y104.734
X-5.01 Y104.254
X-4.958 Y103.837
X-4.871 Y103.426
X-4.752 Y103.023
X-4.6 Y102.631
X-4.416 Y102.253
X-4.202 Y101.891
X-3.959 Y101.548
X-3.689 Y101.226
X-3.394 Y100.927
X-3.075 Y100.653
X-2.735 Y100.407
X-2.376 Y100.188
X-2. Y100.
Z4.
G0 Z10.
X-3.107 Y109.82
Z4.
G1 Z-1. F216.
X-2.689 Y110.26 F649.
X-2.293 Y110.718
X-2.004 Y111.098
X-1.746 Y111.5
X-1.522 Y111.922
X-1.333 Y112.36
X-1.18 Y112.812
X-1.063 Y113.275
X-0.985 Y113.746
X-0.945 Y114.222
X-0.944 Y114.699
X-0.981 Y115.175
X-1.056 Y115.646
X-1.169 Y116.11
X-1.32 Y116.563
X-1.506 Y117.002
X-1.728 Y117.425
X-1.982 Y117.829
X-2.269 Y118.211
X-2.586 Y118.568
X-2.93 Y118.898
X-3.3 Y119.2
X-3.012 Y118.776
X-2.757 Y118.332
X-2.538 Y117.869
X-2.354 Y117.391
X-2.207 Y116.9
X-2.098 Y116.4
X-2.027 Y115.892
X-1.996 Y115.381
X-2.003 Y114.869
X-2.05 Y114.359
X-2.136 Y113.854
X-2.26 Y113.357
X-2.421 Y112.871
X-2.62 Y112.398
X-2.853 Y111.942
X-3.121 Y111.506
X-3.422 Y111.091
X-3.753 Y110.7
X-4.113 Y110.336
X-4.5 Y110.
X-4.823 Y109.609
X-5.114 Y109.194
X-5.372 Y108.758
X-5.595 Y108.303
X-5.782 Y107.832
X-5.932 Y107.347
X-6.043 Y106.853
X-6.115 Y106.351
X-6.148 Y105.845
X-6.141 Y105.338
X-6.095 Y104.833
X-6.009 Y104.334
X-5.885 Y103.842
X-5.722 Y103.362
X-5.523 Y102.896
X-5.288 Y102.447
X-5.018 Y102.018
X-4.716 Y101.611
X-4.382 Y101.229
X-4.02 Y100.874
X-3.632 Y100.548
X-3.219 Y100.254
X-3.589 Y100.576
X-3.932 Y100.926
X-4.246 Y101.303
X-4.528 Y101.704
X-4.778 Y102.127
X-4.992 Y102.568
X-5.17 Y103.025
X-5.31 Y103.494
X-5.413 Y103.974
X-5.476 Y104.46
X-5.5 Y104.95
X-5.484 Y105.44
X-5.429 Y105.928
X-5.335 Y106.409
X-5.202 Y106.881
X-5.032 Y107.341
X-4.825 Y107.786
X-4.583 Y108.212
X-4.307 Y108.618
X-4. Y109.
X-3.544 Y109.4
X-3.107 Y109.82
Z4.
G0 Z10.
X-5.094 Y110.334
Z4.
G1 Z-1. F216.
X-4.778 Y110.744 F649.
X-4.49 Y111.046
X-4.229 Y111.373
X-3.999 Y111.722
X-3.801 Y112.09
X-3.636 Y112.474
X-3.507 Y112.872
X-3.414 Y113.279
X-3.358 Y113.693
X-3.34 Y114.111
X-3.359 Y114.529
X-3.415 Y114.943
X-3.508 Y115.35
X-3.637 Y115.748
X-3.802 Y116.132
X-4. Y116.5
X-3.948 Y116.035
X-3.93 Y115.568
X-3.946 Y115.1
X-3.997 Y114.635
X-4.082 Y114.175
X-4.201 Y113.722
X-4.352 Y113.28
X-4.536 Y112.849
X-4.75 Y112.434
X-4.995 Y112.035
X-5.268 Y111.655
X-5.569 Y111.296
X-5.883 Y110.844
X-6.164 Y110.37
X-6.41 Y109.878
X-6.621 Y109.369
X-6.794 Y108.846
X-6.931 Y108.312
X-7.028 Y107.77
X-7.087 Y107.223
X-7.107 Y106.672
X-7.087 Y106.122
X-7.029 Y105.574
X-6.931 Y105.032
X-6.795 Y104.499
X-6.622 Y103.976
X-6.411 Y103.467
X-6.165 Y102.974
X-5.884 Y102.5
X-5.571 Y102.048
X-4.367 Y100.886
X-4.728 Y101.257
X-5.06 Y101.653
X-5.363 Y102.073
X-5.633 Y102.514
X-5.869 Y102.974
X-6.071 Y103.451
X-6.237 Y103.941
X-6.365 Y104.442
X-6.457 Y104.951
X-6.51 Y105.466
X-6.524 Y105.983
X-6.5 Y106.5
X-6.441 Y107.013
X-6.347 Y107.521
X-6.219 Y108.022
X-6.058 Y108.513
X-5.864 Y108.992
X-5.638 Y109.456
X-5.38 Y109.904
X-5.094 Y110.334
Z4.
G0 Z10.
X-2.034 Y104.1
Z4.
G1 Z-1. F216.
X-1.672 F649.
Y102.961
X-1.679 Y102.787
X-1.711 Y102.617
X-1.786 Y102.475
X-1.903 Y102.364
X-1.989 Y102.321
X-2.078 Y102.289
X-2.269 Y102.269
X-2.382 Y102.278
X-2.49 Y102.301
X-2.588 Y102.351
X-2.679 Y102.418
X-2.745 Y102.517
X-2.794 Y102.622
X-2.816 Y102.737
X-2.824 Y102.856
X-2.481 Y102.895
X-2.471 Y102.783
X-2.436 Y102.677
X-2.4 Y102.635
X-2.36 Y102.603
X-2.31 Y102.587
X-2.256 Y102.58
X-2.161 Y102.594
X-2.084 Y102.649
X-2.04 Y102.789
X-2.034 Y102.937
Y104.1
Z4.
G0 Z10.
X0.252 Y102.856
Z4.
G1 Z-1. F216.
X0.595 Y102.895 F649.
X0.605 Y102.783
X0.64 Y102.677
X0.675 Y102.635
X0.716 Y102.603
X0.765 Y102.587
X0.819 Y102.58
X0.914 Y102.594
X0.991 Y102.649
X1.036 Y102.789
X1.042 Y102.937
Y104.1
X1.404
Y102.961
X1.397 Y102.787
X1.365 Y102.617
X1.29 Y102.475
X1.173 Y102.364
X1.087 Y102.321
X0.998 Y102.289
X0.807 Y102.269
X0.694 Y102.278
X0.586 Y102.301
X0.488 Y102.351
X0.397 Y102.418
X0.331 Y102.517
X0.282 Y102.622
X0.26 Y102.737
X0.252 Y102.856
Z4.
G0 Z10.
X1.788 Y104.1
Z4.
G1 Z-1. F216.
X2.152 F649.
Y103.125
X2.153 Y102.974
X2.165 Y102.824
X2.204 Y102.725
X2.276 Y102.647
X2.39 Y102.594
X2.516 Y102.58
X2.639 Y102.592
X2.75 Y102.643
X2.812 Y102.712
X2.844 Y102.798
X2.858 Y102.951
X2.86 Y103.104
Y104.1
X3.224
Y103.155
X3.219 Y102.925
X3.194 Y102.697
X3.154 Y102.577
X3.085 Y102.471
X2.988 Y102.385
X2.874 Y102.324
X2.703 Y102.28
X2.527 Y102.269
X2.329 Y102.28
X2.136 Y102.329
X2.022 Y102.394
X1.926 Y102.484
X1.863 Y102.578
X1.824 Y102.683
X1.794 Y102.91
X1.788 Y103.14
Y104.1
Z4.
G0 Z10.
X1.473 Y97.026
Z4.
G1 Z-1. F216.
X1.517 Y97.019 F649.
X1.551 Y97.003
X1.569 Y96.97
X1.578 Y96.928
X1.525 Y94.052
X1.515 Y94.009
X1.487 Y93.975
X1.455 Y93.954
X1.416 Y93.947
X1.377 Y93.954
X1.343 Y93.974
X1.319 Y94.009
X1.311 Y94.052
X1.336 Y95.385
X0.817 Y95.395
X0.792 Y94.069
X0.782 Y94.023
X0.754 Y93.985
X0.719 Y93.966
X0.68 Y93.961
X0.641 Y93.967
X0.607 Y93.988
X0.582 Y94.027
X0.575 Y94.073
X0.628 Y96.946
X0.639 Y96.988
X0.659 Y97.019
X0.693 Y97.034
X0.737 Y97.039
X0.781 Y97.033
X0.816 Y97.017
X0.836 Y96.985
X0.846 Y96.942
X0.82 Y95.575
X1.34 Y95.566
X1.365 Y96.932
X1.375 Y96.974
X1.395 Y97.006
X1.43 Y97.021
X1.473 Y97.026
Z4.
G0 Z10.
X0.229 Y96.846
Z4.
G1 Z-1. F216.
X0.216 Y96.804 F649.
X0.195 Y96.773
X0.16 Y96.758
X0.116 Y96.753
X-0.72 Y96.768
X-0.78 Y96.761
X-0.831 Y96.73
X-0.859 Y96.674
X-0.866 Y96.612
X-0.902 Y94.701
X-0.899 Y94.621
X-0.871 Y94.546
X-0.793 Y94.503
X-0.703 Y94.495
X-0.416 Y94.503
X-0.131 Y94.539
X0.128 Y94.597
X0.38 Y94.681
X0.425 Y94.695
X0.472 Y94.69
X0.502 Y94.67
X0.519 Y94.638
X0.525 Y94.601
X0.514 Y94.564
X0.486 Y94.526
X0.447 Y94.499
X0.156 Y94.397
X-0.146 Y94.337
X-0.425 Y94.311
X-0.706 Y94.307
X-0.791 Y94.313
X-0.873 Y94.328
X-0.949 Y94.36
X-1.021 Y94.405
X-1.066 Y94.461
X-1.1 Y94.521
X-1.115 Y94.589
X-1.12 Y94.661
X-1.084 Y96.605
X-1.061 Y96.745
X-1.029 Y96.807
X-0.987 Y96.865
X-0.927 Y96.907
X-0.863 Y96.938
X-0.793 Y96.952
X-0.72 Y96.956
X0.12 Y96.94
X0.163 Y96.934
X0.198 Y96.919
X0.218 Y96.888
X0.229 Y96.846
Z4.
G0 Z10.
X-4.054 Y97.489
Z4.
G1 Z-1. F216.
X-4.066 Y97.451 F649.
X-4.09 Y97.419
X-4.119 Y97.399
X-4.153 Y97.398
X-4.192 Y97.41
X-5.153 Y97.918
X-5.213 Y97.804
X-5.26 Y97.639
X-5.273 Y97.557
Y97.476
X-5.258 Y97.395
X-5.233 Y97.315
X-5.163 Y97.157
X-5.034 Y96.967
X-4.888 Y96.795
X-4.715 Y96.65
X-4.525 Y96.519
X-4.49 Y96.493
X-4.468 Y96.455
X-4.466 Y96.418
X-4.481 Y96.383
X-4.507 Y96.356
X-4.541 Y96.34
X-4.585 Y96.337
X-4.627 Y96.352
X-4.814 Y96.483
X-4.989 Y96.627
X-5.141 Y96.795
X-5.28 Y96.977
X-5.358 Y97.115
X-5.419 Y97.258
X-5.449 Y97.41
X-5.459 Y97.567
X-5.595 Y97.486
X-5.738 Y97.425
X-5.891 Y97.394
X-6.05 Y97.38
X-6.273 Y97.391
X-6.493 Y97.422
X-6.706 Y97.483
X-6.916 Y97.563
X-6.957 Y97.59
X-6.983 Y97.632
X-6.992 Y97.672
X-6.983 Y97.711
X-6.962 Y97.742
X-6.931 Y97.763
X-6.88 Y97.768
X-6.832 Y97.752
X-6.624 Y97.67
X-6.411 Y97.608
X-6.192 Y97.584
X-5.968 Y97.582
X-5.796 Y97.614
X-5.715 Y97.638
X-5.64 Y97.672
X-5.572 Y97.717
X-5.511 Y97.774
X-5.4 Y97.907
X-5.341 Y98.018
X-6.295 Y98.522
X-6.329 Y98.548
X-6.351 Y98.577
Y98.613
X-6.339 Y98.654
X-6.311 Y98.685
X-6.28 Y98.703
X-6.244 Y98.701
X-6.204 Y98.687
X-4.104 Y97.576
X-4.073 Y97.551
X-4.054 Y97.523
Y97.489
Z4.
G0 Z10.
X-4.683 Y95.961
Z4.
G1 Z-1. F216.
X-4.65 Y95.936 F649.
X-4.628 Y95.907
X-4.626 Y95.872
X-4.635 Y95.831
X-4.661 Y95.799
X-4.69 Y95.779
X-4.725
X-4.765 Y95.792
X-5.947 Y96.417
X-6.406 Y95.548
X-6.436 Y95.511
X-6.479 Y95.49
X-6.517 Y95.485
X-6.554 Y95.496
X-6.586 Y95.52
X-6.607 Y95.554
X-6.611 Y95.6
X-6.597 Y95.644
X-6.135 Y96.517
X-7.317 Y97.142
X-7.349 Y97.167
X-7.369 Y97.196
X-7.368 Y97.231
X-7.354 Y97.27
X-7.325 Y97.3
X-7.293 Y97.318
X-7.256 Y97.315
X-7.216 Y97.301
X-4.683 Y95.961
Z4.
G0 Z10.
X-8.757 Y100.602
Z4.
G1 Z-1. F216.
X-11.096 Y98.946 F649.
X-11.139 Y98.926
X-11.186 Y98.927
X-11.223 Y98.94
X-11.251 Y98.967
X-11.268 Y99.004
X-11.269 Y99.044
X-11.252 Y99.087
X-11.219 Y99.12
X-8.884 Y100.774
X-8.844 Y100.792
X-8.801
X-8.765 Y100.775
X-8.738 Y100.747
X-8.721 Y100.712
X-8.718 Y100.675
X-8.728 Y100.633
X-8.757 Y100.602
Z4.
G0 Z10.
X-11.496 Y99.511
Z4.
G1 Z-1. F216.
X-11.539 Y99.491 F649.
X-11.587 Y99.492
X-11.624 Y99.507
X-11.653 Y99.535
X-11.672 Y99.573
X-11.674 Y99.615
X-11.657 Y99.658
X-11.624 Y99.691
X-10.4 Y100.558
X-10.688 Y100.963
X-10.708 Y101.005
X-10.71 Y101.052
X-10.699 Y101.086
X-10.676 Y101.112
X-10.642 Y101.127
X-10.604 Y101.126
X-10.564 Y101.109
X-10.533 Y101.077
X-10.244 Y100.668
X-9.288 Y101.345
X-9.249 Y101.364
X-9.206 Y101.363
X-9.169 Y101.345
X-9.14 Y101.315
X-9.12 Y101.281
X-9.116 Y101.242
X-9.125 Y101.201
X-9.154 Y101.169
X-11.496 Y99.511
Z4.
G0 Z10.
X-9.531 Y101.583
Z4.
G1 Z-1. F216.
X-9.559 Y101.555 F649.
X-9.594 Y101.539
X-9.628 Y101.533
X-9.659 Y101.547
X-9.688 Y101.572
X-9.982 Y101.987
X-10.508 Y101.614
X-10.723 Y101.443
X-10.922 Y101.257
X-11.094 Y101.046
X-11.249 Y100.819
X-11.336 Y100.645
X-11.409 Y100.467
X-11.459 Y100.28
X-11.495 Y100.089
X-11.507 Y100.045
X-11.54 Y100.012
X-11.578 Y100.
X-11.618 Y100.002
X-11.659 Y100.017
X-11.693 Y100.044
X-11.715 Y100.082
X-11.719 Y100.125
X-11.644 Y100.437
X-11.522 Y100.734
X-11.438 Y100.89
X-11.344 Y101.041
X-11.235 Y101.181
X-11.117 Y101.314
X-11.283 Y101.249
X-11.452 Y101.194
X-11.626 Y101.157
X-11.803 Y101.13
X-11.967 Y101.119
X-12.131
X-12.293 Y101.136
X-12.455 Y101.165
X-12.496 Y101.185
X-12.528 Y101.217
X-12.541 Y101.253
X-12.54 Y101.29
X-12.524 Y101.327
X-12.494 Y101.354
X-12.446 Y101.367
X-12.396 Y101.361
X-12.206 Y101.333
X-12.016 Y101.321
X-11.825 Y101.332
X-11.635 Y101.358
X-11.369 Y101.427
X-11.112 Y101.518
X-10.87 Y101.644
X-10.636 Y101.79
X-10.107 Y102.164
X-10.397 Y102.573
X-10.416 Y102.611
X-10.422 Y102.647
X-10.406 Y102.68
X-10.376 Y102.71
X-10.338 Y102.725
X-10.302 Y102.728
X-10.27 Y102.709
X-10.241 Y102.679
X-9.535 Y101.681
X-9.519 Y101.645
X-9.515 Y101.612
X-9.531 Y101.583
Z4.
G0 Z10.
X9.668 Y101.689
Z4.
G1 Z-1. F216.
X9.674 Y101.724 F649.
X9.691 Y101.762
X10.803 Y103.446
X10.907 Y103.568
X10.973 Y103.612
X11.046 Y103.648
X11.123 Y103.657
X11.197 Y103.653
X11.268 Y103.629
X11.336 Y103.593
X12.028 Y103.136
X12.247 Y102.963
X12.435 Y102.757
X12.568 Y102.573
X12.664 Y102.368
Y102.322
X12.653 Y102.283
X12.623 Y102.257
X12.582 Y102.237
X12.536 Y102.23
X12.497 Y102.237
X12.468 Y102.264
X12.446 Y102.305
X12.372 Y102.468
X12.273 Y102.617
X12.1 Y102.802
X11.9 Y102.956
X11.224 Y103.402
X11.151 Y103.433
X11.072 Y103.427
X10.998 Y103.384
X10.943 Y103.318
X9.848 Y101.658
X9.819 Y101.627
X9.787 Y101.609
X9.752 Y101.612
X9.713 Y101.628
X9.684 Y101.657
X9.668 Y101.689
Z4.
G0 Z10.
X11.425 Y102.382
Z4.
G1 Z-1. F216.
X11.464 Y102.38 F649.
X11.505 Y102.365
X12.64 Y101.616
X13.255 Y102.547
X13.283 Y102.58
X13.321 Y102.601
X13.358 Y102.602
X13.392 Y102.589
X13.418 Y102.562
X13.431 Y102.528
Y102.486
X13.413 Y102.447
X11.821 Y100.034
X11.796 Y100.008
X11.762 Y99.998
X11.727 Y100.002
X11.696 Y100.019
X11.672 Y100.046
X11.657 Y100.08
X11.661 Y100.123
X11.68 Y100.162
X12.047 Y100.718
X10.907 Y101.471
X10.877 Y101.5
X10.864 Y101.539
X10.868 Y101.58
X10.888 Y101.616
X10.916 Y101.645
X10.953 Y101.661
X10.998 Y101.665
X11.041 Y101.647
X12.169 Y100.903
X12.52 Y101.435
X11.383 Y102.185
X11.353 Y102.217
X11.337 Y102.25
X11.343 Y102.288
X11.361 Y102.327
X11.392 Y102.361
X11.425 Y102.382
Z4.
G0 Z40.

M5
M30
